vnguyen43/Hybrid_Robot_Kinematic_Model/Robot Poses/Data_UR10_0500.csv
q1 (deg),q2 (deg),q3 (deg),q4 (deg),q5 (deg),q6 (deg),x (mm),y (mm),z (mm),r_x (deg),r_y (deg),r_z (deg)
60.0259,-65.0021,83.5848,42.851,61.2452,43.133,-135.504,-24.0254,-122.369,-76.6093,-19.2177,46.5482
60.1852,-92.4542,76.181,48.364,75.9329,59.6758,244.717,-210.266,-38.6643,-101.024,-14.2833,33.8829
60.4763,-75.9129,93.9507,45.641,63.411,45.466,-89.7737,-121.556,-63.3616,-77.6319,-16.9105,50.3637
60.5742,-70.1529,97.1318,19.791,61.715,63.8871,-203.268,-64.5793,-91.1473,-82.9699,-4.28598,38.3194
60.6161,-69.4602,89.6667,5.4708,49.25,91.2962,-139.801,8.83685,-113.755,-75.9936,14.2509,22.2056
60.6189,-65.5819,97.3169,20.928,59.7211,66.7393,-258.547,-57.0544,-91.6295,-79.4241,0.871533,43.6443
60.6871,-62.0118,84.8161,10.077,67.6388,66.8722,-206.461,48.7483,-163.585,-92.3896,-7.11497,29.5262
61.169,-94.5478,73.1782,25.591,74.3963,47.532,315.28,-184.111,-39.9587,-106.005,-38.8651,14.0737
61.173,-95.1918,71.575,39.245,55.175,55.591,325.831,-218.332,10.5331,-81.7231,-26.2183,8.48293
61.216,-97.2751,80.6369,41.66,50.753,69.5978,255.007,-236.101,27.6271,-76.8592,-7.71263,17.1469
61.2223,-69.2391,92.5579,6.51722,71.7618,95.9481,-179.417,-7.25815,-130.819,-97.7048,20.4655,25.2411
61.2732,-88.3822,73.1197,26.158,63.3961,46.938,251.7,-119.76,-55.5418,-91.2665,-37.334,10.0054
61.283,-71.7561,90.3572,-5.4236,51.777,51.296,-111.136,20.8334,-114.162,-77.8878,-31.0545,3.2581
61.3781,-95.6891,76.3781,49.769,44.684,72.5599,284.658,-241.732,40.1054,-70.0958,-1.85736,20.8461
61.3913,-78.9209,84.6889,27.163,82.0137,74.5441,14.582,-67.4445,-113.984,-105.554,0.592577,33.3267
61.4279,-84.949,80.7888,30.599,67.2532,68.7693,128.32,-102.861,-68.724,-92.6072,-8.48033,24.1491
61.5099,-75.4969,94.2762,13.333,77.2158,49.774,-118.977,-55.7188,-109.996,-102.068,-24.2905,36.0685
61.6898,-91.2848,82.071,-0.825879,41.372,89.9229,219.294,-103.32,-27.6247,-69.2911,-4.09877,-9.68928
61.6972,-98.2938,99.9101,9.49127,96.8872,88.0309,76.4041,-209.877,-60.0544,-124.531,3.95452,10.7262
61.7207,-74.8839,91.6881,9.89991,97.3851,42.092,-101.114,-46.6138,-149.09,-125.975,-27.5737,50.1474
61.7631,-64.0418,76.4881,25.01,49.661,58.0011,-89.0753,53.1904,-121.431,-72.5432,-13.0867,23.66
61.8468,-89.3889,92.0881,25.012,67.5632,58.2612,62.039,-145.455,-40.5933,-92.4808,-18.5349,25.6685
61.911,-86.28,72.325,28.985,80.814,87.529,231.135,-108.615,-83.6574,-107.102,5.01565,13.8338
62.0261,-82.9798,99.4597,18.423,48.566,57.8561,-70.1966,-119.633,-22.8587,-71.8406,-14.3611,21.0003
62.088,-83.037,76.5901,48.586,74.2152,94.5478,144.664,-122.594,-61.924,-95.5971,23.2336,37.7849
62.1069,-62.4341,83.5493,26.808,51.194,82.1341,-175.588,25.4154,-102.664,-71.172,13.6331,40.8354
62.1579,-91.0378,84.5571,15.903,64.4068,83.6249,167.802,-125.026,-42.8819,-91.4976,-1.48473,7.98123
62.159,-91.3409,95.5178,32.237,65.0152,48.727,46.4593,-182.645,-12.7796,-87.2646,-24.6978,30.662
62.3848,-94.1393,88.9362,-2.9778,90.2953,63.945,179.766,-131.457,-82.5256,-120.267,-26.2875,5.44223
62.7429,-66.148,70.8182,-2.4991,69.6338,84.2431,12.2398,120.995,-172.619,-96.4317,-4.10947,2.08083
62.771,-80.3539,81.9398,12.122,50.289,81.4643,76.7732,-30.0986,-63.3393,-76.6239,-1.37322,9.75912
62.8088,-99.0392,76.7958,14.457,61.864,83.9332,336.059,-203.784,9.53724,-88.3977,-9.08588,-7.74121
62.8581,-74.5922,76.7248,4.7737,43.662,46.304,65.101,33.3095,-86.4409,-65.2933,-36.8211,-11.3096
62.9343,-62.2731,77.4679,-3.5776,83.5561,83.4547,-122.45,115.77,-190.21,-110.182,-0.250963,12.0073
63.0339,-89.8083,86.4863,20.077,92.013,40.519,126.015,-135.583,-75.0813,-123.944,-35.516,39.9164
63.0391,-83.3539,82.9752,40.203,53.682,48.027,94.0064,-111.571,-22.6605,-73.7403,-23.1336,24.796
63.1268,-90.2861,90.5508,35.391,48.549,63.5828,94.3637,-169.513,15.2765,-70.8838,-9.17549,23.3194
63.2448,-79.1982,91.0968,-6.71249,85.6927,51.286,-22.2537,-16.0615,-121.632,-116.362,-32.7361,20.2638
63.3262,-81.2993,96.2059,3.0675,41.316,78.965,-52.0568,-66.4744,-25.0098,-66.9288,-1.4191,11.1351
63.333,-88.8491,95.8501,7.06749,54.928,48.943,30.5748,-112.17,-20.0934,-78.7521,-33.5399,4.66683
63.3531,-71.1298,77.0451,9.34758,87.1039,78.3588,2.59913,44.9486,-153.508,-112.31,-3.48036,17.8279
63.3772,-72.6648,81.6482,47.25,68.9601,47.622,-22.2028,-55.1755,-70.9238,-83.7446,-19.9785,48.0766
63.3857,-90.9341,81.8762,36.289,44.897,43.622,188.566,-166.145,20.8983,-65.387,-30.6211,6.26767
63.4161,-74.2078,92.1648,12.503,56.738,52.781,-107.321,-29.0113,-63.3589,-79.0522,-22.8754,20.1846
63.4213,-78.6367,92.7802,39.772,45.491,77.3682,-41.9079,-110.494,-6.90542,-63.2551,10.7918,43.9124
63.6751,-89.8501,87.9112,-5.99938,65.5292,52.511,147.439,-76.5951,-50.7152,-91.6064,-40.4248,-6.80651
63.6957,-88.5059,92.4301,44.632,61.2773,98.2829,54.603,-179.611,8.24519,-78.4277,27.9819,46.7296
63.7799,-81.2362,70.067,1.9494,74.834,88.5168,233.815,-3.65187,-101.808,-100.296,-4.92572,-8.64327
63.8579,-79.1003,71.7819,38.669,51.263,89.8679,156.362,-57.3065,-36.5889,-73.5064,13.6741,28.1265
63.8687,-78.4563,88.1501,12.542,57.106,90.4649,-14.1877,-32.4153,-56.1075,-81.3101,10.7175,19.559
63.8848,-67.0252,86.8558,23.108,43.02,74.8122,-138.871,2.64971,-53.7461,-63.8181,4.79926,32.0189
63.902,-73.3392,75.313,37.024,67.2337,51.626,41.6848,-15.8613,-80.321,-87.2214,-21.8054,33.5878
64.193,-72.0941,81.3881,24.448,90.69,78.3119,-39.1275,-8.33666,-119.919,-112.257,3.87588,34.9556
64.2223,-66.5198,72.8441,31.092,65.4593,43.812,-26.1709,47.7059,-103.639,-85.1078,-30.2178,30.3269
64.2492,-65.6421,94.3931,19.508,44.558,58.2308,-223.965,-27.1156,-35.7213,-63.1678,-8.70637,30.0612
64.2658,-89.2382,93.6809,19.541,50.494,78.0002,52.2359,-134.483,8.28714,-74.2143,-0.757945,17.9588
64.2698,-70.4538,70.6159,17.024,74.563,53.776,56.8843,58.3118,-123.612,-99.7002,-27.8733,20.7291
64.4451,-93.3102,92.276,43.767,75.698,59.5481,94.5992,-215.429,9.62366,-94.3198,-13.0592,41.5406
64.4469,-64.4148,77.7991,21.829,59.799,47.214,-102.682,61.8962,-97.7246,-79.6162,-27.1638,24.4846
64.448,-74.4272,71.1172,30.027,41.991,44.033,110.903,-3.08598,-42.7739,-61.2945,-29.4856,3.32497
64.558,-97.7271,72.1067,22.271,54.632,53.639,361.113,-211.498,42.0348,-77.4055,-36.5317,-11.7493
64.6972,-83.7217,98.708,16.792,49.117,97.4532,-55.531,-113.069,5.37152,-70.107,20.7698,31.2209
64.703,-89.2399,72.215,23.794,81.7181,78.0002,272.23,-122.105,-43.3098,-106.295,-8.20497,9.20592
64.7603,-72.1617,78.9198,45.34,71.2078,68.2662,-5.7163,-36.3991,-64.6458,-86.9001,-1.64304,47.2076
64.8359,-64.5368,75.6213,6.69272,83.4158,56.09,-77.8409,99.3743,-148.82,-108.544,-24.351,25.8736
64.9402,-66.584,77.3229,48.113,62.6008,49.006,-56.3269,-2.92293,-64.1425,-75.5647,-18.2109,45.7118
65.1808,-95.0652,91.8709,15.455,79.2349,79.1747,128.17,-165.153,-12.373,-103.054,-4.99772,13.2502
65.1957,-68.779,71.5401,43.667,64.083,66.1932,21.7736,12.4866,-70.0275,-81.4701,-5.33941,39.3149
65.2393,-81.0311,91.0172,-0.666843,54.618,77.3121,-2.11279,-28.5899,-35.4937,-78.9067,-7.82877,5.4762
65.2731,-98.7418,94.3851,-5.91831,81.1709,68.1619,169.269,-160.264,-17.4037,-106.697,-24.8488,-3.62715
65.2788,-60.2522,79.4738,-8.84458,59.316,49.39,-166.449,138.712,-119.467,-81.9111,-35.2327,3.43148
65.3269,-91.7609,97.7369,-0.1661,68.5647,75.3021,47.4264,-118.925,-14.107,-92.9271,-11.6919,5.55453
65.4192,-67.3609,80.6513,35.073,57.8808,88.3312,-82.918,10.0096,-55.3245,-74.4663,17.1137,44.4698
65.4398,-88.8692,90.8969,18.104,87.7221,42.07,69.7742,-125.129,-42.8043,-115.063,-36.0733,36.5221
65.4621,-77.0141,75.4219,-1.0674,83.5109,63.8699,119.03,37.0466,-110.441,-109.437,-25.3566,5.72923
65.4919,-79.8898,78.3228,39.878,98.4359,60.5009,88.3559,-88.3438,-78.4963,-117.139,-11.1183,48.6362
65.5452,-86.9939,94.7741,39.779,70.3082,65.7538,10.3176,-166.491,7.61451,-86.9736,-6.00972,42.8228
65.6747,-85.2429,82.436,26.987,73.723,99.6551,114.477,-93.0062,-30.4972,-95.8078,19.7691,20.9579
65.7458,-73.5059,90.6683,21.376,44.962,75.945,-93.4081,-36.1396,-11.7883,-65.0433,2.95241,29.0593
65.7979,-81.9943,73.1449,4.4543,80.8019,68.2461,203.674,-11.7877,-78.6207,-105.568,-22.2808,1.43556
65.822,-91.6429,78.8218,25.437,97.2808,62.1401,223.959,-154.994,-41.9494,-121.727,-18.4943,25.8459
65.8288,-98.0061,91.3787,22.819,85.8102,65.6237,153.86,-206.816,2.18789,-109.214,-16.1824,22.3671
65.9131,-77.6129,73.6148,22.359,97.6549,95.8472,116.473,-20.1983,-102.535,-120.88,12.9119,13.5576
65.995,-82.1931,82.6331,13.888,63.6052,82.0493,87.9408,-39.9469,-33.7489,-86.5805,-1.5262,12.1704
66.0953,-86.355,96.0082,22.959,40.204,82.9379,4.62874,-133.308,41.6853,-60.9769,7.21145,26.1096
66.2093,-78.2231,73.9608,9.57057,53.194,53.877,138.149,12.5979,-39.2486,-74.1495,-32.0833,-5.06028
66.2717,-96.9359,91.353,2.8267,82.6933,92.9441,170.637,-155.705,-10.7022,-106.053,2.1804,-3.80979
66.4872,-63.36,90.5107,32.814,48.415,54.465,-212.407,-19.0145,-13.5699,-61.3993,-10.464,39.9344
66.5038,-81.1629,79.9631,40.593,77.0428,92.8197,88.8306,-87.6078,-28.02,-95.2369,17.8057,36.3235
66.6258,-81.5628,73.5248,-2.5136,55.437,69.3342,203.961,6.26339,-34.0332,-77.2528,-23.6277,-14.7396
66.7169,-98.0187,89.0697,33.251,91.0212,52.222,169.776,-230.433,12.1771,-113.869,-25.4101,36.6744
66.7479,-72.1721,73.5901,36.459,93.0271,62.9537,38.6714,-6.81176,-87.9505,-110.867,-10.993,44.5862
66.7599,-69.1211,85.9362,-0.865963,96.14,93.1251,-112.024,48.4384,-116.688,-118.935,9.59616,12.6624
66.847,-76.6812,84.054,21.671,82.334,72.1039,-4.90472,-25.5796,-59.2204,-102.095,-6.0155,30.285
67.0613,-83.6071,84.6511,-7.97849,86.4393,85.9419,112.45,-15.7496,-68.3241,-108.787,-6.00421,-5.48816
67.1971,-65.567,81.3652,20.085,91.4991,44.817,-128.464,42.1247,-98.891,-111.809,-28.9366,49.0075
67.2738,-74.5687,93.458,32.668,50.431,93.0449,-103.42,-74.8024,17.9691,-64.2654,21.0167,50.1017
67.3168,-77.9079,79.5231,24.484,71.4782,57.4281,58.4622,-22.818,-35.893,-91.5354,-22.2488,24.6383
67.3397,-80.606,79.4927,37.681,72.584,64.3821,87.9898,-73.3099,-16.2558,-90.5002,-11.9082,34.0766
67.3558,-89.7418,82.9792,11.969,91.3828,76.652,174.048,-104.602,-35.2934,-113.576,-9.77773,9.96421
67.4749,-76.2257,83.2519,17.282,47.331,68.7079,10.3048,-9.82262,-3.24096,-67.6734,-9.88503,14.021
67.558,-78.7863,75.8871,10.542,81.9771,59.449,120.366,5.97976,-62.647,-105.29,-26.1033,14.4137
67.7912,-84.128,80.5229,11.748,67.0189,71.7143,136.615,-44.4822,-13.4642,-88.4953,-14.5635,6.64864
67.864,-82.3971,91.891,-4.0546,50.263,72.4058,9.34743,-31.7285,7.23724,-71.7746,-13.8899,-0.867819
67.8909,-73.6789,77.2273,20.527,50.282,64.6251,36.7811,19.2363,-13.4803,-69.8059,-14.334,13.3674
67.9121,-60.7077,77.728,14.439,73.393,53.979,-160.299,101.779,-81.361,-92.0636,-24.0099,29.992
67.9247,-79.4652,88.518,43.264,64.833,60.2689,-6.32667,-102.176,15.6835,-78.3392,-11.3537,43.5019
67.9488,-89.8398,95.178,18.899,95.5499,58.0068,33.7585,-146.75,-17.48,-116.616,-19.6841,36.1158
67.9969,-65.7337,90.0048,21.901,71.8678,93.0243,-201.868,1.10928,-35.6827,-87.3651,19.5152,43.4827
68.2811,-82.6629,86.9773,-0.50741,55.392,84.6442,62.518,-23.0201,2.04066,-76.9378,-3.08335,1.76373
68.496,-65.0869,77.5092,4.0551,63.1061,47.881,-83.7758,109.327,-58.8339,-81.9065,-35.0605,9.31503
68.5779,-65.4077,77.2748,20.347,65.469,45.831,-85.3721,72.41,-46.4502,-82.0647,-31.9774,24.1246
68.787,-86.3568,82.1879,21.398,98.598,90.721,132.708,-97.0088,-33.0397,-118.787,7.21838,15.5412
68.8701,-92.005,89.6112,-8.44861,56.393,73.1541,155.523,-88.3915,33.7891,-76.3996,-19.5888,-14.7417
68.952,-87.2162,92.8432,33.771,71.0198,90.6688,29.3501,-145.173,35.1079,-87.2021,14.2889,36.999
69.1067,-84.9037,85.919,30.111,83.166,76.1192,71.4616,-103.424,0.307545,-100.502,-2.60746,31.5722
69.1119,-90.1222,97.3238,14.439,54.003,46.624,24.544,-136.808,59.4438,-70.2336,-33.0959,6.28458
69.1371,-93.034,97.6813,33.371,51.872,48.918,48.5607,-200.679,87.0965,-66.4119,-24.884,20.0602
69.1589,-81.0609,92.0491,23.136,44.445,95.0399,-17.0756,-83.5903,51.9485,-61.1702,16.8266,34.1548
69.1881,-83.1568,96.2048,19.844,52.911,71.8472,-39.7305,-101.917,48.5294,-70.5833,-5.28502,24.4578
69.2122,-79.0561,82.7809,15.886,63.0001,51.341,45.8549,-17.4768,1.45093,-80.9045,-30.7803,12.2519
69.3909,-83.8168,72.7708,14.209,56.489,93.725,216.787,-41.3532,21.8502,-76.8482,5.48201,3.35239
69.4912,-94.0963,94.7071,29.231,43.684,86.8822,91.9855,-195.912,99.0004,-61.5859,7.98041,26.0881
69.5152,-93.1641,82.6119,2.3859,86.504,46.747,232.923,-114.588,2.86951,-112.752,-43.3627,7.44562
69.5972,-66.3227,90.843,-1.6839,62.2519,81.1171,-196.538,51.2636,-17.3332,-81.1919,-0.204924,19.2956
69.5972,-74.8048,94.436,9.56249,98.3591,64.1529,-128.976,-37.9562,-43.929,-116.345,-13.1181,38.3038
69.5978,-75.462,89.665,38.406,64.1461,93.9989,-64.8113,-71.8967,25.9428,-76.7429,20.8712,51.399
69.6682,-78.2448,83.5521,11.661,50.758,85.3088,33.8121,-8.34297,21.6404,-70.1576,2.19792,13.7817
69.741,-89.3407,90.0369,19.386,44.978,84.097,93.3578,-126.581,73.9409,-64.1285,2.25137,15.7591
69.7461,-84.0288,94.3398,10.316,54.208,84.5932,-9.33147,-77.8427,44.1722,-73.2138,2.55436,17.343
69.843,-61.7161,85.2991,6.0875,62.9222,74.0118,-212.424,81.0276,-25.681,-80.4032,-5.13155,24.6381
69.8808,-72.03,87.9462,12.651,71.0347,60.5679,-98.8367,12.3333,-12.7028,-88.4094,-19.2714,25.5346
70.0028,-60.9661,76.1553,25.825,72.9077,59.877,-141.719,85.9977,-41.2682,-87.5929,-16.3974,37.1137
70.0429,-78.914,91.2177,-7.35007,96.3131,58.6669,-26.4684,-3.16415,-47.9813,-118.937,-25.728,18.8894
70.1707,-83.0623,70.3099,0.933652,75.1371,82.1238,256.98,-7.65647,-9.57042,-94.3172,-11.1739,-11.0224
70.2039,-73.8222,72.6969,6.14331,73.562,62.5968,94.563,66.5191,-33.0215,-93.1433,-24.9624,5.69404
70.2171,-84.682,89.6679,-9.62649,74.2358,70.2481,69.8323,-23.2051,-1.15644,-93.9692,-20.6087,-3.48291
70.3002,-75.5622,78.8189,46.069,46.045,75.7989,53.9161,-52.84,51.9114,-59.7475,3.25779,39.6865
70.3231,-65.5212,82.7299,25.852,97.73,45.757,-141.319,24.9704,-55.9621,-113.651,-27.261,58.2381
70.3947,-82.9712,76.8692,11.412,71.4272,41.418,163.355,-26.4366,6.88079,-90.4484,-46.1899,4.80606
70.4199,-96.6247,73.5661,19.803,42.385,52.475,339.252,-199.295,110.141,-55.4417,-32.7653,-23.4982
70.475,-90.886,86.3929,44.823,91.514,61.3242,127.291,-190.692,33.3298,-106.116,-14.9138,46.0027
70.4881,-64.6291,70.7328,22.949,60.4992,72.5978,-29.4598,97.3677,-18.8657,-77.3174,-6.85518,23.1036
70.499,-96.4019,92.2193,40.945,76.8778,87.7972,122.401,-231.056,73.1128,-92.2621,9.66006,34.7982
70.5517,-62.1928,73.0177,27.474,41.566,72.8882,-75.9838,85.1377,11.268,-57.2729,-1.63985,26.6999
70.6881,-69.1119,96.929,7.89209,98.9762,87.8648,-223.827,-27.9805,-33.4633,-114.66,9.77602,34.5419
70.7649,-88.1788,94.1329,43.174,51.748,98.4221,41.2173,-178.368,95.0031,-63.125,22.694,50.756
70.833,-64.5511,79.5792,34.991,42.409,83.1877,-98.2117,32.1549,33.596,-55.417,10.0074,43.5638
71.017,-89.877,80.135,23.03,63.6762,53.758,195.857,-118.087,59.3189,-80.3669,-30.9218,6.35322
71.041,-83.0852,83.6822,36.972,41.177,51.893,92.1869,-104.134,84.7497,-54.3695,-19.5217,14.0677
71.1041,-99.4059,71.1402,34.706,90.5308,51.066,367.276,-260.964,65.235,-112.523,-34.3614,19.2006
71.1402,-92.8747,89.8839,22.048,65.6747,65.9423,123.473,-153.144,70.1259,-82.887,-17.2706,14.7312
71.1619,-94.4103,88.0098,36.196,92.543,95.9939,146.516,-202.63,42.8943,-108.956,15.2045,26.2729
71.288,-73.8623,81.517,42.287,53.563,89.4782,-0.0463203,-39.5033,50.3838,-65.5541,14.4734,47.3328
71.3092,-91.8509,89.2021,26.49,99.2838,49.975,114.081,-163.947,19.83,-119.267,-28.0586,40.8233
71.3441,-95.1603,89.5659,-1.9963,55.975,94.1049,180.139,-127.519,77.639,-74.6075,2.24375,-6.73729
71.441,-85.8978,88.8102,38.974,93.1801,40.765,52.1816,-142.999,24.4798,-109.48,-34.6341,55.0246
71.6071,-62.08,83.975,11.233,50.722,68.5349,-189.449,74.3418,20.5997,-65.8535,-8.93365,22.4115
71.7131,-64.2309,78.0941,26.92,63.7479,90.5411,-108.997,63.5666,7.23325,-77.3657,13.1044,38.6039
71.8071,-78.2001,91.9219,6.89961,64.0177,98.4009,-55.2312,-22.7387,36.9562,-80.7184,15.3645,20.4393
71.8208,-75.647,83.987,20.725,89.5722,87.8791,-17.5385,-11.9288,-8.23652,-105.357,7.22569,28.0472
71.8529,-96.2472,74.2611,13.941,40.072,76.3581,335.533,-186.459,122.272,-56.8271,-13.2362,-15.441
71.9761,-83.677,96.2861,13.301,72.1067,70.593,-40.482,-86.7265,47.5096,-88.0611,-10.9907,23.561
72.05,-82.8027,81.4402,28.809,80.2863,99.5021,94.4781,-70.5888,29.2506,-95.9539,18.0944,24.9949
72.2597,-66.8882,77.8352,18.854,46.715,77.3619,-60.2556,64.8431,38.1209,-62.2585,-1.55704,21.9741
72.3657,-89.7561,86.928,48.569,94.2768,46.319,112.202,-192.403,48.4968,-107.809,-29.3111,56.4912
72.4488,-81.5021,91.6818,10.597,45.209,91.4332,-7.99374,-57.4662,81.8528,-61.3988,8.24876,19.9679
72.5622,-81.7387,73.5489,12.839,83.751,60.5061,182.301,-15.3611,11.7481,-101.854,-26.9276,9.93037
72.6843,-86.245,78.9983,-5.0444,40.939,72.4327,201.952,-41.0981,83.7534,-56.0983,-17.5868,-21.7852
72.7507,-66.977,83.7372,21.272,62.4828,61.3901,-124.221,38.0405,32.6039,-75.22,-16.5108,28.9805
72.8413,-99.6431,96.5571,4.3695,61.6669,52.999,135.481,-185.051,104.335,-75.9364,-35.0325,-8.26769
73.0258,-65.7692,99.7777,4.9371,76.6411,91.7403,-289.03,-21.0272,33.4784,-89.8924,13.0077,37.0244
73.0561,-92.272,92.0371,16.453,67.8348,57.435,98.2276,-139.864,83.2843,-83.0256,-27.07,11.5227
73.2802,-88.4211,70.6371,43.707,92.0508,79.0642,260.409,-154.859,49.686,-106.24,-3.00416,27.9145
73.2847,-96.0673,79.444,39.871,81.5032,46.255,248.649,-219.523,87.4576,-97.4972,-36.6307,27.2813
73.3369,-65.6209,70.0298,12.513,79.919,50.13,-5.71697,121.702,-12.6004,-96.3682,-34.1903,19.8197
73.3672,-70.8101,87.3222,29.857,43.636,76.6182,-90.752,-23.0194,84.3451,-55.3932,1.53782,36.8465
73.4142,-80.076,81.9662,23.497,94.6641,42.825,57.934,-43.0644,13.7949,-113.752,-36.8578,41.4202
73.4853,-84.529,98.2898,45.05,61.6268,75.6419,-36.8996,-174.955,108.052,-70.4448,1.05924,52.4224
73.5088,-62.4071,93.069,-7.46209,91.1839,77.4948,-273.993,60.1161,-9.06655,-106.033,-4.94,25.1026
73.5798,-84.0558,85.9018,16.171,55.83,99.2489,75.8968,-63.8078,83.894,-70.7955,14.5602,19.8765
73.8119,-90.7559,87.6219,9.78681,93.4838,76.2693,136.436,-109.435,40.2592,-109.415,-10.5948,10.7359
73.86,-97.2252,75.5101,-2.5724,52.869,66.3411,362.638,-163.795,119.944,-64.8832,-27.6501,-34.0427
74.029,-82.3082,72.2202,40.338,40.586,73.42,195.832,-92.2555,115.713,-54.2907,-4.75639,19.1985
74.0382,-69.1892,78.7467,6.8905,73.1392,81.4981,-40.0367,84.635,20.6583,-88.1797,-3.29434,15.002
74.0663,-79.2779,90.776,8.71641,96.5147,45.579,-35.0944,-33.5902,16.5098,-115.805,-35.2052,36.8546
74.1258,-82.0647,70.2349,-2.6788,54.49,74.9509,248.999,6.19972,71.2316,-68.8526,-17.1902,-19.6568
74.6008,-88.0413,72.729,9.34889,89.9721,78.5199,275.484,-74.6704,44.9923,-105.109,-12.1075,-3.16789
74.673,-65.4129,79.9591,14.678,82.1799,85.3999,-114.358,80.4068,16.9921,-95.1756,3.44841,28.1308
74.6971,-99.9788,90.3921,49.278,54.216,43.079,180.529,-286.452,161.011,-61.3561,-32.2729,17.523
74.7337,-81.984,99.2758,27.527,58.0721,92.0732,-82.0579,-128.113,112.901,-68.6734,13.4812,43.7249
74.7389,-84.262,76.5271,22.694,66.3422,63.1709,170.776,-61.4097,81.608,-79.9589,-21.8714,9.55394
74.7698,-80.8208,78.1881,1.3524,94.2607,88.3071,134.756,8.72199,17.1019,-109.073,-1.34823,-0.987139
74.869,-96.6013,78.6419,29.411,67.8777,78.313,273.09,-202.875,119.663,-82.2918,-8.0366,9.14768
74.8959,-68.5779,81.4992,-5.73783,75.2208,68.9979,-65.3674,105.347,24.3466,-90.0413,-18.3635,6.40228
75.144,-84.2122,75.113,22.62,65.8907,59.5183,185.798,-59.8741,86.8729,-78.8483,-25.8092,7.0595
75.2179,-72.1938,73.1438,13.451,54.357,67.2979,61.8318,61.5838,71.8427,-67.5507,-16.5895,5.0817
75.3147,-85.3541,80.6782,39.171,52.766,86.2783,138.938,-119.485,123.484,-64.6856,5.53351,31.4385
75.5897,-74.1081,82.8869,30.507,82.9901,69.855,-27.5312,-17.8839,54.7471,-93.7104,-10.5109,38.9806
75.6379,-96.717,81.207,8.10363,73.1312,45.154,276.126,-159.565,107.367,-85.6804,-45.9865,-10.6603
75.6889,-90.9519,97.1547,7.7304,96.713,99.729,34.2064,-130.348,62.159,-110.645,13.0359,9.88027
75.8567,-82.4887,99.8001,30.663,88.3782,96.9628,-90.4873,-143.017,81.9036,-98.3579,18.1028,45.6875
75.9599,-98.323,75.7009,19.275,86.6289,96.717,333.915,-207.4,101.03,-100.388,6.31049,-4.8289
75.9702,-75.1617,71.3521,-1.2091,67.0819,94.2802,140.537,75.5653,60.5245,-81.0508,3.84531,-4.79072
75.9908,-78.136,86.5527,-8.08461,62.5613,53.934,17.9621,30.4988,79.5256,-73.5741,-34.0217,-9.81057
76.0722,-73.5202,98.9332,-1.7342,86.3419,56.996,-182.793,-20.2806,56.3994,-99.7426,-26.4631,27.6168
76.0842,-94.695,82.9179,22.491,64.2601,79.95,216.932,-168.404,128.303,-77.6755,-6.59704,7.84646
76.0939,-83.9068,92.81,1.2056,88.5632,85.978,8.14023,-48.6891,59.7684,-101.915,-0.942977,10.3585
76.1558,-71.1579,88.2962,27.217,60.1921,84.5439,-108.209,-18.7117,98.1428,-70.1257,5.40977,40.657
76.1982,-94.7088,81.2408,32.763,47.139,67.6331,231.119,-200.639,160.581,-59.1247,-14.0601,6.92348
76.2727,-84.7937,84.2758,32.354,94.565,57.5977,86.0282,-105.824,66.0032,-106.927,-23.5954,39.7526
76.3552,-74.8518,85.4927,4.4771,53.092,67.181,-26.2913,24.1395,99.6394,-65.1877,-16.4205,4.84157
76.691,-76.7099,73.2928,20.227,59.0811,51.606,115.051,12.04,98.4782,-68.212,-31.5845,2.66246
76.7099,-98.9911,72.6121,43.872,83.732,64.1128,339.548,-273.66,128.863,-96.1313,-21.4339,19.6797
76.8302,-88.7913,80.7011,38.35,53.331,55.383,174.571,-151.02,146.956,-62.0031,-23.8033,13.6988
76.8697,-81.5709,83.9452,46.38,81.6877,91.2911,55.2239,-111.062,95.473,-90.2352,11.6359,47.4775
76.9671,-68.4008,77.2141,12.339,47.867,72.784,-31.8068,72.9729,103.051,-59.4903,-9.2425,11.5198
77.088,-84.627,70.538,21.267,40.088,63.2717,245.613,-78.9158,148.362,-50.1898,-18.5392,-10.1579
77.2078,-86.8971,78.9771,8.04908,74.8947,64.5712,192.631,-57.47,97.4398,-87.0474,-24.6948,-1.66489
77.2571,-74.0949,84.5342,6.8901,44.101,46.649,-24.735,19.6086,124.075,-49.8028,-30.5306,-9.89082
77.296,-77.4009,75.3061,-1.9397,74.2588,90.9828,127.484,53.4244,74.1049,-86.8762,0.861248,-4.41011
77.4278,-91.3593,94.9729,-1.9898,79.0023,91.4297,76.4954,-101.816,104.052,-91.4111,2.41764,1.19954
77.4341,-89.5138,72.3199,33.21,78.7318,54.047,263.601,-139.199,112.555,-90.1546,-31.991,15.4727
77.4868,-77.2359,79.1318,-6.86168,62.52,67.3758,88.7809,54.088,94.7838,-73.7717,-22.0282,-11.5749
77.5498,-63.7479,96.8482,11.272,80.143,82.7448,-291.117,-12.153,84.805,-89.1215,2.28717,43.0062
77.6071,-94.306,70.0538,27.056,63.0368,53.147,344.792,-188.493,149.65,-71.6488,-34.1674,-8.56577
77.6639,-73.2928,81.6763,8.57151,88.6549,72.4133,-15.8931,44.0366,58.8174,-100.355,-13.1011,19.2146
77.7819,-60.7771,94.0189,-6.78548,78.7038,55.564,-305.013,59.3766,74.2215,-89.1352,-28.2739,24.48
77.8231,-82.9901,96.9158,3.0639,75.9748,62.1459,-48.6317,-63.0312,105.112,-87.1459,-23.5931,14.7679
77.8713,-98.2221,97.4143,33.305,47.393,84.4219,99.4843,-253.535,187.963,-57.5562,2.45205,28.4545
77.9372,-77.2931,91.7987,12.834,48.293,46.476,-61.1043,-40.8688,141.59,-53.3669,-30.2758,2.03744
78.022,-92.9653,92.2009,40.113,54.614,67.6738,101.223,-211.152,170.799,-63.0189,-11.8879,28.1998
78.0351,-99.9462,87.635,37.513,98.8599,90.9937,199.859,-262.423,112.964,-109.15,6.26473,24.2619
78.0368,-94.4452,74.029,-4.3433,61.6222,49.29,357.915,-131.265,143.607,-66.4513,-42.8695,-39.5566
78.0752,-86.4771,75.0758,-3.3478,55.66,70.5408,250.528,-40.3067,132.718,-65.6239,-20.0766,-22.5475
78.152,-91.6618,87.1308,39.912,80.288,74.3779,129.019,-185.281,128.004,-89.4011,-8.37197,34.12
78.3858,-78.3462,88.8973,15.795,69.5708,92.7321,-28.3652,-31.9404,115.604,-79.6967,8.54757,25.7733
78.3949,-67.3833,76.3988,20.606,85.0149,69.3479,-52.4965,71.5755,69.3528,-94.6958,-14.2685,30.1434
78.47,-94.3472,73.3982,41.513,88.4968,60.5628,292.625,-214.864,123.46,-99.3284,-24.6851,24.6309
78.6957,-68.987,74.2261,41.659,91.8262,68.4289,-8.95644,14.9796,73.8201,-99.0294,-12.6463,49.1348
78.8373,-64.4893,74.834,8.46471,90.23,85.3128,-71.9241,122.3,56.9363,-100.448,-0.36139,18.8866
78.8441,-91.7798,96.0019,16.269,45.32,68.5469,57.988,-164.028,180.946,-54.7616,-12.9416,7.54514
79.3621,-89.7619,73.5139,-0.25141,90.8659,73.9041,305.809,-79.4638,101.819,-101.383,-18.1654,-13.4241
79.4721,-76.5558,76.3609,1.7286,84.8602,86.1757,97.502,50.8117,88.7313,-95.09,-2.85233,1.42062
79.5437,-92.4118,76.365,30.108,66.8808,64.8663,256.023,-166.406,159.123,-75.7451,-21.2557,7.33783
79.5558,-76.6881,91.0808,19.073,90.7817,53.504,-75.456,-42.858,98.5835,-100.169,-29.776,38.6065
79.5701,-95.2307,84.6282,47.812,59.9537,89.1402,193.978,-241.036,183.471,-67.9477,6.02827,35.8626
79.5878,-92.8959,87.2649,-6.122,58.5483,87.9089,189.876,-104.197,159.941,-68.7741,-3.30681,-12.8073
79.5959,-85.5042,85.169,43.064,57.4871,99.4712,95.1763,-142.559,168.9,-63.9786,16.3212,45.9116
79.597,-71.1121,81.9169,4.1832,95.4863,51.23,-45.2193,63.9277,70.9988,-108.252,-33.9642,25.6506
79.6348,-87.2769,93.9353,16.967,75.4958,49.343,22.0527,-113.378,137.274,-83.3259,-35.6589,18.5764
79.7672,-90.1308,89.6112,43.979,64.2309,80.991,96.3041,-188.324,169.498,-71.2138,-1.01379,39.6665
79.9288,-63.5238,92.1482,-3.6926,84.6728,43.027,-251.529,59.3353,95.1623,-94.6146,-41.8784,27.3722
79.9351,-72.0042,71.8609,36.257,91.832,64.2377,54.2318,13.6536,90.7721,-99.7855,-19.063,39.4232
79.986,-98.8948,85.4733,9.62151,95.4731,53.144,246.892,-190.8,122.378,-108.529,-35.5524,7.05165
80.0009,-62.8672,71.9263,7.00309,91.526,89.5871,-64.1661,145.669,68.7215,-100.817,3.03734,15.5188
80.0193,-95.0772,71.8008,16.311,55.322,54.937,349.503,-182.447,183.052,-60.1227,-31.8265,-23.802
80.1889,-94.9821,70.1827,37.414,75.1262,72.9198,336.249,-219.548,162.168,-84.1076,-14.3364,10.2971
80.2382,-83.6948,72.4259,30.382,40.275,92.6312,210.549,-94.2833,187.783,-49.0332,6.00823,20.3321
80.272,-79.6881,74.7962,39.027,57.9501,50.169,130.263,-64.9281,161.568,-61.558,-29.8057,15.5627
80.3401,-90.289,86.7338,24.946,60.8361,89.445,129.955,-143.176,172.396,-69.6102,3.68376,20.4873
80.394,-78.2798,98.123,-1.9941,62.8397,90.3881,-111.102,-39.1267,152.459,-71.9198,4.13316,17.0461
80.4312,-82.3042,79.4028,-5.75891,45.529,89.6788,150.282,-7.44262,169.38,-55.1564,-0.793354,-9.09068
80.4438,-84.8253,70.9792,34.144,53.599,41.697,231.287,-103.553,175.969,-53.8282,-37.6955,-6.52947
80.5298,-85.9912,88.106,33.863,53.087,98.739,72.0105,-135.901,183.629,-59.7013,13.937,39.5155
80.6152,-97.3902,83.2823,18.938,97.428,78.8969,242.251,-195.458,126.331,-106.545,-9.37459,7.73628
80.6312,-74.1459,72.3468,40.511,78.4339,72.1119,78.7553,-13.3618,126.545,-85.0067,-11.4447,36.2955
80.7441,-80.386,91.7729,29.452,80.6117,85.4733,-37.6745,-92.5817,138.322,-87.2445,2.08984,39.6205
80.7888,-93.5073,71.1058,10.272,52.228,60.3118,350.791,-157.784,190.626,-57.2194,-26.8629,-27.5668
80.7968,-97.6761,98.1013,8.30319,76.4349,67.8227,93.275,-186.162,160.819,-85.0988,-20.0631,6.33492
80.8082,-70.9998,97.1599,36.033,52.595,69.427,-172.219,-95.9325,181.333,-55.5071,-8.28696,50.3084
80.8661,-88.7248,89.5739,10.563,75.0781,89.2869,91.2888,-98.4316,149.13,-83.8577,1.78426,10.7857
80.9331,-72.8052,75.3812,24.508,89.4221,77.6169,32.4468,28.0683,106.156,-97.0319,-7.58217,27.8296
80.9899,-90.4047,89.331,46.107,72.8373,57.6132,97.7347,-198.825,170.144,-77.3646,-24.9323,37.4853
81.1148,-92.8879,94.035,47.114,93.038,92.6839,72.9209,-234.255,144.62,-98.5061,9.41065,47.108
81.1411,-83.0262,73.3111,46.162,65.7641,97.8171,179.736,-110.059,167.954,-72.0484,13.3046,38.0968
81.1572,-65.5361,99.6081,-6.10412,82.1278,69.5387,-289.877,4.45146,125.691,-89.6493,-15.689,26.7951
81.3268,-98.8129,98.1459,12.461,73.7729,86.1029,98.8418,-206.273,173.329,-82.1096,-1.46825,10.6383
81.5342,-92.3299,80.9927,27.168,40.078,65.9979,216.497,-181.827,216.401,-46.2758,-14.5681,-1.04134
81.5502,-82.1197,95.0279,1.9138,74.9308,50.447,-37.3653,-51.1203,150.249,-81.1944,-36.2825,8.66868
81.6081,-92.0073,96.2907,11.407,82.487,49.814,51.6145,-144.854,152.892,-90.229,-37.2798,15.4439
81.7313,-62.4799,94.3398,2.2102,55.09,85.5867,-278.468,21.7447,171.177,-61.8303,1.67255,31.0573
81.7811,-86.5642,79.3529,22.4,66.3949,68.8478,167.857,-93.3779,171.979,-73.276,-17.4213,8.76084
81.8751,-94.8789,79.9247,43.122,97.9632,84.9502,231.096,-227.778,142.48,-104.52,-0.748688,29.0121
81.8802,-72.1491,72.9581,45.802,51.327,48.634,62.7405,-21.438,183.152,-51.3853,-27.4133,21.7273
81.8888,-78.7467,73.275,0.627429,99.218,93.9072,164.902,32.2668,102.261,-107.108,3.70982,-6.23129
81.9152,-81.317,70.9001,1.4471,88.1358,78.6218,226.725,9.17647,123.907,-95.9703,-11.8768,-8.11881
81.9891,-61.6921,71.8478,2.6087,90.3818,94.9019,-77.319,162.097,99.7918,-98.0316,7.41433,11.5092
81.9943,-75.7078,82.1593,17.08,40.441,47.442,18.5185,-17.035,197.075,-41.3879,-26.3976,-7.56455
82.0057,-83.0279,99.4849,23.643,96.7737,54.019,-83.8696,-134.862,132.844,-104.035,-29.5363,47.7303
82.0321,-65.7458,94.8102,-3.8555,57.49,87.5978,-238.804,26.7014,171.191,-64.6721,2.15406,23.2695
82.2922,-78.7582,93.9439,45.176,57.8859,78.9868,-55.2807,-136.681,196.195,-60.9252,-2.42309,54.6482
82.3249,-89.2519,84.8338,5.2231,85.1071,97.5787,158.013,-84.9235,147.92,-92.6925,8.35291,0.00962536
82.3432,-79.8079,93.4328,-0.24142,70.0687,99.2781,-46.4074,-27.8534,164.324,-77.2673,11.6664,14.7578
82.3787,-83.2193,84.9353,-6.74222,46.829,43.471,100.786,-25.4696,195.926,-44.0236,-36.0794,-36.4062
82.6858,-82.6629,72.6877,20.056,50.155,81.3039,199.033,-57.5082,199.775,-57.081,-5.156,5.00981
82.7529,-72.9868,72.1869,-1.7472,90.0019,42.953,100.376,91.4915,121.505,-99.8665,-46.237,4.24086
82.8268,-64.805,75.3651,40.543,52.429,92.9143,-61.086,30.3485,187.659,-56.2011,8.70304,52.2334
82.8732,-96.1847,85.526,29.776,85.4251,95.4129,194.036,-208.329,169.869,-91.7941,8.22987,18.4372
83.0073,-75.882,79.1289,32.515,75.6138,70.8113,33.8699,-27.4284,163.869,-80.4254,-14.2479,31.8766
83.0078,-95.6118,73.7597,29.081,42.924,95.9309,318.902,-229.303,233.802,-49.3945,6.1551,10.832
83.0691,-91.624,94.4842,26.578,56.193,89.7951,64.2593,-184.345,212.883,-61.8336,3.89586,28.6465
83.1408,-80.1998,72.9559,2.4066,74.1608,83.8839,185.899,15.9216,161.998,-80.8472,-5.82972,-6.22793
83.1877,-95.2239,72.745,10.927,85.7448,97.3719,351.728,-169.553,167.11,-92.3015,6.52172,-12.8776
83.1952,-88.047,76.3959,39.853,83.7212,79.6428,200.581,-147.173,167.861,-89.1331,-6.6844,27.5287
83.2439,-80.5029,87.1417,24.455,97.2137,52.877,9.41328,-68.46,137.233,-104.576,-32.2497,39.3212
83.2599,-86.2851,88.4469,39.951,87.4918,62.5847,60.4183,-152.017,163.341,-91.8492,-22.513,42.3326
83.3252,-64.0028,76.1352,22.295,68.9601,59.2192,-95.5224,80.9222,165.374,-72.1873,-24.9128,24.8368
83.402,-78.1652,81.344,14.178,42.932,97.322,57.6861,-26.8437,213.504,-48.4051,8.3846,21.8301
83.4112,-74.492,81.8957,10.337,67.1168,40.56,-0.751609,24.2241,176.001,-66.2627,-43.9353,-0.5164
83.4112,-97.2481,85.1627,32.26,46.481,64.4469,215.157,-243.946,235.449,-50.4588,-17.0135,3.72314
83.4822,-92.1179,88.62,34.941,63.5611,63.0741,124.391,-192.524,207.59,-67.1196,-20.9615,20.7404
83.7532,-66.6659,83.5292,2.4955,76.813,62.4111,-124.059,82.2102,159.49,-81.6713,-24.4169,14.8298
83.9452,-88.8463,88.6721,24.101,77.0359,51.197,90.5111,-134.584,185.386,-80.4283,-35.2466,17.5634
83.995,-84.7359,94.9832,17.18,43.351,98.5419,-4.74685,-127.301,231.689,-47.7372,10.0065,32.3884
84.1142,-76.479,78.7061,33.703,95.9739,60.2878,43.5035,-36.8642,146.217,-101.082,-25.3271,40.8324
84.1262,-71.8409,75.7972,39.479,93.2368,96.4741,13.4596,-8.64693,147.874,-97.3301,10.9155,42.0009
84.132,-92.6587,86.394,43.155,91.5208,97.298,144.664,-212.046,172.201,-95.9382,11.1521,35.5438
84.2489,-89.3877,78.7261,47.484,93.0168,88.8657,188.731,-184.429,167.854,-97.101,2.61192,36.4297
84.395,-95.166,91.4561,13.402,67.1317,59.7417,137.447,-174.046,209.488,-70.2356,-27.0408,-0.586432
84.6419,-81.7032,93.4408,23.438,75.4287,44.274,-37.7331,-99.9727,192.416,-75.7425,-41.0286,24.5491
84.7141,-96.3171,99.7153,11.794,60.7788,48.463,61.2114,-202.241,224.744,-59.7509,-35.1491,-4.72541
84.8992,-89.1889,82.0659,6.14549,94.3868,67.3861,187.3,-89.3157,163.396,-99.7704,-21.7951,2.49392
85.1192,-70.8542,81.5158,24.25,71.9411,48.908,-53.2294,12.3135,193.24,-71.8127,-36.0099,22.6032
85.1782,-80.7108,83.1367,-0.0821432,54.74,63.8412,80.4425,-14.1768,220.723,-57.0726,-21.2444,-11.8697
85.208,-73.1679,83.6748,13.185,82.228,93.784,-42.0438,19.102,177.9,-86.3793,6.46267,23.3309
85.2939,-72.0758,71.6272,31.03,52.125,94.6108,69.8473,8.36237,223.508,-55.491,7.03476,32.4871
85.5162,-71.6438,97.4641,19.576,94.5512,97.6079,-195.748,-67.7391,169.602,-97.6597,11.3012,43.9195
85.5609,-62.8328,77.2129,-3.186,74.9669,89.429,-109.785,140.705,184.184,-79.2285,1.16731,10.4417
85.8531,-87.4912,75.8997,-2.4607,43.359,79.7059,248.995,-80.5153,248.047,-46.9656,-7.69033,-21.1564
85.9099,-92.319,73.7952,43.049,50.549,84.7691,278.101,-223.345,250.956,-53.8958,-1.86095,21.0694
85.9649,-62.6862,73.2653,10.88,89.123,64.4641,-84.4917,126.163,169.11,-92.6224,-23.2872,22.0811
86.021,-82.6681,82.3959,42.7,62.9938,65.5899,88.2764,-124.852,228.538,-63.6429,-18.8762,31.6235
86.0319,-70.4389,83.288,4.1677,59.6059,77.0978,-64.5729,47.4482,221.303,-62.89,-9.37266,10.7326
86.0508,-96.5778,95.4897,-9.11421,86.0949,79.2807,140.265,-147.487,194.782,-89.9992,-10.7961,-10.6549
86.08,-70.856,86.928,30.085,70.4102,79.487,-103.464,-30.9081,211.894,-72.4324,-6.57525,42.3036
86.1012,-93.7319,98.6272,33.762,70.9992,42.739,36.8529,-232.259,225.476,-67.6067,-41.8967,22.0461
86.127,-85.0567,84.8688,36.634,55.486,49.08,92.9675,-140.213,241.123,-51.9308,-30.9988,12.262
86.1499,-76.5609,97.7099,2.3403,88.6377,96.1669,-135.215,-44.9954,185.125,-92.1594,8.43176,22.6859
86.2038,-76.059,99.862,-9.41192,89.9332,59.61,-153.08,-28.0062,182.379,-93.867,-28.6729,15.889
86.2193,-84.615,90.262,30.811,87.0541,97.746,23.9945,-127.888,194.145,-89.7837,10.5755,35.9798
86.2301,-74.2089,75.3439,46.735,61.6021,96.0988,59.4246,-51.426,227.636,-63.2805,9.00536,50.0385
86.3539,-92.7258,87.5227,4.832,76.5288,85.0779,167.799,-129.613,212.269,-80.1953,-4.15668,-1.63923
86.3843,-95.0428,75.5233,20.922,89.594,84.5479,301.349,-187.87,195.271,-92.8377,-4.86112,1.10557
86.4708,-75.3428,89.119,-4.9445,74.233,73.6801,-52.6718,20.8333,207.54,-77.29,-14.4996,4.9389
87.0151,-69.9232,72.5502,39.775,78.1108,98.2961,21.5578,8.16264,209.506,-79.7135,10.8695,43.1943
87.1881,-96.2311,73.0498,31.627,66.1107,51.704,326.069,-237.304,242.756,-63.5438,-34.1679,-7.90684
87.2792,-92.437,80.6518,38.881,75.0833,75.9662,203.825,-202.621,228.307,-76.7988,-11.8347,23.5499
87.4689,-85.8537,99.2901,-5.0038,65.9429,60.4081,-29.9493,-94.5195,239.232,-65.8994,-26.11,-3.48775
87.5691,-81.1457,92.4742,13.897,69.7037,85.7271,-30.3412,-77.996,234.109,-71.6539,-2.24451,23.3462
87.6482,-75.085,84.3549,9.15231,79.0281,99.6339,-19.969,8.09522,216.888,-80.9616,11.0872,19.4119
87.7743,-71.5309,72.5198,11.515,84.6201,90.0409,56.7311,65.425,206.988,-86.4709,1.28989,12.1238
87.7932,-70.7901,87.9158,20.709,90.0512,94.0722,-119.224,-13.6538,202.357,-91.5125,6.07431,36.9807
87.7949,-86.4398,84.3829,4.0582,78.525,76.6801,131.527,-68.5148,222.54,-80.4416,-12.2865,-0.573621
87.9278,-73.3472,99.5818,5.73307,90.7743,69.9169,-194.532,-57.7692,204.705,-92.2787,-18.3252,32.1558
87.9301,-79.0361,90.3428,17.798,47.696,91.4532,-25.9576,-81.9594,268.431,-48.7298,2.73591,29.5608
87.9502,-64.3701,83.2009,-2.6311,83.5413,88.0648,-150.965,98.2226,210.437,-85.4078,-0.529623,15.4778
87.9628,-67.2011,93.3171,18.65,86.001,87.0907,-215.645,-28.2427,212.006,-87.0666,-0.730836,44.2837
88.0338,-89.5711,90.4993,13.426,63.0752,72.5559,89.9239,-136.669,251.611,-63.9635,-14.4152,6.53533
88.1009,-94.412,72.533,38.827,42.206,95.5441,314.603,-256.262,282.504,-43.4352,5.11214,20.7226
88.2418,-89.928,97.3639,14.696,46.56,97.832,25.2672,-177.599,276.678,-47.4223,7.21549,26.8103
88.3197,-64.8892,70.2251,27.375,92.3929,40.61,-27.9981,78.3226,202.036,-94.5854,-47.7554,35.9715
88.3747,-93.5411,72.8012,8.53489,43.381,50.177,333.679,-183.41,281.557,-37.5355,-26.4132,-42.7162
88.4492,-93.8098,79.526,24.605,63.4402,89.94,242.868,-192.846,257.185,-64.8137,0.963047,9.98297
88.5082,-92.3001,83.3189,30.487,78.3571,80.5521,179.343,-184.878,234.918,-79.286,-8.11903,19.4334
88.601,-96.6608,74.9051,42.949,45.4,66.278,308.124,-287.689,284.321,-44.0628,-15.783,4.12659
88.8978,-78.568,70.754,13.749,66.5519,74.3338,172.695,-7.77673,252.861,-66.8389,-13.4449,-0.369738
89.1379,-83.323,87.8258,34.498,91.4979,46.068,33.691,-127.343,219.373,-91.9591,-42.897,40.1043
89.213,-80.1929,83.8982,46.01,54.122,41.509,53.9338,-132.541,276.36,-42.976,-36.237,16.343
89.2691,-61.0899,88.9528,-2.7005,83.696,42.183,-256.394,68.9921,231.02,-81.3306,-46.3279,18.3952
89.3499,-82.2767,91.5449,24.776,62.2112,74.0708,-7.7441,-118.402,267.154,-61.3502,-13.0094,25.9997
89.351,-95.1929,87.7972,29.609,70.3048,95.1362,162.912,-220.78,256.569,-70.5136,5.76983,23.5618
89.3551,-78.6069,96.5657,1.7417,56.469,55.747,-91.8217,-68.8375,274.608,-52.2731,-27.0499,-0.718027
89.5138,-87.9479,76.8308,39.118,86.869,62.528,195.334,-159.597,231.191,-86.2931,-26.6352,26.0779
89.5791,-83.2021,92.4622,39.739,85.2492,87.7662,-10.7334,-158.21,234.821,-84.9279,-1.44591,48.2571
89.6358,-94.475,84.6551,10.526,80.2691,95.6811,210.178,-165.324,243.222,-80.5027,6.34893,1.35319
89.7252,-76.42,76.2681,4.6499,81.6247,85.3982,92.7219,27.2643,240.475,-81.7118,-3.71897,3.6585
89.763,-76.742,76.86,33,89.7991,85.7958,65.8829,-43.6694,228.582,-89.48,-3.53184,32.643
89.8438,-97.1822,81.6877,0.43299,51.875,83.759,286.956,-197.217,286.79,-51.9611,-4.14988,-19.0874
89.9257,-98.5688,87.4958,34.989,82.3839,60.8538,191.148,-264.166,243.478,-81.1183,-28.1776,19.2888
90.0512,-78.7651,88.9322,3.4566,48.589,76.9202,-9.59985,-48.4051,292.944,-47.8468,-8.7833,4.65227
90.0678,-74.8839,98.5642,-2.7842,64.2629,56.287,-156.965,-49.6553,272.569,-59.9293,-29.0511,4.4482
90.128,-71.4301,77.2582,7.03632,49.924,82.106,13.6301,35.2029,292.128,-49.4845,-5.02325,7.51998
90.1492,-73.1277,92.2382,-3.908,62.0313,52.508,-114.832,-4.02525,276.72,-56.3412,-31.5617,-4.86363
90.1492,-80.9859,78.6568,-0.49564,82.5781,75.4471,135.231,-7.2138,244.893,-82.0557,-13.6101,-5.20252
90.1813,-97.6142,86.826,10.831,54.61,80.2611,217.999,-216.854,286.884,-54.124,-7.08609,-5.88825
90.187,-92.849,79.2212,33.566,49.15,56.727,233.345,-221.893,293.499,-43.7151,-23.625,-3.65281
90.2878,-88.4372,88.2361,27.735,80.8042,41.823,88.4551,-155.764,249.517,-75.4455,-46.7147,16.5206
90.3102,-95.1757,75.27,29.743,65.8168,73.5139,295.212,-227.999,272.345,-64.3312,-14.2682,2.36829
90.4167,-66.8762,92.614,-4.2433,83.2158,93.866,-207.958,28.1801,248.318,-82.7665,4.52662,21.3741
90.996,-88.5002,72.6001,9.66528,94.063,88.1782,281.89,-104.732,236.01,-92.758,-1.07795,-6.49867
91.0012,-90.2328,97.9483,7.18678,98.0079,66.5743,18.6526,-150.066,229.523,-97.2656,-22.9219,17.5556
91.0292,-94,75.533,-7.22849,74.563,59.3911,345.686,-146.361,266.874,-71.5844,-28.117,-34.6258
91.2097,-78.211,90.199,25.186,71.9457,97.047,-45.579,-89.5253,274.569,-70.5212,6.73236,39.0104
91.302,-99.5932,90.5709,-1.531,49.921,45.269,212.211,-223.633,303.471,-39.4803,-31.0888,-43.3372
91.3312,-70.5168,84.2168,2.8302,95.229,40.955,-76.5922,41.1105,241.604,-95.5051,-48.5195,20.4029
91.3942,-98.5762,77.4627,33.926,55.08,73.424,301.206,-287.636,296.275,-52.3073,-12.8318,2.58876
91.5558,-86.4101,71.9389,20.205,69.5599,69.3308,249.145,-111.227,281.275,-66.5348,-18.4337,-2.7067
91.6022,-88.0602,73.8268,9.40413,99.6992,47.049,263.09,-100.715,234.11,-100.046,-41.7634,1.7661
91.6881,-93.7439,94.5461,14.638,90.1761,80.7361,85.7812,-185.853,248.631,-88.2413,-9.08981,14.8406
91.7712,-99.9542,73.962,27.1,55.608,90.4821,355.682,-297.728,298.52,-53.7218,1.04127,1.08469
91.793,-85.6308,88.675,38.022,51.89,58.562,64.934,-181.306,306.704,-45.1454,-23.9791,19.4512
91.8079,-89.5711,71.6128,43.193,74.2972,48.551,265.046,-198.825,274.368,-66.6413,-39.2213,9.74793
91.8383,-77.3029,86.4398,9.06832,76.1312,62.9812,-12.453,-28.6454,277.264,-72.3849,-25.6189,9.97349
91.8468,-99.4362,80.5109,44.733,57.8498,68.7469,270.719,-318.714,295.424,-53.7824,-17.6264,13.2589
91.8497,-83.1602,85.5202,28.075,76.0607,90.2941,58.415,-113.97,275.074,-74.0628,0.0443961,30.0819
91.8497,-76.593,89.9188,18.146,49.535,50.069,-51.6821,-79.9999,313.629,-39.9209,-28.3067,1.75675
91.9351,-79.0418,71.6151,-4.9707,59.1269,77.6959,198.164,5.96953,304.203,-56.9246,-9.01011,-19.2187
92.0107,-92.3831,78.635,-3.5835,49.39,71.0708,277.845,-150.236,313.107,-46.3044,-12.5092,-30.2945
92.013,-89.1878,92.0268,14.005,48.029,97.381,72.9119,-167.659,314.379,-45.5176,5.5177,21.7437
92.0187,-81.2242,92.7951,17.265,71.7171,61.5569,-34.3488,-102.622,284.114,-66.9939,-26.6679,17.7959
92.0411,-95.5321,92.3109,12.352,40.659,84.7519,137.624,-227.56,320.943,-38.3079,-2.74918,4.77447
92.135,-94.318,89.2032,22.394,43.232,71.2949,152.427,-232.062,318.912,-39.3796,-12.0521,2.90211
92.1809,-76.0939,75.0769,13.944,73.2091,46.912,90.644,-0.0831949,286.997,-64.5988,-39.7904,-4.37416
92.2158,-96.501,71.567,40.952,45.774,40.264,339.593,-301.852,314.004,-31.1758,-31.4538,-24.8397
92.6742,-90.6729,80.7441,12.876,76.1518,95.3539,209.824,-141.687,282.994,-73.3213,5.77594,4.31081
92.6759,-80.8237,98.5659,-6.8673,77.834,62.5051,-81.5988,-69.8972,283.733,-73.55,-26.1259,3.07638
92.692,-96.3549,93.1578,40.268,96.3629,99.9691,111.338,-271.537,245.042,-94.031,8.75292,35.9647
92.7023,-80.0348,74.2662,23.715,51.459,65.8042,147.326,-75.2428,321.475,-45.995,-17.8227,1.15452
92.7258,-72.1933,81.6173,22.793,89.6639,61.2698,-38.8197,-11.3809,268.16,-86.2988,-29.4206,30.0956
92.8398,-67.2847,87.3572,9.21459,76.0269,79.9139,-157.219,15.217,292.827,-72.8246,-10.2394,25.8901
92.8478,-85.3673,82.6933,6.1063,54.589,74.9652,136.267,-94.494,318.473,-50.9179,-10.9889,-6.15918
92.8868,-94.3799,97.7741,3.1446,99.1658,48.32,70.0077,-177.423,246.718,-97.8338,-41.1542,11.4809
92.8931,-87.1411,77.5859,33.45,82.0802,74.8541,182.477,-150.052,275.645,-78.5513,-15.3772,20.6969
93.0128,-74.3883,98.7218,-6.37198,50.186,56.581,-158.032,-65.0593,327.918,-42.1082,-23.8915,-6.19292
93.0329,-75.7038,72.5869,9.82542,53.241,74.6638,120.238,-2.64942,326.967,-49.2818,-11.0726,-3.39942
93.1291,-97.2659,77.5097,49.423,65.818,63.097,277.994,-307.367,295.02,-59.589,-24.6559,16.2289
93.1618,-96.6603,95.8822,24.477,57.259,82.5781,98.2676,-258.113,310.178,-53.8156,-6.51482,19.0971
93.1818,-67.4028,93.8379,21.251,78.0071,88.6612,-215.037,-58.2564,290.807,-75.0685,-3.04977,47.0829
93.2328,-62.2547,86.7,0.738949,79.3552,67.809,-219.196,57.8054,295.46,-75.0004,-21.9947,19.1334
93.3491,-66.5989,77.2559,-4.6258,92.1242,63.6459,-50.1808,103.372,278.616,-88.5706,-25.8108,5.17992
93.5142,-84.8172,83.6908,0.013382,79.526,51.593,125.956,-63.5003,291.545,-72.3207,-36.1896,-12.2144
93.5898,-97.2647,95.3218,31.058,73.5609,48.016,101.699,-268.705,289.661,-63.4784,-39.9943,11.4906
93.6287,-68.8478,92.3889,-3.5267,70.4709,94.1192,-176.784,4.08778,311.665,-66.9725,3.49182,21.0219
93.9158,-96.1818,87.0781,45.731,72.7868,41.94,172.987,-285.307,292.486,-59.16,-45.7166,13.8987
93.9439,-79.9242,98.5252,-9.17231,87.8092,98.2668,-90.2616,-61.6981,284.035,-83.944,8.40132,9.91452
93.9651,-92.3631,71.7011,49.298,63.1829,53.907,292.122,-261.704,308.631,-52.9388,-31.5804,7.56286
94.027,-71.3963,93.8688,13.089,86.1001,85.844,-167.037,-52.1238,288.844,-82.3534,-5.78417,34.4898
94.1209,-81.6511,73.369,32.903,82.3569,91.4143,163.476,-96.2499,292.357,-78.1945,0.325351,24.5794
94.2137,-79.703,73.958,-6.39008,80.7269,69.8338,184.143,4.78051,302.908,-75.8466,-17.8867,-16.9983
94.3341,-91.8532,79.5718,19.216,88.9918,75.6511,226.411,-169.627,278.92,-84.1237,-14.1527,5.0913
94.3782,-80.6278,82.5712,31.688,46.592,58.7431,70.8202,-127.721,344.226,-37.209,-21.9422,9.0598
94.585,-97.3048,78.5032,32.166,76.9322,41.569,277.237,-264.55,293.525,-63.5403,-45.7997,-6.43197
94.7718,-90.5508,85.9259,-7.14667,97.6939,66.4568,182.556,-109.068,274.174,-93.0804,-21.9057,-10.7409
94.8893,-99.0879,88.2573,34.303,70.016,91.6813,190.437,-291.562,304.834,-65.2348,0.229617,23.8019
95.0382,-86.7659,82.0722,18.237,56.764,80.834,147.043,-140.778,338.028,-51.3305,-7.49339,7.6623
95.103,-82.5031,81.3921,7.89702,57.221,91.2023,113.426,-78.4743,343.508,-52.1484,1.27684,7.40346
95.1952,-82.279,76.0779,19.399,79.4641,62.889,153.821,-78.2498,311.558,-72.2019,-26.3798,4.96371
95.2032,-69.6722,70.4102,25.761,76.3919,49.981,42.4352,21.5302,325.276,-65.6373,-38.9203,10.8516
95.4599,-98.72,93.6717,17.385,82.6251,91.7231,141.582,-248.753,294.139,-77.1545,1.19907,12.5187
95.6049,-98.017,92.4009,24.607,63.9518,95.6118,145.122,-269.359,322.292,-58.4022,3.73804,21.5919
95.7802,-73.2698,71.1711,-3.7772,96.254,85.962,120.445,59.3371,304.836,-90.4779,-2.66797,-6.07854
96.0541,-65.7498,82.0888,-6.7487,68.795,48.332,-111.96,69.8992,354.31,-55.5242,-36.2449,-12.761
96.1887,-96.921,96.5268,-0.84772,66.9639,85.2298,117.252,-210.866,329.4,-60.8642,-3.25227,-3.79762
96.3411,-73.982,71.6083,25.72,94.5059,78.6522,88.2337,-14.6637,308.346,-88.1664,-13.1561,22.6141
96.4259,-72.839,74.555,3.823,66.1801,64.448,64.0386,25.6837,358.745,-57.1745,-21.5206,-8.20103
96.5308,-78.8928,73.6062,4.8012,50.356,50.054,157.786,-43.3785,374.291,-36.8985,-25.619,-31.2421
96.5348,-78.4351,83.3808,-8.90932,71.9131,75.4591,60.2627,-10.246,347.677,-65.0223,-11.8521,-10.2216
96.568,-82.8422,93.493,31.228,77.1488,43.18,-25.3883,-167.063,322.475,-62.0759,-47.3514,21.6168
96.6288,-60.7341,92.9189,11.267,65.587,97.7437,-292.546,-31.9191,356.668,-59.8924,3.10601,47.2696
96.631,-82.1278,85.9511,-5.6302,62.9801,85.8308,74.769,-59.7055,356.835,-56.5002,-2.35566,-4.24654
96.6878,-90.3721,93.4047,20.609,71.9572,78.5651,60.2331,-196.397,328.664,-64.9488,-12.2896,18.4254
96.7153,-83.449,78.7278,30.134,94.848,45.331,129.732,-120.888,300.859,-87.5079,-46.8609,23.4004
96.8132,-98.7642,77.4587,13.672,99.713,54.213,328.737,-248.602,279.117,-92.9652,-34.2809,-6.04159
96.8322,-80.9372,71.4352,44.186,80.52,81.3657,170.89,-128.198,324.299,-73.9582,-11.6029,31.8284
96.9347,-62.0278,80.0588,23.59,62.4312,95.7687,-157.886,14.6693,370.711,-56.5977,1.06259,43.9232
97.0338,-75.9438,71.496,36.978,74.9377,82.326,111.978,-68.4157,342.775,-68.137,-10.1979,29.1998
97.0522,-81.3399,88.9591,6.61972,60.875,61.6279,16.8308,-93.2857,361.457,-50.1382,-23.3258,-3.76721
97.1072,-77.7819,83.174,7.86768,49.917,67.1948,35.4829,-63.7062,380.211,-40.3973,-15.9376,-4.12843
97.1708,-93.8539,88.1037,1.5947,79.6961,97.2458,178.86,-172.618,324.448,-72.4885,8.21748,-2.27131
97.1748,-86.0909,86.6719,8.21971,85.7443,45.678,95.6277,-111.02,322.34,-73.8353,-43.5252,-2.6736
97.3598,-82.8697,85.6572,36.01,86.5332,63.7771,50.75,-151.192,318.163,-78.6429,-29.8054,33.3464
97.3598,-86.2221,92.0302,19.139,58.0108,66.199,34.7496,-171.935,359.226,-47.828,-20.4497,8.93545
97.5329,-91.4693,81.0489,32.054,97.7002,43.095,192.699,-207.712,294.627,-90.402,-49.1262,21.6029
97.5598,-99.2168,90.5227,15.996,71.9371,55.778,184.273,-262.136,329.393,-59.6094,-30.6398,-9.52267
97.6733,-81.0552,70.927,10.799,97.035,84.4901,206.889,-50.6092,317.653,-89.1559,-4.90542,0.331228
97.6819,-91.2533,93.1818,-4.9676,64.2309,67.4388,101.356,-157.31,355.832,-54.8024,-17.4658,-15.984
97.7088,-74.072,86.0697,5.5149,65.4541,91.6062,-45.8252,-32.377,371.218,-57.9326,-0.0126395,17.9664
97.7907,-89.4089,77.9853,11.189,94.5461,65.1178,228.731,-140.071,311.324,-86.0212,-24.182,-2.30664
97.8732,-78.9032,74.3739,2.2541,91.6658,96.6952,152.427,-16.4271,333.656,-83.8062,7.80309,-1.65319
98.009,-76.6371,74.0239,33.174,91.8228,65.9188,93.6681,-67.6286,328.252,-83.7467,-27.3382,27.5719
98.0652,-94.6429,78.2523,39.598,85.526,49.543,247.994,-263.662,312.135,-73.2985,-41.8633,11.9467
98.1528,-75.7032,89.2061,-5.8016,63.9461,66.2769,-46.2464,-33.5764,379.127,-53.5586,-19.5841,-6.43367
98.2571,-84.2443,85.9379,13.606,68.3269,89.9618,77.3448,-121.495,361.506,-60.2474,-1.3449,14.9518
98.2869,-64.7247,91.208,0.928461,71.0193,51.031,-225.085,-7.98833,374.184,-55.9962,-36.8603,6.40922
98.3723,-61.2538,86.013,4.1867,95.009,88.8388,-229.973,37.3144,343.575,-87.4856,-4.39451,28.1737
98.39,-74.4587,78.9473,-7.44037,45.862,50.754,53.258,-7.16993,409.873,-31.8429,-21.896,-35.0689
98.48,-65.6638,97.1547,-0.788871,88.1341,74.398,-268.713,-41.4028,344.849,-79.8491,-18.9562,27.5167
98.5241,-65.9709,74.9068,14.404,78.5388,84.6918,-52.9204,44.2117,373.156,-70.2342,-7.48436,20.9929
98.5722,-71.4209,84.9037,3.9854,78.195,45.616,-70.9545,-4.18249,367.353,-62.0853,-42.5975,-2.04751
98.5957,-93.1549,73.5449,27.556,81.7233,96.7789,295.168,-226.514,328.931,-72.9564,5.98763,9.69956
98.8152,-72.831,70.672,25.242,74.2542,79.7042,84.6971,-21.5314,374.07,-65.2449,-11.949,18.3568
98.8238,-77.5521,86.1992,3.0681,60.8137,73.5288,1.80851,-59.2128,388.769,-50.8083,-13.7112,1.12973
98.9212,-77.2863,83.834,39.728,70.7597,95.1729,8.44531,-129.677,364.366,-63.8883,-1.24741,47.7165
98.9681,-97.6119,85.4011,16.747,89.2611,47.089,224.189,-243.929,317.804,-76.2943,-42.1549,-5.0471
99.038,-80.414,77.8059,20.456,61.66,86.0399,113.994,-98.2293,384.321,-52.6994,-4.98351,15.119
99.1429,-68.9199,79.2693,17.067,57.136,41.542,-49.9816,-16.4535,404.892,-34.6539,-36.6422,-11.2356
99.1469,-80.4169,98.527,-8.88319,94.699,89.6329,-84.4499,-86.0101,335.562,-85.7574,-1.08906,8.84025
99.1899,-66.6602,80.7882,7.19721,98.7859,52.464,-99.8056,35.0291,348.925,-89.9912,-40.0028,20.9056
99.4087,-63.9289,84.6402,11.066,87.8052,94.5678,-180.674,13.1311,366.735,-79.5164,0.408177,31.8499
