vnguyen43/Hybrid_Robot_Kinematic_Model/Robot Poses/Data_UR5_0500.csv
q1 (deg),q2 (deg),q3 (deg),q4 (deg),q5 (deg),q6 (deg),x (mm),y (mm),z (mm),r_x (deg),r_y (deg),r_z (deg)
60.4763,-75.9129,93.9507,45.641,63.411,45.466,-179.243,-174.892,-61.4973,-78.2055,-17.9187,50.9015
60.5742,-70.1529,97.1318,19.791,61.715,63.8871,-257.721,-129.535,-83.0494,-83.5728,-5.32593,39.0429
60.6161,-69.4602,89.6667,5.4708,49.25,91.2962,-211.545,-72.257,-98.6033,-76.447,13.2597,22.4662
60.6447,-70.271,96.8683,3.2992,74.2502,96.5869,-258.913,-101.457,-117.438,-100.974,20.2081,24.9818
60.6871,-62.0118,84.8161,10.077,67.6388,66.8722,-259.215,-46.7165,-137.447,-93.1475,-8.0379,29.9586
61.173,-95.1918,71.575,39.245,55.175,55.591,109.927,-225.977,-18.1835,-82.5007,-27.0833,9.18086
61.2108,-75.7061,99.9937,-1.363,91.5632,94.3633,-230.334,-124.337,-127.276,-119.26,14.2175,18.0666
61.216,-97.2751,80.6369,41.66,50.753,69.5978,59.9871,-241.459,-3.10865,-77.6447,-8.4927,17.2649
61.2223,-69.2391,92.5579,6.51722,71.7618,95.9481,-240.535,-84.817,-117.008,-97.8288,19.3524,25.4718
61.2732,-88.3822,73.1197,26.158,63.3961,46.938,59.7333,-156.888,-66.9506,-92.148,-38.3363,10.779
61.283,-71.7561,90.3572,-5.4236,51.777,51.296,-190.145,-60.0508,-101.49,-77.7326,-32.2025,3.36108
61.3781,-95.6891,76.3781,49.769,44.684,72.5599,80.489,-247.041,8.34582,-70.8891,-2.64931,20.8443
61.3913,-78.9209,84.6889,27.163,82.0137,74.5441,-107.97,-129.288,-108.544,-106.408,-0.212846,33.6709
61.4279,-84.949,80.7888,30.599,67.2532,68.7693,-28.33,-150.133,-74.1881,-93.5869,-9.31,24.3383
61.5099,-75.4969,94.2762,13.333,77.2158,49.774,-199.677,-119.567,-103.952,-102.862,-25.2567,36.8605
61.6898,-91.2848,82.071,-0.825879,41.372,89.9229,42.8155,-142.157,-42.6165,-69.6018,-5.19185,-9.24788
61.6972,-98.2938,99.9101,9.49127,96.8872,88.0309,-60.5732,-223.376,-79.3619,-124.964,3.07262,10.7872
61.7631,-64.0418,76.4881,25.01,49.661,58.0011,-177.359,-45.0621,-102.17,-73.165,-14.3022,23.9639
61.8468,-89.3889,92.0881,25.012,67.5632,58.2612,-74.1075,-180.07,-54.3058,-93.1941,-19.5293,25.9935
61.911,-86.28,72.325,28.985,80.814,87.529,44.6395,-151.659,-91.0504,-108.428,4.18562,13.8357
61.986,-78.3697,98.013,19.376,76.5179,85.2647,-201.12,-151.239,-81.1871,-99.4449,12.2134,35.9508
62.088,-83.037,76.5901,48.586,74.2152,94.5478,-19.0036,-169.272,-68.8632,-96.5187,22.5579,37.7177
62.1069,-62.4341,83.5493,26.808,51.194,82.1341,-237.146,-67.7813,-87.5217,-71.9061,12.668,41.1402
62.159,-91.3409,95.5178,32.237,65.0152,48.727,-85.4893,-208.567,-32.5353,-88.1603,-25.6413,31.0808
62.2943,-64.1438,74.2502,36.5,71.072,71.339,-169.416,-60.658,-118.233,-91.3779,0.758293,42.9074
62.3607,-99.7737,86.3402,6.51178,99.6013,74.8369,64.6204,-217.04,-83.0934,-129.025,-15.7834,3.26938
62.3642,-86.3808,82.5449,9.7942,97.8549,89.8673,-13.6406,-137.749,-121.36,-125.753,2.1233,5.25147
62.3848,-94.1393,88.9362,-2.9778,90.2953,63.945,16.5903,-163.583,-95.4414,-121.498,-27.1879,5.80517
62.4192,-93.3423,75.419,-4.2776,88.3043,45.41,127.785,-158.105,-95.818,-128.279,-49.7355,6.12026
62.6461,-78.6281,82.9442,0.729667,97.0447,78.0391,-75.938,-84.2927,-144.609,-124.911,-8.12308,11.1217
62.7268,-80.076,77.2977,22.037,97.7048,89.7338,-40.1269,-117.542,-127.953,-124.055,7.98328,17.2446
62.7429,-66.148,70.8182,-2.4991,69.6338,84.2431,-102.073,11.9704,-149.376,-96.993,-5.24278,2.23494
62.771,-80.3539,81.9398,12.122,50.289,81.4643,-60.3006,-96.0297,-66.4787,-76.9358,-2.53176,9.83794
62.8088,-99.0392,76.7958,14.457,61.864,83.9332,123.195,-210.566,-23.991,-89.1028,-10.0825,-7.67609
62.8581,-74.5922,76.7248,4.7737,43.662,46.304,-67.438,-50.5495,-81.2271,-65.2902,-38.0196,-11.078
62.944,-76.4652,74.8879,47.002,93.2729,86.3591,-62.3798,-138.833,-106.701,-113.716,15.4833,43.4502
63.0339,-89.8083,86.4863,20.077,92.013,40.519,-27.9331,-172.335,-87.6462,-125.295,-36.1046,40.8343
63.0391,-83.3539,82.9752,40.203,53.682,48.027,-52.029,-160.299,-35.2671,-74.4231,-24.1268,25.0882
63.1268,-90.2861,90.5508,35.391,48.549,63.5828,-51.051,-199.117,-8.17456,-71.6643,-10.1054,23.5405
63.2448,-79.1982,91.0968,-6.71249,85.6927,51.286,-126.534,-84.9554,-118.735,-117.1,-33.7072,20.7473
63.3262,-81.2993,96.2059,3.0675,41.316,78.965,-148.973,-123.39,-35.8585,-67.3095,-2.51842,11.1599
63.333,-88.8491,95.8501,7.06749,54.928,48.943,-92.2893,-152.85,-37.6544,-78.8872,-34.677,4.84912
63.3388,-83.3189,77.9601,-4.9452,48.859,77.339,15.5087,-81.0694,-67.2649,-74.647,-17.2794,-12.992
63.3531,-71.1298,77.0451,9.34758,87.1039,78.3588,-112.87,-45.3278,-140.278,-113.069,-4.51322,17.9519
63.3772,-72.6648,81.6482,47.25,68.9601,47.622,-134.094,-126.927,-70.2572,-84.8261,-20.8214,48.9386
63.4161,-74.2078,92.1648,12.503,56.738,52.781,-190.228,-99.7963,-65.3856,-79.2908,-24.0021,20.5329
63.6751,-89.8501,87.9112,-5.99938,65.5292,52.511,-6.14222,-122.829,-65.319,-91.9869,-41.5373,-6.1395
63.6957,-88.5059,92.4301,44.632,61.2773,98.2829,-80.2142,-210.497,-14.7151,-79.4441,27.3374,46.4926
63.7799,-81.2362,70.067,1.9494,74.834,88.5168,53.8623,-72.3585,-104.169,-101.047,-6.06134,-8.43007
63.8579,-79.1003,71.7819,38.669,51.263,89.8679,-8.64194,-119.644,-45.8025,-74.5211,12.8901,28.0352
63.8687,-78.4563,88.1501,12.542,57.106,90.4649,-125.108,-99.8794,-61.8696,-81.9162,9.73221,19.7648
63.902,-73.3392,75.313,37.024,67.2337,51.626,-89.6545,-93.4317,-79.6173,-88.2331,-22.7337,34.204
63.9478,-67.9459,79.7752,42.97,55.316,99.9599,-157.859,-94.1425,-61.4475,-70.0912,30.2556,54.9868
64.2223,-66.5198,72.8441,31.092,65.4593,43.812,-135.589,-49.0744,-94.9828,-86.0647,-31.3134,30.9516
64.2492,-65.6421,94.3931,19.508,44.558,58.2308,-268.793,-104.339,-39.1039,-63.8504,-9.81541,30.1567
64.2658,-89.2382,93.6809,19.541,50.494,78.0002,-78.8976,-171.377,-15.2253,-74.7768,-1.78137,17.9329
64.2698,-70.4538,70.6159,17.024,74.563,53.776,-76.5427,-35.282,-115.383,-100.713,-28.8491,21.4072
64.3369,-91.1318,89.5413,20.664,68.8609,69.8029,-39.7313,-173.168,-39.5471,-93.5231,-12.5351,17.9907
64.4451,-93.3102,92.276,43.767,75.698,59.5481,-53.6793,-234.038,-19.5107,-95.5163,-13.7627,41.9797
64.4469,-64.4148,77.7991,21.829,59.799,47.214,-187.057,-38.3135,-89.0917,-80.2877,-28.3616,24.9065
64.448,-74.4272,71.1172,30.027,41.991,44.033,-39.3528,-81.1889,-47.8289,-61.4476,-30.6292,3.33462
64.5569,-72.1308,84.8957,-7.92217,85.0499,97.4509,-144.956,-36.2754,-127.183,-110.834,8.52841,1.47559
64.558,-97.7271,72.1067,22.271,54.632,53.639,139.031,-216.622,1.70719,-77.5125,-37.5653,-10.9632
64.5609,-76.703,99.9273,12.851,80.5109,69.1142,-227.122,-140.239,-69.5008,-101.556,-6.23896,36.9822
64.6972,-83.7217,98.708,16.792,49.117,97.4532,-153.625,-159.131,-15.1923,-70.9207,19.8247,31.1311
64.703,-89.2399,72.215,23.794,81.7181,78.0002,75.0292,-158.296,-64.4018,-107.33,-9.14786,9.4344
64.7603,-72.1617,78.9198,45.34,71.2078,68.2662,-122.991,-112.541,-67.5441,-88.0308,-2.34012,47.8558
64.9327,-66.6831,92.743,25.293,93.4557,94.5673,-266.436,-120.082,-95.6966,-111.017,23.4119,46.7254
64.9402,-66.584,77.3229,48.113,62.6008,49.006,-156.036,-91.5252,-63.1231,-76.5754,-19.1515,46.31
64.9482,-62.6123,77.5418,34.86,78.0569,90.5073,-207.259,-59.8489,-100.002,-95.6297,19.1626,46.5548
64.9539,-61.625,71.6151,17.538,95.6272,76.1661,-177.483,-14.2251,-149.878,-118.064,-1.40312,31.5925
65.1957,-68.779,71.5401,43.667,64.083,66.1932,-103.228,-76.4186,-69.9944,-82.6132,-6.14603,39.7583
65.2393,-81.0311,91.0172,-0.666843,54.618,77.3121,-113.744,-93.6215,-48.3857,-78.8966,-9.03083,5.46695
65.2731,-98.7418,94.3851,-5.91831,81.1709,68.1619,10.2217,-180.986,-47.2612,-107.213,-25.8424,-3.49235
65.4192,-67.3609,80.6513,35.073,57.8808,88.3312,-174.268,-78.9629,-57.2568,-75.4743,16.2998,44.5708
65.4398,-88.8692,90.8969,18.104,87.7221,42.07,-67.4748,-165.002,-63.1763,-116.367,-36.7981,37.3521
65.4621,-77.0141,75.4219,-1.0674,83.5109,63.8699,-27.1748,-45.6757,-111.438,-110.146,-26.4367,6.07022
65.4919,-79.8898,78.3228,39.878,98.4359,60.5009,-57.1805,-146.743,-88.1946,-118.232,-11.7343,49.1633
65.5452,-86.9939,94.7741,39.779,70.3082,65.7538,-111.226,-201.506,-18.1196,-88.0189,-6.73412,43.2583
65.6747,-85.2429,82.436,26.987,73.723,99.6551,-37.4015,-142.746,-49.8393,-96.9727,18.8906,20.7348
65.7979,-81.9943,73.1449,4.4543,80.8019,68.2461,31.8531,-79.0804,-88.9935,-106.422,-23.2951,1.68523
65.822,-91.6429,78.8218,25.437,97.2808,62.1401,40.6761,-185.004,-66.95,-123.197,-19.2084,26.0971
65.8288,-98.0061,91.3787,22.819,85.8102,65.6237,-8.93907,-219.911,-32.4415,-110.106,-16.9886,22.6974
65.9131,-77.6129,73.6148,22.359,97.6549,95.8472,-34.6492,-92.7236,-107.873,-121.635,11.924,13.6365
65.9721,-95.775,80.143,36.015,56.285,60.0597,55.0407,-219.472,11.5769,-78.549,-21.6376,12.5041
65.995,-82.1931,82.6331,13.888,63.6052,82.0493,-53.2058,-102.574,-49.9533,-87.1747,-2.60523,12.2864
66.0953,-86.355,96.0082,22.959,40.204,82.9379,-111.275,-174.197,12.4107,-61.7197,6.25207,26.1327
66.2093,-78.2231,73.9608,9.57057,53.194,53.877,-16.4823,-63.8147,-51.5134,-74.2869,-33.3331,-4.62585
66.2717,-96.9359,91.353,2.8267,82.6933,92.9441,8.55413,-179.344,-42.3407,-106.725,1.16477,-3.7223
66.305,-98.696,99.6528,-1.7279,83.2101,85.8199,-41.027,-192.114,-36.7548,-107.109,-4.88123,0.221307
66.4872,-63.36,90.5107,32.814,48.415,54.465,-261.294,-102.795,-23.4644,-62.3123,-11.6116,40.2233
66.5038,-81.1629,79.9631,40.593,77.0428,92.8197,-57.3661,-144.291,-46.7403,-96.3702,17.1397,36.1706
66.6258,-81.5628,73.5248,-2.5136,55.437,69.3342,33.4403,-64.7685,-50.0874,-77.4238,-24.8191,-14.3981
66.7169,-98.0187,89.0697,33.251,91.0212,52.222,0.306705,-239.375,-25.8517,-115.137,-25.9679,37.2616
66.7479,-72.1721,73.5901,36.459,93.0271,62.9537,-92.0043,-88.9536,-93.2995,-112.012,-11.6078,45.1385
66.7599,-69.1211,85.9362,-0.865963,96.14,93.1251,-191.048,-43.7989,-116.671,-119.021,8.45732,12.9587
66.8281,-69.7971,78.8241,36.818,81.1979,85.4131,-148.451,-87.4827,-73.9623,-98.4111,11.5612,43.681
66.847,-76.6812,84.054,21.671,82.334,72.1039,-120.808,-97.8867,-71.29,-103.053,-6.90692,30.5666
66.9358,-62.0828,76.7127,9.45317,94.4859,97.8079,-204.691,-10.1334,-126.479,-116.845,15.7369,18.6642
66.9432,-65.1808,83.1081,18.356,95.5923,78.7273,-220.569,-59.0588,-106.782,-114.358,2.56923,38.4076
67.0613,-83.6071,84.6511,-7.97849,86.4393,85.9419,-30.0474,-81.8023,-83.1352,-109.535,-7.08794,-5.4205
67.1971,-65.567,81.3652,20.085,91.4991,44.817,-205.885,-54.2888,-100.023,-113.092,-29.8191,49.7288
67.3397,-80.606,79.4927,37.681,72.584,64.3821,-57.3228,-132.901,-37.5575,-91.6446,-12.714,34.3479
67.3558,-89.7418,82.9792,11.969,91.3828,76.652,8.50714,-146.821,-61.1326,-114.718,-10.7497,10.1124
67.393,-73.1489,83.5779,46.365,46.967,40.02,-128.381,-125.949,-5.22687,-58.1636,-25.34,28.7862
67.4749,-76.2257,83.2519,17.282,47.331,68.7079,-108.059,-85.3664,-21.9778,-68.1038,-11.0222,14.0513
67.558,-78.7863,75.8871,10.542,81.9771,59.449,-29.1953,-69.309,-76.6346,-106.01,-27.2126,14.883
67.6359,-66.5708,96.5331,-4.0746,70.2589,99.4781,-285.819,-66.5114,-56.8113,-90.9328,18.6504,23.4254
67.864,-82.3971,91.891,-4.0546,50.263,72.4058,-104.808,-95.1344,-17.4823,-71.6808,-15.1254,-0.948513
67.8909,-73.6789,77.2273,20.527,50.282,64.6251,-90.2283,-64.55,-30.1131,-70.2349,-15.4968,13.3318
67.9247,-79.4652,88.518,43.264,64.833,60.2689,-122.338,-158.421,-10.0783,-79.394,-12.2538,43.9807
67.9488,-89.8398,95.178,18.899,95.5499,58.0068,-92.5903,-181.952,-47.0845,-117.711,-20.488,36.4763
67.9969,-65.7337,90.0048,21.901,71.8678,93.0243,-256.666,-84.4496,-48.3959,-88.2422,18.4242,43.7013
68.2811,-82.6629,86.9773,-0.50741,55.392,84.6442,-68.0538,-88.274,-22.9793,-77.0928,-4.24004,1.8518
68.3097,-67.1312,74.6312,20.233,41.491,72.3159,-129.815,-34.989,-27.7901,-61.4423,-5.91057,16.7202
68.496,-65.0869,77.5092,4.0551,63.1061,47.881,-171.394,0.596889,-65.7577,-82.1961,-36.4083,9.47765
68.5779,-65.4077,77.2748,20.347,65.469,45.831,-175.119,-30.0321,-56.0436,-82.7259,-33.2606,24.4924
68.5802,-73.153,88.3822,36.769,81.4861,43.303,-180.895,-127.853,-41.2158,-95.697,-30.5366,53.8416
68.787,-86.3568,82.1879,21.398,98.598,90.721,-22.9268,-145.309,-60.0822,-119.473,6.24333,15.5003
68.8701,-92.005,89.6112,-8.44861,56.393,73.1541,0.455695,-130.389,-2.87885,-76.3125,-20.7832,-14.3877
68.952,-87.2162,92.8432,33.771,71.0198,90.6688,-97.8298,-183.892,-0.874129,-88.2698,13.5673,36.9127
69.1067,-84.9037,85.919,30.111,83.166,76.1192,-68.4144,-152.599,-30.1387,-101.563,-3.43294,31.6617
69.1371,-93.034,97.6813,33.371,51.872,48.918,-82.8263,-221.863,41.0681,-66.7964,-25.9703,19.9601
69.1589,-81.0609,92.0491,23.136,44.445,95.0399,-126.953,-140.313,18.5274,-62.028,15.8388,34.0918
69.1881,-83.1568,96.2048,19.844,52.911,71.8472,-142.902,-151.874,13.695,-71.1885,-6.3605,24.4377
69.2202,-84.3531,92.743,-1.6765,98.2898,98.8272,-98.8407,-114.556,-66.8296,-119.718,9.52009,1.74125
69.2637,-72.1331,85.4968,38.657,98.2651,47.776,-170.466,-126.332,-61.8406,-112.533,-23.8875,65.8865
69.3909,-83.8168,72.7708,14.209,56.489,93.725,38.1366,-100.393,-10.259,-77.2671,4.35156,3.40352
69.4912,-94.0963,94.7071,29.231,43.684,86.8822,-51.6985,-216.647,50.3778,-62.4478,7.11639,26.0003
69.5152,-93.1641,82.6119,2.3859,86.504,46.747,53.6489,-149.258,-34.0939,-113.623,-44.3948,8.09309
69.5978,-75.462,89.665,38.406,64.1461,93.9989,-162.877,-137.537,-2.9908,-77.3316,19.8861,51.3018
69.6682,-78.2448,83.5521,11.661,50.758,85.3088,-90.7162,-82.0151,-6.35172,-70.6394,1.06224,13.7643
69.7461,-84.0288,94.3398,10.316,54.208,84.5932,-120.812,-131.167,8.7812,-73.619,1.48283,17.2361
69.843,-61.7161,85.2991,6.0875,62.9222,74.0118,-262.395,-23.1188,-40.482,-81.0369,-6.31831,24.7516
69.8808,-72.03,87.9462,12.651,71.0347,60.5679,-185.276,-70.385,-34.9597,-88.9724,-20.4641,25.8605
70.0028,-60.9661,76.1553,25.825,72.9077,59.877,-215.417,-23.6493,-53.4749,-88.5535,-17.5599,37.8061
70.0429,-78.914,91.2177,-7.35007,96.3131,58.6669,-128.998,-76.0067,-69.8904,-119.704,-26.8021,19.2306
70.2039,-73.8222,72.6969,6.14331,73.562,62.5968,-46.8073,-25.2942,-53.0146,-93.5561,-26.224,6.08825
70.2171,-84.682,89.6679,-9.62649,74.2358,70.2481,-59.8786,-85.8969,-31.6077,-94.116,-21.818,-3.29958
70.3002,-75.5622,78.8189,46.069,46.045,75.7989,-78.8008,-123.343,19.852,-60.8676,2.36258,39.7345
70.3231,-65.5212,82.7299,25.852,97.73,45.757,-214.971,-69.0551,-71.1755,-114.928,-28.241,58.7814
70.3947,-82.9712,76.8692,11.412,71.4272,41.418,1.04842,-90.2844,-24.8679,-91.3256,-47.3273,5.80343
70.3959,-94.534,73.2807,35.059,88.6371,50.835,93.42,-213.146,-7.24902,-111.461,-33.0097,26.1111
70.4199,-96.6247,73.5661,19.803,42.385,52.475,123.731,-209.381,54.1841,-55.7538,-33.9564,-23.56
70.475,-90.886,86.3929,44.823,91.514,61.3242,-30.9125,-217.08,-8.62167,-107.393,-15.4338,46.4729
70.4881,-64.6291,70.7328,22.949,60.4992,72.5978,-136.372,-11.8914,-35.6277,-78.0393,-8.0709,23.2784
70.499,-96.4019,92.2193,40.945,76.8778,87.7972,-33.8559,-242.463,22.8874,-93.4341,9.00504,34.6903
70.5191,-87.101,79.864,28.789,65.4919,53.573,-2.64389,-148.996,5.84004,-82.9511,-29.6009,15.6793
70.5517,-62.1928,73.0177,27.474,41.566,72.8882,-167.017,-24.6871,-7.82056,-58.1561,-2.79658,26.8202
70.7099,-86.665,78.4849,9.10069,70.821,53.522,23.494,-110.405,-14.116,-90.0131,-36.7192,0.58805
70.7649,-88.1788,94.1329,43.174,51.748,98.4221,-87.855,-210.239,48.0265,-64.1989,21.9675,50.623
70.833,-64.5511,79.5792,34.991,42.409,83.1877,-182.103,-65.3559,8.77606,-56.3486,8.90067,43.7664
71.017,-89.877,80.135,23.03,63.6762,53.758,21.6918,-155.852,14.5592,-80.9738,-32.0632,6.81603
71.041,-83.0852,83.6822,36.972,41.177,51.893,-51.4606,-155.836,42.3813,-54.7652,-20.6717,13.9793
71.0771,-75.3159,92.3659,35.031,75.454,43.087,-186.321,-141.351,-5.29027,-86.5487,-33.0055,48.286
71.1402,-92.8747,89.8839,22.048,65.6747,65.9423,-29.8689,-182.049,22.3116,-83.3451,-18.3349,14.788
71.288,-73.8623,81.517,42.287,53.563,89.4782,-117.099,-113.886,16.7397,-66.534,13.6383,47.5407
71.3092,-91.8509,89.2021,26.49,99.2838,49.975,-37.546,-193.492,-22.496,-120.629,-28.6959,41.4304
71.3441,-95.1603,89.5659,-1.9963,55.975,94.1049,16.0883,-157.946,28.3605,-74.7146,1.10452,-6.5033
71.441,-85.8978,88.8102,38.974,93.1801,40.765,-82.6994,-184.702,-14.8601,-110.981,-35.202,55.9528
71.6071,-62.08,83.975,11.233,50.722,68.5349,-245.938,-29.7384,-4.12663,-66.4244,-10.06,22.382
71.7131,-64.2309,78.0941,26.92,63.7479,90.5411,-191.938,-39.3372,-17.0915,-78.4438,12.1508,38.7355
71.7721,-81.2838,90.411,43.394,83.4891,46.93,-126.204,-174.533,-0.78872,-95.4864,-29.2483,54.3838
71.8208,-75.647,83.987,20.725,89.5722,87.8791,-129.323,-88.3637,-38.0625,-106.017,6.21185,28.0101
71.8942,-95.6152,92.7687,41.583,97.9878,74.3258,-43.5495,-248.863,2.40303,-112.536,-3.72362,42.8237
71.9761,-83.677,96.2861,13.301,72.1067,70.593,-143.642,-138.272,6.12331,-88.7646,-12.0352,23.6718
72.4368,-76.5701,99.6259,42.255,60.3812,82.5689,-206.772,-186.525,41.9298,-69.0109,8.7796,60.9523
72.4442,-68.3842,87.925,-8.70661,83.6152,99.297,-205.328,-19.0269,-44.3693,-101.325,11.8985,8.12754
72.5622,-81.7387,73.5489,12.839,83.751,60.5061,14.5577,-82.5664,-25.1894,-102.591,-28.0877,10.277
72.6843,-86.245,78.9983,-5.0444,40.939,72.4327,31.9142,-98.788,37.0405,-56.1028,-18.7866,-21.9689
72.7507,-66.977,83.7372,21.272,62.4828,61.3901,-202.361,-56.0156,0.625792,-75.9906,-17.6288,29.0454
72.8413,-99.6431,96.5571,4.3695,61.6669,52.999,-17.0883,-199.342,45.9929,-76.1317,-36.2541,-7.57695
73.0258,-65.7692,99.7777,4.9371,76.6411,91.7403,-316.646,-97.3096,-2.5635,-90.4843,12.0341,37.0305
73.0412,-70.3793,96.0317,28.74,68.8558,41.193,-248.53,-131.483,18.487,-76.9533,-34.6328,42.2896
73.0498,-70.0601,94.1828,18.382,45.015,53.659,-231.215,-106.231,40.5911,-56.2872,-19.6016,20.409
73.0561,-92.272,92.0371,16.453,67.8348,57.435,-46.5815,-171.915,30.7899,-83.4792,-28.227,11.5131
73.2802,-88.4211,70.6371,43.707,92.0508,79.0642,62.5169,-186.225,0.33681,-107.645,-3.68089,27.8221
73.3369,-65.6209,70.0298,12.513,79.919,50.13,-118.171,9.10675,-38.7788,-97.2196,-35.464,20.281
73.3672,-70.8101,87.3222,29.857,43.636,76.6182,-177.815,-102.07,42.9641,-56.6133,0.696025,36.9079
73.4142,-80.076,81.9662,23.497,94.6641,42.825,-76.2059,-109.181,-24.7191,-115.164,-37.6275,42.2443
73.4853,-84.529,98.2898,45.05,61.6268,75.6419,-142.23,-211.366,55.2071,-71.3544,0.241881,52.4014
73.5088,-62.4071,93.069,-7.46209,91.1839,77.4948,-303.53,-35.6942,-38.4595,-106.576,-6.09874,25.2634
73.5798,-84.0558,85.9018,16.171,55.83,99.2489,-62.0044,-120.524,35.5618,-71.4766,13.454,19.6653
73.5987,-98.6072,72.7467,4.0956,72.6218,41.901,172.014,-198.494,34.6057,-86.9494,-54.6999,-23.6442
73.6148,-98.6559,71.3911,12.691,94.483,98.1351,168.151,-216.116,7.50989,-111.069,2.90669,-17.1535
73.8119,-90.7559,87.6219,9.78681,93.4838,76.2693,-17.6978,-149.121,-7.96524,-110.186,-11.6905,10.7723
73.9992,-88.7598,85.7832,43.753,71.0193,72.5691,-38.3078,-196.533,40.7037,-83.9104,-7.28974,37.062
74.029,-82.3082,72.2202,40.338,40.586,73.42,20.0957,-145.34,62.9579,-55.0564,-5.81109,18.941
74.0382,-69.1892,78.7467,6.8905,73.1392,81.4981,-141.812,-15.9973,-13.4874,-88.7162,-4.55688,15.0202
74.0663,-79.2779,90.776,8.71641,96.5147,45.579,-138.847,-100.781,-23.3993,-116.888,-36.1482,37.5148
74.6008,-88.0413,72.729,9.34889,89.9721,78.5199,82.1279,-121.228,-4.74189,-105.975,-13.2696,-3.05731
74.673,-65.4129,79.9591,14.678,82.1799,85.3999,-195.13,-23.5927,-17.2657,-95.9235,2.39048,28.1839
74.6971,-99.9788,90.3921,49.278,54.216,43.079,7.15887,-281.638,91.3633,-61.6829,-33.2064,17.4825
74.7337,-81.984,99.2758,27.527,58.0721,92.0732,-173.274,-173.975,58.3433,-69.4579,12.489,43.8632
74.7389,-84.262,76.5271,22.694,66.3422,63.1709,4.01776,-116.825,30.1886,-80.5583,-23.0571,9.68282
74.7698,-80.8208,78.1881,1.3524,94.2607,88.3071,-15.9078,-65.1492,-24.3693,-109.753,-2.51175,-1.01333
74.869,-96.6013,78.6419,29.411,67.8777,78.313,74.6804,-213.368,55.1219,-82.9063,-9.10128,8.98692
74.8959,-68.5779,81.4992,-5.73783,75.2208,68.9979,-156.644,1.2923,-11.8682,-90.3845,-19.5572,6.40228
75.144,-84.2122,75.113,22.62,65.8907,59.5183,14.2941,-115.275,33.8834,-79.2868,-27.0873,7.09117
75.2179,-72.1938,73.1438,13.451,54.357,67.2979,-71.4137,-32.0935,27.8382,-67.6807,-17.8044,4.84535
75.6379,-96.717,81.207,8.10363,73.1312,45.154,82.8103,-178.824,43.9795,-86.1021,-47.1991,-10.4843
75.6889,-90.9519,97.1547,7.7304,96.713,99.729,-89.5352,-165.777,7.58387,-111.481,11.9185,9.64307
75.8567,-82.4887,99.8001,30.663,88.3782,96.9628,-180.509,-185.596,27.1679,-98.9849,17.0276,45.6572
75.9599,-98.323,75.7009,19.275,86.6289,96.717,121.107,-212.756,35.1577,-101.283,5.22871,-5.13761
75.9702,-75.1617,71.3521,-1.2091,67.0819,94.2802,-11.9618,-16.2327,14.5414,-81.0438,2.53132,-4.64078
75.9908,-78.136,86.5527,-8.08461,62.5613,53.934,-97.4574,-49.5406,30.1287,-73.5415,-35.2758,-9.68775
76.0722,-73.5202,98.9332,-1.7342,86.3419,56.996,-241.695,-90.9759,8.67242,-100.204,-27.6309,27.8717
76.0842,-94.695,82.9179,22.491,64.2601,79.95,36.3728,-189.571,62.7326,-78.0623,-7.73348,7.82782
76.0939,-83.9068,92.81,1.2056,88.5632,85.978,-106.493,-107.063,8.36847,-102.497,-2.06251,10.2467
76.1558,-71.1579,88.2962,27.217,60.1921,84.5439,-192.17,-97.8804,47.3954,-70.9353,4.2895,41.027
76.1982,-94.7088,81.2408,32.763,47.139,67.6331,44.9556,-216.207,91.1003,-59.5201,-15.1119,6.88198
76.2727,-84.7937,84.2758,32.354,94.565,57.5977,-57.9666,-154.429,12.3214,-108.186,-24.3927,40.1219
76.3552,-74.8518,85.4927,4.4771,53.092,67.181,-131.87,-58.7927,48.0652,-65.093,-17.6462,4.61846
76.4572,-83.9509,86.9498,17.882,46.27,43.117,-68.5436,-132.325,74.0968,-51.4425,-34.7825,-7.39008
76.6721,-97.9168,80.4232,41.559,87.3789,66.3388,58.1095,-248.008,47.9222,-100.434,-18.3406,27.1477
76.691,-76.7099,73.2928,20.227,59.0811,51.606,-35.0297,-66.7533,45.0338,-68.4342,-32.8106,2.56435
76.7099,-98.9911,72.6121,43.872,83.732,64.1128,118.299,-263.976,56.9514,-97.1762,-22.1742,19.7578
76.8697,-81.5709,83.9452,46.38,81.6877,91.2911,-80.5928,-163.561,38.6608,-91.0497,10.8612,47.4439
76.9133,-86.6828,99.5829,45.867,99.5422,98.3379,-142.733,-235.655,30.0966,-107.985,19.1952,55.3528
76.9671,-68.4008,77.2141,12.339,47.867,72.784,-135.915,-27.6154,52.5407,-59.8124,-10.5843,11.2344
77.088,-84.627,70.538,21.267,40.088,63.2717,57.1562,-129.574,84.075,-50.5124,-19.7432,-10.1997
77.2078,-86.8971,78.9771,8.04908,74.8947,64.5712,23.1423,-109.619,37.9348,-87.4729,-25.9065,-1.36355
77.2571,-74.0949,84.5342,6.8901,44.101,46.649,-130.888,-63.8916,67.8248,-49.4148,-31.7588,-10.1421
77.2662,-97.4641,70.6491,23.212,92.2892,55.637,148.277,-220.49,37.4775,-108.404,-34.4104,6.33344
77.296,-77.4009,75.3061,-1.9397,74.2588,90.9828,-20.4086,-31.6622,22.1781,-87.0347,-0.422586,-4.3334
77.4278,-91.3593,94.9729,-1.9898,79.0023,91.4297,-57.0194,-140.983,41.6861,-91.5469,1.20963,0.978372
77.4341,-89.5138,72.3199,33.21,78.7318,54.047,66.9583,-170.417,47.845,-91.1343,-32.9993,15.9507
77.4868,-77.2359,79.1318,-6.86168,62.52,67.3758,-47.0897,-31.6145,40.6195,-73.7402,-23.2843,-11.4776
77.5498,-63.7479,96.8482,11.272,80.143,82.7448,-318.282,-92.2475,32.49,-89.4878,1.0369,42.9451
77.6071,-94.306,70.0538,27.056,63.0368,53.147,126.094,-200.91,77.4927,-72.2553,-35.3084,-8.31416
77.6639,-73.2928,81.6763,8.57151,88.6549,72.4133,-125.887,-44.1047,8.63289,-100.989,-14.2515,19.397
77.7727,-64.5191,81.2219,38.514,82.8789,48.976,-210.835,-75.1172,25.8231,-90.1222,-31.4528,53.9037
77.7819,-60.7771,94.0189,-6.78548,78.7038,55.564,-325.712,-36.0572,24.4515,-89.5391,-29.6999,24.7344
77.8231,-82.9901,96.9158,3.0639,75.9748,62.1459,-147.258,-118.356,45.1224,-87.4499,-24.8359,14.8052
77.9372,-77.2931,91.7987,12.834,48.293,46.476,-156.988,-108.506,79.7081,-53.1021,-31.5093,1.68931
78.0351,-99.9462,87.635,37.513,98.8599,90.9937,21.0512,-260.523,42.5873,-110.296,5.53813,24.0131
78.152,-91.6618,87.1308,39.912,80.288,74.3779,-29.1819,-209.626,60.2448,-90.5555,-9.19021,34.1674
78.3543,-97.801,75.25,-5.6769,69.7771,62.037,164.619,-181.262,69.5749,-78.5749,-33.6896,-33.3216
78.3858,-78.3462,88.8973,15.795,69.5708,92.7321,-135.644,-100.163,55.065,-80.5132,7.49157,25.6376
78.3949,-67.3833,76.3988,20.606,85.0149,69.3479,-152.546,-29.4202,18.4784,-95.6415,-15.3129,30.3112
78.47,-94.3472,73.3982,41.513,88.4968,60.5628,85.6928,-224.573,52.726,-100.54,-25.535,24.8614
78.6482,-75.5508,85.4068,47.072,70.2733,71.504,-133.224,-142.583,64.985,-76.8722,-8.80758,51.7231
78.6957,-68.987,74.2261,41.659,91.8262,68.4289,-124.698,-75.6917,20.7011,-100.29,-13.4028,49.5999
78.776,-99.7307,72.6562,13.4,64.2183,42.978,162.378,-224.418,88.8291,-67.8209,-48.147,-29.6861
78.8373,-64.4893,74.834,8.46471,90.23,85.3128,-163.348,9.26925,7.77626,-101.127,-1.49898,18.7869
78.8441,-91.7798,96.0019,16.269,45.32,68.5469,-73.8082,-192.373,106.989,-54.9167,-14.0858,7.1859
78.9318,-64.9849,78.639,36.35,66.4379,50.919,-186.529,-62.333,57.1042,-71.5904,-29.2954,36.9665
79.1971,-76.7958,93.0203,43.772,87.3423,74.4077,-175.039,-169.22,50.3429,-92.724,-6.55438,60.1164
79.3621,-89.7619,73.5139,-0.25141,90.8659,73.9041,107.193,-121.861,35.6605,-101.929,-19.4422,-13.6053
79.4148,-73.2332,99.9851,-7.49079,73.4022,69.8768,-246.082,-83.9329,57.095,-83.3145,-16.8007,15.7891
79.4721,-76.5558,76.3609,1.7286,84.8602,86.1757,-42.7189,-34.562,30.0629,-95.4206,-4.076,1.50239
79.5437,-92.4118,76.365,30.108,66.8808,64.8663,62.5174,-188.883,84.2982,-76.2677,-22.34,7.47879
79.5558,-76.6881,91.0808,19.073,90.7817,53.504,-169.235,-110.354,37.1404,-101.159,-30.8757,39.0116
79.5701,-95.2307,84.6282,47.812,59.9537,89.1402,16.0866,-249.149,105.261,-68.9918,5.31881,35.6995
79.5907,-99.0988,70.3982,14.806,80.2702,55.41,174.99,-223.027,71.4876,-90.5157,-37.657,-13.8716
79.5959,-85.5042,85.169,43.064,57.4871,99.4712,-51.5518,-183.489,96.6672,-65.0556,15.5356,45.6127
79.597,-71.1121,81.9169,4.1832,95.4863,51.23,-144.899,-29.9387,15.5163,-108.864,-35.1793,26.1295
79.6348,-87.2769,93.9353,16.967,75.4958,49.343,-100.323,-155.299,67.904,-83.7913,-36.897,18.5555
79.7672,-90.1308,89.6112,43.979,64.2309,80.991,-51.9897,-217.021,95.4046,-72.3972,-1.81282,39.4337
79.9351,-72.0042,71.8609,36.257,91.832,64.2377,-80.9398,-71.8481,31.3909,-100.995,-19.9218,39.7977
79.986,-98.8948,85.4733,9.62151,95.4731,53.144,61.5468,-201.533,48.8085,-109.244,-36.5964,7.4581
80.0009,-62.8672,71.9263,7.00309,91.526,89.5871,-157.616,26.4597,15.5075,-101.414,1.80177,15.4299
80.0193,-95.0772,71.8008,16.311,55.322,54.937,132.303,-195.437,103.436,-60.1422,-33.0423,-23.857
80.068,-62.983,95.8661,10.263,71.9801,47.922,-317.605,-84.9407,65.7195,-76.743,-35.086,33.1958
80.1889,-94.9821,70.1827,37.414,75.1262,72.9198,117.583,-224.544,83.4271,-84.6594,-15.3586,10.3859
80.2382,-83.6948,72.4259,30.382,40.275,92.6312,31.4541,-143.992,112.846,-49.9377,5.02877,19.8089
80.272,-79.6881,74.7962,39.027,57.9501,50.169,-26.8442,-126.192,91.0196,-61.9085,-30.9988,15.312
80.394,-78.2798,98.123,-1.9941,62.8397,90.3881,-190.322,-102.607,83.0203,-72.2339,3.01624,17.0484
80.4312,-82.3042,79.4028,-5.75891,45.529,89.6788,-3.96316,-75.9065,97.8509,-55.2199,-2.00996,-9.34724
80.5298,-85.9912,88.106,33.863,53.087,98.739,-66.6595,-177.094,107.85,-60.7595,13.0428,39.169
80.6152,-97.3902,83.2823,18.938,97.428,78.8969,55.4939,-207.038,51.4116,-107.351,-10.4529,7.61184
80.6312,-74.1459,72.3468,40.511,78.4339,72.1119,-64.4219,-90.9485,60.6653,-86.1674,-12.3871,36.4333
80.6513,-92.9899,72.9587,-6.34299,91.6801,44.574,150.691,-144.669,49.2496,-105.505,-49.298,-15.5356
80.7441,-80.386,91.7729,29.452,80.6117,85.4733,-144.015,-147.254,68.338,-88.1714,1.1619,39.6414
80.7888,-93.5073,71.1058,10.272,52.228,60.3118,134.568,-177.591,109.66,-57.1402,-28.0603,-27.8512
80.7968,-97.6761,98.1013,8.30319,76.4349,67.8227,-47.9059,-200.687,82.9253,-85.2129,-21.2467,6.22034
80.8082,-70.9998,97.1599,36.033,52.595,69.427,-234.014,-158.69,108.609,-56.2453,-9.47105,50.1079
80.8661,-88.7248,89.5739,10.563,75.0781,89.2869,-50.0301,-140.934,75.4975,-84.2037,0.574241,10.6153
80.9331,-72.8052,75.3812,24.508,89.4221,77.6169,-94.3654,-58.1923,42.2676,-98.0558,-8.67704,27.8986
80.9899,-90.4047,89.331,46.107,72.8373,57.6132,-50.9972,-222.612,92.7878,-78.2968,-25.9278,37.6892
81.1411,-83.0262,73.3111,46.162,65.7641,97.8171,6.43842,-157.896,92.9546,-73.3429,12.5804,37.69
81.1572,-65.5361,99.6081,-6.10412,82.1278,69.5387,-315.182,-74.5631,59.7488,-90.0908,-16.8121,26.7201
81.313,-71.838,81.9037,32.941,55.407,88.6182,-141.096,-95.086,98.6781,-62.3726,4.52739,41.3218
81.3268,-98.8129,98.1459,12.461,73.7729,86.1029,-44.8322,-215.633,92.5953,-82.422,-2.59368,10.5656
81.5342,-92.3299,80.9927,27.168,40.078,65.9979,36.0183,-203.903,132.368,-46.5943,-15.6755,-1.24012
81.5502,-82.1197,95.0279,1.9138,74.9308,50.447,-139.003,-109.151,77.2737,-81.2583,-37.5975,8.4934
81.6081,-92.0073,96.2907,11.407,82.487,49.814,-78.1415,-174.286,76.2598,-90.6672,-38.469,15.2969
81.8722,-77.5779,89.9802,30.016,53.276,93.5359,-144.316,-139.307,112.57,-59.6726,8.3891,43.2453
81.8751,-94.8789,79.9247,43.122,97.9632,84.9502,42.268,-236.656,63.9975,-105.699,-1.46374,28.8245
81.8888,-78.7467,73.275,0.627429,99.218,93.9072,6.28498,-46.7311,35.0855,-107.68,2.45245,-6.38977
81.9152,-81.317,70.9001,1.4471,88.1358,78.6218,49.9581,-61.101,53.2709,-96.424,-13.1804,-8.21581
81.9891,-61.6921,71.8478,2.6087,90.3818,94.9019,-166.089,39.3218,37.9931,-98.7181,6.34618,11.1695
81.9943,-75.7078,82.1593,17.08,40.441,47.442,-101.244,-91.9195,120.152,-40.8997,-27.5609,-8.06002
82.0057,-83.0279,99.4849,23.643,96.7737,54.019,-175.143,-176.819,59.4659,-105.113,-30.5516,48.0612
82.0321,-65.7458,94.8102,-3.8555,57.49,87.5978,-278.542,-59.9362,98.9223,-64.9596,0.927561,23.0191
82.0458,-99.8763,74.2828,17.13,54.011,99.8218,143.622,-238.31,125.51,-62.195,7.18916,-4.44508
82.2922,-78.7582,93.9439,45.176,57.8859,78.9868,-153.654,-185.478,116.835,-61.946,-3.25512,54.6313
82.3249,-89.2519,84.8338,5.2231,85.1071,97.5787,-0.904246,-128.403,71.102,-92.7517,7.06629,-0.0716043
82.3432,-79.8079,93.4328,-0.24142,70.0687,99.2781,-144.796,-92.8988,88.7917,-77.6727,10.409,14.5815
82.6858,-82.6629,72.6877,20.056,50.155,81.3039,24.6281,-114.417,118.507,-57.5405,-6.33693,4.60289
82.7128,-97.2802,73.8371,-6.72297,74.7349,47.636,175.838,-182.397,95.5311,-77.8305,-46.1615,-38.5138
82.7529,-72.9868,72.1869,-1.7472,90.0019,42.953,-39.8732,-4.87289,52.0173,-100.444,-47.4949,4.80639
82.8268,-64.805,75.3651,40.543,52.429,92.9143,-157.624,-66.9187,112.04,-56.7573,7.71026,52.244
82.8732,-96.1847,85.526,29.776,85.4251,95.4129,18.3237,-219.109,86.6919,-92.5375,7.27166,18.1915
83.0073,-75.882,79.1289,32.515,75.6138,70.8113,-94.4327,-99.7482,87.4673,-81.4058,-15.3035,31.9608
83.0078,-95.6118,73.7597,29.081,42.924,95.9309,107.563,-233.455,143.287,-50.3132,5.24673,10.3008
83.1952,-88.047,76.3959,39.853,83.7212,79.6428,21.2576,-179.694,86.6218,-90.1915,-7.57191,27.328
83.2439,-80.5029,87.1417,24.455,97.2137,52.877,-110.194,-127.182,61.844,-105.748,-33.2166,39.7264
83.2599,-86.2851,88.4469,39.951,87.4918,62.5847,-76.9228,-188.933,83.2933,-93.0947,-23.3611,42.5674
83.3252,-64.0028,76.1352,22.295,68.9601,59.2192,-182.231,-24.6816,91.3031,-72.8221,-26.1953,24.6176
83.402,-78.1652,81.344,14.178,42.932,97.322,-73.5236,-96.8065,130.768,-49.3796,7.34266,21.1915
83.4112,-74.492,81.8957,10.337,67.1168,40.56,-115.1,-57.9381,98.0489,-66.028,-45.209,-0.899063
83.4112,-97.2481,85.1627,32.26,46.481,64.4469,33.6517,-247.08,144.255,-50.6999,-18.1312,3.48276
83.4822,-92.1179,88.62,34.941,63.5611,63.0741,-31.1214,-213.408,120.924,-67.7188,-22.0907,20.4855
83.7962,-79.4228,73.746,46.624,51.582,84.9112,-17.8928,-147.217,130.322,-56.7517,-0.421128,37.2092
83.9452,-88.8463,88.6721,24.101,77.0359,51.197,-53.6177,-169.787,101.064,-80.76,-36.5145,17.2946
83.995,-84.7359,94.9832,17.18,43.351,98.5419,-117.218,-169.769,143.721,-48.7175,9.04901,32.0779
84.0793,-69.1938,89.2221,33.835,57.8533,53.219,-210.388,-119.626,123.294,-57.0683,-27.8503,33.8933
84.1142,-76.479,78.7061,33.703,95.9739,60.2878,-87.6048,-106.694,68.6912,-102.299,-26.3062,41.1816
84.1262,-71.8409,75.7972,39.479,93.2368,96.4741,-109.3,-89.9409,71.1562,-98.2967,10.1164,41.8179
84.132,-92.6587,86.394,43.155,91.5208,97.298,-18.2888,-228.447,87.5844,-97.0356,10.4134,35.2786
84.2489,-89.3877,78.7261,47.484,93.0168,88.8657,12.0332,-209.197,84.0876,-98.2943,1.95855,36.2533
84.395,-95.166,91.4561,13.402,67.1317,59.7417,-17.8627,-193.142,120.436,-70.3213,-28.3049,-0.665225
84.6419,-81.7032,93.4408,23.438,75.4287,44.274,-143.232,-150.056,107.385,-76.2021,-42.337,24.4687
84.7072,-65.4919,89.2622,19.874,85.1341,53.408,-256.849,-77.946,88.2429,-88.6661,-33.5705,42.1606
84.7141,-96.3171,99.7153,11.794,60.7788,48.463,-71.4439,-215.295,133.467,-59.6223,-36.2985,-5.04692
84.7238,-79.1111,79.059,49.423,42.916,77.9721,-47.2285,-166.032,148.899,-46.5511,-5.13428,40.1062
84.8992,-89.1889,82.0659,6.14549,94.3868,67.3861,20.3682,-130.872,79.4562,-100.233,-22.9773,2.55941
85.0252,-73.1432,77.5309,31.173,57.246,76.5878,-101.425,-89.6815,128.859,-61.1184,-9.26759,28.2389
85.0642,-88.8067,77.2863,41.836,45.078,96.6603,31.6364,-208.514,152.597,-49.5619,7.43569,33.7014
85.1192,-70.8542,81.5158,24.25,71.9411,48.908,-154.128,-71.9389,109.329,-72.3675,-37.3965,22.5556
85.1782,-80.7108,83.1367,-0.0821432,54.74,63.8412,-54.9595,-82.0065,132.527,-56.8175,-22.4305,-12.221
85.208,-73.1679,83.6748,13.185,82.228,93.784,-144.981,-62.6797,94.9683,-87.0416,5.30129,23.2157
85.2939,-72.0758,71.6272,31.03,52.125,94.6108,-67.9652,-74.911,135.973,-56.5748,6.07891,32.3119
85.4859,-90.8213,99.4517,14.768,52.362,87.462,-107.038,-201.346,147.991,-56.9134,-0.563424,21.0213
85.5162,-71.6438,97.4641,19.576,94.5512,97.6079,-253.074,-131.659,86.3926,-98.3562,10.5172,43.6245
85.5609,-62.8328,77.2129,-3.186,74.9669,89.429,-187.488,25.3969,102.098,-79.658,-0.028154,10.1646
85.7729,-70.546,99.6379,7.15682,80.3361,71.3819,-275.008,-114.009,107.956,-83.6601,-16.5209,33.3118
85.9649,-62.6862,73.2653,10.88,89.123,64.4641,-172.86,12.2429,87.1372,-93.3808,-24.4694,22.0397
86.0319,-70.4389,83.288,4.1677,59.6059,77.0978,-158.549,-42.6943,132.28,-63.0904,-10.7433,10.2566
86.0508,-96.5778,95.4897,-9.11421,86.0949,79.2807,-8.82728,-168.933,104.239,-89.9859,-12.0182,-10.7903
86.1012,-93.7319,98.6272,33.762,70.9992,42.739,-92.4573,-243.066,131.464,-68.0474,-43.0607,21.8456
86.127,-85.0567,84.8688,36.634,55.486,49.08,-52.3689,-180.038,147.01,-52.1411,-32.2216,11.8726
86.1499,-76.5609,97.7099,2.3403,88.6377,96.1669,-208.423,-107.168,98.3476,-92.7964,7.47962,22.463
86.1631,-68.61,89.614,39.989,47.152,72.207,-204.128,-137.466,154.655,-47.4365,-10.5269,48.1458
86.2038,-76.059,99.862,-9.41192,89.9332,59.61,-218.615,-92.2173,96.1262,-94.1816,-29.8022,15.7047
86.2193,-84.615,90.262,30.811,87.0541,97.746,-101.197,-169.638,104.562,-90.7408,9.63592,35.6999
86.2301,-74.2089,75.3439,46.735,61.6021,96.0988,-76.7721,-121.667,136.416,-64.5543,8.16934,49.8115
86.3843,-95.0428,75.5233,20.922,89.594,84.5479,97.9492,-198.876,102.754,-93.3269,-5.92651,1.13835
86.4708,-75.3428,89.119,-4.9445,74.233,73.6801,-148.386,-56.9868,118.069,-77.3503,-15.8724,4.59765
86.5012,-66.1067,93.2592,27.538,76.342,91.5907,-270.49,-118.495,119.638,-78.3207,3.83065,54.653
87.0151,-69.9232,72.5502,39.775,78.1108,98.2961,-103.714,-77.3626,118.536,-80.9287,9.96182,43.0218
87.1492,-80.7189,80.0749,10.202,84.0558,82.3048,-43.2088,-85.8368,111.485,-86.9441,-7.75735,8.47538
87.2592,-71.076,81.1148,31.259,52.845,40.771,-141.222,-98.6156,155.035,-43.9201,-37.0714,7.46744
87.2792,-92.437,80.6518,38.881,75.0833,75.9662,23.9561,-217.559,131.379,-77.5491,-12.8897,23.2088
87.4689,-85.8537,99.2901,-5.0038,65.9429,60.4081,-132.153,-137.731,142.628,-65.6219,-27.368,-4.06657
87.4712,-65.5538,79.5242,34.158,77.5149,64.1071,-190.79,-71.4971,123.63,-77.9767,-24.2011,42.7258
87.5691,-81.1457,92.4742,13.897,69.7037,85.7271,-136.08,-131.477,137.923,-72.2568,-3.3865,23.0926
87.6482,-75.085,84.3549,9.15231,79.0281,99.6339,-128.574,-68.4576,122.978,-81.5919,9.85985,19.1457
87.7743,-71.5309,72.5198,11.515,84.6201,90.0409,-74.3417,-26.3309,114.166,-87.0568,0.0300824,11.8899
87.7932,-70.7901,87.9158,20.709,90.0512,94.0722,-200.078,-90.4955,109.849,-92.4706,5.18573,36.9667
87.7949,-86.4398,84.3829,4.0582,78.525,76.6801,-19.2786,-116.786,126.317,-80.5722,-13.6051,-0.755917
87.9278,-73.3472,99.5818,5.73307,90.7743,69.9169,-250.949,-118.582,111.616,-92.9533,-19.4071,32.1239
87.9502,-64.3701,83.2009,-2.6311,83.5413,88.0648,-216.955,-5.15921,117.913,-85.8895,-1.76083,14.9302
87.9628,-67.2011,93.3171,18.65,86.001,87.0907,-266.319,-103.432,118.283,-87.882,-1.87938,43.9353
87.9651,-76.263,97.3948,37.633,68.3338,62.63,-204.403,-186.619,145.261,-67.0597,-24.6777,48.3426
88.0017,-87.6809,86.81,26.924,50.896,93.2678,-42.9589,-186.353,166.536,-53.0491,3.26505,27.1361
88.0338,-89.5711,90.4993,13.426,63.0752,72.5559,-51.4649,-169.059,151.571,-64.253,-15.6212,6.05315
88.1009,-94.412,72.533,38.827,42.206,95.5441,102.906,-255.499,178.066,-44.4819,4.32777,20.031
88.2418,-89.928,97.3639,14.696,46.56,97.832,-96.2958,-202.629,173.77,-48.2588,6.2701,26.4666
88.3197,-64.8892,70.2251,27.375,92.3929,40.61,-135.955,-24.9129,108.695,-95.731,-48.9777,36.4684
88.3747,-93.5411,72.8012,8.53489,43.381,50.177,122.469,-197.721,176.816,-37.3142,-27.6558,-43.2678
88.4492,-93.8098,79.526,24.605,63.4402,89.94,54.5428,-206.199,154.748,-65.4632,-0.0789567,9.56423
88.5082,-92.3001,83.3189,30.487,78.3571,80.5521,7.98029,-203.026,134.958,-80.017,-9.17863,19.0931
88.601,-96.6608,74.9051,42.949,45.4,66.278,97.6741,-277.99,178.641,-44.6735,-16.7644,3.87031
88.8142,-80.4398,81.678,49.576,61.35,74.335,-65.6796,-178.351,159.71,-60.7634,-13.8684,43.0657
88.9162,-67.7408,93.0168,26.821,67.5328,72.415,-253.332,-126.362,152.775,-67.4988,-15.6943,44.5535
89.3499,-82.2767,91.5449,24.776,62.2112,74.0708,-121.73,-163.152,163.089,-61.9424,-14.1941,25.75
89.3551,-78.6069,96.5657,1.7417,56.469,55.747,-176.858,-124.859,170.227,-51.8816,-28.2751,-1.34112
89.5138,-87.9479,76.8308,39.118,86.869,62.528,17.8253,-187.541,129.8,-87.2619,-27.6701,25.934
89.5791,-83.2021,92.4622,39.739,85.2492,87.7662,-125.715,-195.497,133.533,-86.0951,-2.24925,48.1356
89.6358,-94.475,84.6551,10.526,80.2691,95.6811,35.0152,-183.032,140.076,-80.6894,5.1029,1.01943
89.7252,-76.42,76.2681,4.6499,81.6247,85.3982,-46.8272,-50.3248,138.471,-81.9049,-5.05635,3.30404
89.763,-76.742,76.86,33,89.7991,85.7958,-71.9374,-108.997,127.467,-90.5854,-4.46787,32.4484
89.7882,-78.9839,75.0477,-7.1559,58.9849,55.269,4.86901,-56.8509,169.614,-53.9303,-29.7297,-31.1682
89.8438,-97.1822,81.6877,0.43299,51.875,83.759,91.8816,-205.136,178.691,-52.0087,-5.35953,-19.471
89.9257,-98.5688,87.4958,34.989,82.3839,60.8538,15.2127,-258.545,139.634,-81.5844,-29.2992,19.1248
90.0512,-78.7651,88.9322,3.4566,48.589,76.9202,-119.391,-110.435,184.802,-48.0315,-10.0445,4.08152
90.0678,-74.8839,98.5642,-2.7842,64.2629,56.287,-222.726,-110.552,166.913,-59.6241,-30.3004,3.67158
90.128,-71.4301,77.2582,7.03632,49.924,82.106,-103.484,-51.3672,183.983,-49.8113,-6.29933,6.88067
90.1492,-73.1277,92.2382,-3.908,62.0313,52.508,-192.646,-77.2235,170.368,-55.8321,-32.7299,-5.60368
90.1492,-80.9859,78.6568,-0.49564,82.5781,75.4471,-14.65,-72.6115,141.23,-82.2579,-14.9358,-5.19546
90.1813,-97.6142,86.826,10.831,54.61,80.2611,39.5806,-221.576,178.239,-54.3379,-8.20125,-6.29383
90.187,-92.849,79.2212,33.566,49.15,56.727,46.3527,-231.711,184.346,-44.0206,-24.7566,-4.03126
90.2878,-88.4372,88.2361,27.735,80.8042,41.823,-55.8042,-185.079,144.746,-75.8651,-47.9163,16.3057
90.4167,-66.8762,92.614,-4.2433,83.2158,93.866,-257.495,-54.8623,144.679,-83.2851,3.36231,20.9545
90.996,-88.5002,72.6001,9.66528,94.063,88.1782,87.1796,-138.965,130.989,-93.3145,-2.28272,-6.81445
91.0012,-90.2328,97.9483,7.18678,98.0079,66.5743,-100.21,-176.488,125.832,-97.788,-24.0629,17.3056
91.0292,-94,75.533,-7.22849,74.563,59.3911,138.128,-165.563,158.696,-71.2914,-29.4898,-35.3061
91.2097,-78.211,90.199,25.186,71.9457,97.047,-148.739,-143.557,165.433,-71.4856,5.68233,38.6694
91.3312,-70.5168,84.2168,2.8302,95.229,40.955,-166.588,-44.1589,135.736,-96.249,-49.71,20.5633
91.3942,-98.5762,77.4627,33.926,55.08,73.424,93.9406,-273.658,184.616,-52.8373,-13.8436,2.10866
91.5558,-86.4101,71.9389,20.205,69.5599,69.3308,60.1513,-147.532,170.412,-66.9191,-19.6303,-2.83973
91.6022,-88.0602,73.8268,9.40413,99.6992,47.049,73.9133,-136.819,128.082,-100.852,-42.957,2.03496
91.6881,-93.7439,94.5461,14.638,90.1761,80.7361,-54.5253,-201.283,141.365,-88.7338,-10.2417,14.5773
91.7712,-99.9542,73.962,27.1,55.608,90.4821,134.187,-277.081,185.988,-54.3278,0.124129,0.747546
91.793,-85.6308,88.675,38.022,51.89,58.562,-71.5576,-211.369,193.362,-45.5391,-25.163,19.0085
91.8079,-89.5711,71.6128,43.193,74.2972,48.551,66.158,-213.954,163.971,-67.4727,-40.2843,9.9838
91.8383,-77.3029,86.4398,9.06832,76.1312,62.9812,-122.953,-93.7623,166.253,-72.553,-26.9742,9.52171
91.8468,-99.4362,80.5109,44.733,57.8498,68.7469,70.37,-299.128,183.38,-54.4262,-18.517,12.8595
91.8497,-83.1602,85.5202,28.075,76.0607,90.2941,-76.66,-157.38,164.252,-75.0029,-1.00588,29.6887
91.8497,-76.593,89.9188,18.146,49.535,50.069,-150.892,-137.728,199.022,-39.7238,-29.5826,1.13844
91.9351,-79.0418,71.6151,-4.9707,59.1269,77.6959,30.642,-63.9195,190.192,-56.8069,-10.3155,-19.6608
92.0107,-92.3831,78.635,-3.5835,49.39,71.0708,86.5267,-172.738,198.316,-46.0864,-13.6463,-30.8263
92.0187,-81.2242,92.7951,17.265,71.7171,61.5569,-139.646,-149.4,172.232,-67.313,-27.9893,17.2666
92.135,-94.318,89.2032,22.394,43.232,71.2949,-8.71723,-239.47,203.644,-39.762,-13.0249,2.25198
92.1809,-76.0939,75.0769,13.944,73.2091,46.912,-50.6446,-72.2288,173.931,-64.6467,-41.1429,-4.68925
92.2158,-96.501,71.567,40.952,45.774,40.264,120.018,-285.741,199.436,-31.2967,-32.6665,-25.1341
92.5888,-87.9421,86.771,49.349,70.2297,88.5392,-48.642,-234.636,174.823,-69.0483,-3.49621,46.9012
92.6742,-90.6729,80.7441,12.876,76.1518,95.3539,34.2187,-167.317,169.8,-73.84,4.59775,3.789
92.6759,-80.8237,98.5659,-6.8673,77.834,62.5051,-167.982,-119.954,170.838,-73.2707,-27.4705,2.4829
92.692,-96.3549,93.1578,40.268,96.3629,99.9691,-41.0815,-268.504,136.714,-94.9297,7.98418,35.5707
92.7023,-80.0348,74.2662,23.715,51.459,65.8042,-12.1699,-129.417,203.884,-46.2114,-19.0124,0.715471
92.7258,-72.1933,81.6173,22.793,89.6639,61.2698,-143.945,-85.774,155.564,-87.0574,-30.7288,29.9614
92.8398,-67.2847,87.3572,9.21459,76.0269,79.9139,-224.169,-67.3381,177.488,-73.3229,-11.5178,25.5138
92.8478,-85.3673,82.6933,6.1063,54.589,74.9652,-16.7622,-138.232,201.189,-50.9441,-12.2162,-6.67557
92.8868,-94.3799,97.7741,3.1446,99.1658,48.32,-62.5867,-192.812,137.776,-98.4251,-42.315,11.6007
92.8931,-87.1411,77.5859,33.45,82.0802,74.8541,9.88748,-179.242,162.736,-79.2209,-16.5034,20.2297
92.9378,-60.6928,75.5261,25.014,53.721,71.8581,-205.011,-47.3682,208.1,-48.8074,-16.8988,27.7063
93.0128,-74.3883,98.7218,-6.37198,50.186,56.581,-222.295,-122.65,209.516,-41.5353,-24.9539,-7.34899
93.0329,-75.7038,72.5869,9.82542,53.241,74.6638,-28.9384,-75.2179,207.613,-49.2869,-12.3888,-3.91273
93.1291,-97.2659,77.5097,49.423,65.818,63.097,74.442,-291.549,180.862,-60.2612,-25.5785,15.8319
93.1618,-96.6603,95.8822,24.477,57.259,82.5781,-47.3654,-257.383,194.349,-54.3698,-7.52996,18.3606
93.2328,-62.2547,86.7,0.738949,79.3552,67.809,-266.243,-35.9581,178.87,-75.4643,-23.319,18.4358
93.5142,-84.8172,83.6908,0.013382,79.526,51.593,-21.9533,-112.213,175.49,-72.3183,-37.4782,-12.5042
93.5898,-97.2647,95.3218,31.058,73.5609,48.016,-46.6765,-264.275,175.222,-63.8426,-41.1418,11.1948
93.6287,-68.8478,92.3889,-3.5267,70.4709,94.1192,-235.799,-72.0535,192.84,-67.4557,2.37921,20.579
93.9158,-96.1818,87.0781,45.731,72.7868,41.94,1.12009,-278.528,177.235,-59.8444,-46.72,13.9628
93.9439,-79.9242,98.5252,-9.17231,87.8092,98.2668,-173.495,-113.121,168.298,-84.1119,7.10156,9.41927
93.9651,-92.3631,71.7011,49.298,63.1829,53.907,84.3321,-259.858,191.364,-53.6234,-32.5968,7.43644
94.027,-71.3963,93.8688,13.089,86.1001,85.844,-232.272,-115.259,171.61,-83.1827,-6.85285,34.1814
94.2137,-79.703,73.958,-6.39008,80.7269,69.8338,22.279,-62.2249,183.658,-76.0059,-19.2005,-17.6012
94.3341,-91.8532,79.5718,19.216,88.9918,75.6511,44.7456,-186.898,163.247,-84.6387,-15.3447,4.9686
94.3782,-80.6278,82.5712,31.688,46.592,58.7431,-66.2967,-172.44,220.763,-37.5317,-23.2053,8.48325
94.585,-97.3048,78.5032,32.166,76.9322,41.569,77.2202,-255.12,177.013,-64.2183,-46.9437,-6.2934
94.7477,-76.9522,76.1702,34.344,53.271,98.8593,-56.4259,-140.973,218.903,-49.6498,3.83952,38.3315
95.103,-82.5031,81.3921,7.89702,57.221,91.2023,-33.0566,-127.823,218.45,-52.4819,0.0990375,6.65312
95.1952,-82.279,76.0779,19.399,79.4641,62.889,-7.05063,-125.976,189.466,-72.5087,-27.6386,4.54951
95.2032,-69.6722,70.4102,25.761,76.3919,49.981,-87.3225,-61.5492,200.02,-65.9612,-40.2672,10.4547
95.4072,-60.4018,92.4588,17.285,76.016,90.3039,-320.869,-107.592,199.459,-72.7326,-4.08465,48.9194
95.4599,-98.72,93.6717,17.385,82.6251,91.7231,-15.6462,-243.719,176.226,-77.5992,0.0819906,11.9069
95.5052,-81.3302,90.5468,44.773,75.1709,47.566,-123.011,-209.076,190.854,-64.6157,-44.4172,36.8715
95.6049,-98.017,92.4009,24.607,63.9518,95.6118,-14.8101,-262.436,201.261,-59.0878,2.73855,20.9272
95.6358,-71.2662,97.1542,27.423,90.9232,67.8972,-252.101,-165.883,174.103,-87.2656,-27.3384,51.5833
95.7802,-73.2698,71.1711,-3.7772,96.254,85.962,-24.4264,-24.5529,180.701,-90.6809,-3.98071,-6.36537
95.9349,-72.7639,78.0712,11.678,50.526,94.7323,-99.7782,-86.7645,238.197,-45.0887,1.29683,19.1757
96.0541,-65.7498,82.0888,-6.7487,68.795,48.332,-188.53,-24.1503,223.792,-54.4804,-37.5788,-13.8935
96.1887,-96.921,96.5268,-0.84772,66.9639,85.2298,-28.1886,-215.689,206.299,-61.0157,-4.37581,-4.31771
96.2323,-71.956,95.6232,-5.98323,76.7689,61.3913,-227.87,-94.253,207.187,-67.979,-29.1041,6.17658
96.3411,-73.982,71.6083,25.72,94.5059,78.6522,-55.1309,-84.1811,182.671,-88.9925,-14.3836,22.2803
96.4259,-72.839,74.555,3.823,66.1801,64.448,-67.2505,-53.2546,227.366,-57.0442,-22.8277,-8.74962
96.5308,-78.8928,73.6062,4.8012,50.356,50.054,-0.932279,-102.656,242.042,-36.1861,-26.7327,-32.1255
96.5348,-78.4351,83.3808,-8.90932,71.9131,75.4591,-66.3403,-75.2863,218.283,-64.8109,-13.1585,-10.8526
96.6878,-90.3721,93.4047,20.609,71.9572,78.5651,-73.9719,-212.376,203.559,-65.5087,-13.4489,17.7603
96.6918,-81.1371,92.2708,33.048,49.112,93.1022,-127.541,-209.219,232.88,-44.5445,-2.8651,45.2177
96.7153,-83.449,78.7278,30.134,94.848,45.331,-26.2365,-158.895,176.958,-88.2787,-48.0779,23.3745
96.8132,-98.7642,77.4587,13.672,99.713,54.213,119.648,-237.546,160.86,-93.897,-35.4297,-5.99455
96.8322,-80.9372,71.4352,44.186,80.52,81.3657,0.0182558,-168.104,197.557,-74.9974,-12.5984,31.4111
96.9347,-62.0278,80.0588,23.59,62.4312,95.7687,-225.454,-74.4936,235.531,-57.6186,-0.100065,43.588
97.0338,-75.9438,71.496,36.978,74.9377,82.326,-40.2845,-126.004,212.383,-69.089,-11.3234,28.7364
97.0522,-81.3399,88.9591,6.61972,60.875,61.6279,-101.436,-139.708,230.262,-49.9365,-24.555,-4.39314
97.1072,-77.7819,83.174,7.86768,49.917,67.1948,-88.3411,-121.087,246.066,-40.1653,-17.1557,-4.91402
97.1542,-72.8539,90.4471,42.353,87.3841,89.3442,-191.429,-174.791,190.157,-84.0161,-7.10795,59.7019
97.1708,-93.8539,88.1037,1.5947,79.6961,97.2458,15.0702,-186.841,199.281,-72.8831,7.04657,-2.65075
97.1748,-86.0909,86.6719,8.21971,85.7443,45.678,-46.1294,-147.212,195.792,-73.9765,-44.7877,-2.98928
97.3598,-86.2221,92.0302,19.139,58.0108,66.199,-91.0501,-198.287,228.911,-48.0302,-21.6115,8.22637
97.5329,-91.4693,81.0489,32.054,97.7002,43.095,17.9109,-217.534,171.75,-91.1973,-50.1814,21.6979
97.5598,-99.2168,90.5227,15.996,71.9371,55.778,14.7158,-252.566,204.535,-59.7858,-31.776,-9.91853
97.6733,-81.0552,70.927,10.799,97.035,84.4901,33.4384,-102.428,189.091,-89.4226,-6.16537,0.109478
97.6819,-91.2533,93.1818,-4.9676,64.2309,67.4388,-38.6236,-178.848,226.06,-54.5868,-18.576,-16.6056
97.7088,-74.072,86.0697,5.5149,65.4541,91.6062,-145.844,-97.3371,235.912,-58.3249,-1.32948,17.3499
97.7907,-89.4089,77.9853,11.189,94.5461,65.1178,48.7057,-164.252,185.538,-86.6226,-25.2898,-2.27895
97.8732,-78.9032,74.3739,2.2541,91.6658,96.6952,-2.90734,-78.0879,202.38,-83.9848,6.45168,-2.18144
98.009,-76.6371,74.0239,33.174,91.8228,65.9188,-52.2438,-123.591,197.274,-84.4586,-28.5336,27.2781
98.1528,-75.7032,89.2061,-5.8016,63.9461,66.2769,-143.656,-95.6477,242.637,-53.2331,-20.7748,-7.14658
98.2869,-64.7247,91.208,0.928461,71.0193,51.031,-270.42,-83.8591,236.682,-55.3409,-38.3838,5.06575
98.3408,-62.9532,86.6587,2.4295,64.0532,84.7708,-256.34,-65.9627,248.949,-56.3558,-8.50611,21.8731
98.39,-74.4587,78.9473,-7.44037,45.862,50.754,-72.9721,-79.0938,268.564,-30.8046,-22.4289,-36.7028
98.4788,-70.3478,94.7792,9.91979,55.507,78.3737,-238.663,-141.876,249.643,-46.4915,-14.3168,25.4815
98.48,-65.6638,97.1547,-0.788871,88.1341,74.398,-300.709,-105.822,211.043,-80.399,-20.2751,26.7529
98.5241,-65.9709,74.9068,14.404,78.5388,84.6918,-150.996,-44.743,233.578,-70.822,-8.81465,20.4036
98.5722,-71.4209,84.9037,3.9854,78.195,45.616,-163.17,-76.1415,230.042,-61.781,-43.8877,-2.80984
98.5957,-93.1549,73.5449,27.556,81.7233,96.7789,91.1202,-226.43,201.386,-73.6716,4.97423,9.04667
98.8152,-72.831,70.672,25.242,74.2542,79.7042,-57.6942,-90.1153,235.235,-65.9416,-13.2034,17.8445
98.8238,-77.5521,86.1992,3.0681,60.8137,73.5288,-111.58,-115.619,249.933,-50.7476,-15.019,0.275156
98.9212,-77.2863,83.834,39.728,70.7597,95.1729,-112.292,-174.732,228.137,-65.1821,-2.0327,47.4075
98.9681,-97.6119,85.4011,16.747,89.2611,47.089,43.3677,-237.447,191.644,-76.8256,-43.335,-5.07505
99.1469,-80.4169,98.527,-8.88319,94.699,89.6329,-169.168,-129.184,203.352,-85.9189,-2.26825,8.25267
99.1899,-66.6602,80.7882,7.19721,98.7859,52.464,-182.611,-48.8679,210.633,-90.267,-41.4561,20.3471
99.5188,-65.3819,71.0972,41.849,97.4412,75.56,-136.587,-87.7525,209.232,-91.2488,-22.0547,46.8491
