vnguyen43/Hybrid_Robot_Kinematic_Model/Robot Poses/Data_UR10_1000.csv
q1 (deg),q2 (deg),q3 (deg),q4 (deg),q5 (deg),q6 (deg),x (mm),y (mm),z (mm),r_x (deg),r_y (deg),r_z (deg)
60.0259,-65.0021,83.5848,42.851,61.2452,43.133,-135.504,-24.0254,-122.369,-76.6093,-19.2177,46.5482
60.0941,-83.7429,79.3907,40.2,85.0527,91.9798,122.229,-124.247,-105.703,-109.971,19.1644,31.0566
60.1119,-66.9828,72.1211,38.398,53.096,65.991,-3.89397,19.7067,-134.339,-76.0913,-2.63752,32.7562
60.1422,-88.7729,98.6152,15.457,40.2,99.6769,3.48763,-147.123,-19.4795,-66.2978,21.8933,25.5106
60.1548,-77.296,88.1599,1.2362,90.9089,75.9668,-25.0873,-25.1086,-172.451,-120.213,-5.72171,17.2876
60.1852,-92.4542,76.181,48.364,75.9329,59.6758,244.717,-210.266,-38.6643,-101.024,-14.2833,33.8829
60.1921,-78.8631,92.5722,0.28615,87.627,85.4297,-51.8415,-45.7361,-153.912,-116.644,3.33064,13.8502
60.2408,-83.3997,74.5452,8.0241,85.3759,60.6109,199.321,-50.1695,-147.501,-117.303,-26.4427,12.2615
60.305,-96.3039,78.4872,13.085,79.554,66.6728,294.184,-177.847,-62.3706,-110.263,-23.995,3.43132
60.3118,-94.581,75.2849,0.28512,42.053,52.511,329.018,-144.947,-22.089,-62.7167,-43.3166,-33.4778
60.4568,-88.3272,80.1831,17.509,51.106,48.691,185.817,-106.336,-54.3164,-77.5592,-35.3677,-0.721376
60.4763,-75.9129,93.9507,45.641,63.411,45.466,-89.7737,-121.556,-63.3616,-77.6319,-16.9105,50.3637
60.5101,-79.636,90.5411,42.501,72.478,84.419,-26.9566,-122.595,-77.4436,-90.9011,18.1478,49.0141
60.5198,-66.851,73.5959,-3.2993,48.757,82.864,-5.63248,100.15,-167.735,-77.8486,-4.55951,0.768768
60.5611,-91.0768,83.029,3.7739,61.1191,65.284,201.409,-105.59,-68.604,-90.1093,-26.2518,-4.40354
60.5742,-70.1529,97.1318,19.791,61.715,63.8871,-203.268,-64.5793,-91.1473,-82.9699,-4.28598,38.3194
60.6161,-69.4602,89.6667,5.4708,49.25,91.2962,-139.801,8.83685,-113.755,-75.9936,14.2509,22.2056
60.6189,-65.5819,97.3169,20.928,59.7211,66.7393,-258.547,-57.0544,-91.6295,-79.4241,0.871533,43.6443
60.6218,-99.2689,84.3858,-6.5952,77.783,83.2181,294.673,-172.701,-58.5793,-105.425,-16.3991,-17.6438
60.6871,-62.0118,84.8161,10.077,67.6388,66.8722,-206.461,48.7483,-163.585,-92.3896,-7.11497,29.5262
60.7559,-61.063,73.334,29.953,79.5592,60.7089,-114.911,57.2338,-189.01,-101.062,-9.00784,43.3933
60.8401,-60.5519,78.847,14.062,64.8628,53.645,-170.885,76.2466,-172.325,-89.5096,-20.6086,27.7524
60.9048,-84.1572,73.1931,-0.67232,80.771,61.9138,240.632,-38.2695,-136.481,-111.859,-31.474,-0.317631
60.957,-69.737,94.5512,4.4388,77.7888,56.32,-192.645,-19.2192,-139.185,-103.564,-18.6222,32.86
60.9868,-84.195,91.5357,10.015,72.4591,97.8732,17.4803,-80.8489,-95.3007,-100.162,16.5538,13.4701
61.0739,-70.6858,77.5762,14.073,48.533,50.188,-4.57846,34.7018,-121.018,-73.7731,-27.789,7.42398
61.1271,-61.9562,74.119,-3.8163,70.5288,92.3201,-89.5422,128.7,-206.847,-98.6277,6.88224,6.37053
61.1609,-63.113,79.0321,24.312,80.9331,61.1799,-140.24,38.8632,-174.009,-102.661,-9.55138,42.2884
61.169,-94.5478,73.1782,25.591,74.3963,47.532,315.28,-184.111,-39.9587,-106.005,-38.8651,14.0737
61.1701,-77.4988,89.3952,9.58358,47.69,94.7632,-34.0618,-33.8755,-79.9218,-74.3128,15.4802,19.5989
61.173,-95.1918,71.575,39.245,55.175,55.591,325.831,-218.332,10.5331,-81.7231,-26.2183,8.48293
61.216,-97.2751,80.6369,41.66,50.753,69.5978,255.007,-236.101,27.6271,-76.8592,-7.71263,17.1469
61.2223,-69.2391,92.5579,6.51722,71.7618,95.9481,-179.417,-7.25815,-130.819,-97.7048,20.4655,25.2411
61.248,-99.8832,90.1732,7.72198,46.866,66.1371,204.792,-195.093,10.755,-74.0135,-23.3794,-8.84487
61.2732,-88.3822,73.1197,26.158,63.3961,46.938,251.7,-119.76,-55.5418,-91.2665,-37.334,10.0054
61.275,-75.1537,87.0048,18.776,89.3459,78.5611,-53.889,-41.5188,-143.153,-113.766,4.20325,31.494
61.283,-71.7561,90.3572,-5.4236,51.777,51.296,-111.136,20.8334,-114.162,-77.8878,-31.0545,3.2581
61.3397,-61.2211,89.111,44.325,50.217,41.02,-214.754,-35.3118,-80.0119,-61.3296,-15.628,45.8389
61.3621,-75.6379,86.6329,27.039,57.179,41.551,-36.0423,-48.1847,-83.0962,-78.7387,-30.0473,25.0154
61.3638,-90.992,75.2322,22.702,87.297,57.9088,259.495,-146.131,-81.8406,-117.709,-25.1925,20.3313
61.3781,-95.6891,76.3781,49.769,44.684,72.5599,284.658,-241.732,40.1054,-70.0958,-1.85736,20.8461
61.3913,-78.9209,84.6889,27.163,82.0137,74.5441,14.582,-67.4445,-113.984,-105.554,0.592577,33.3267
61.4279,-84.949,80.7888,30.599,67.2532,68.7693,128.32,-102.861,-68.724,-92.6072,-8.48033,24.1491
61.4749,-69.9799,84.4981,13.153,75.7181,74.19,-93.597,14.308,-146.457,-100.975,-2.10651,27.0997
61.5099,-75.4969,94.2762,13.333,77.2158,49.774,-118.977,-55.7188,-109.996,-102.068,-24.2905,36.0685
61.6898,-91.2848,82.071,-0.825879,41.372,89.9229,219.294,-103.32,-27.6247,-69.2911,-4.09877,-9.68928
61.6972,-98.2938,99.9101,9.49127,96.8872,88.0309,76.4041,-209.877,-60.0544,-124.531,3.95452,10.7262
61.719,-96.811,88.9769,15.839,85.0052,62.6581,177.242,-185.652,-51.3445,-114.068,-21.0189,17.647
61.7207,-74.8839,91.6881,9.89991,97.3851,42.092,-101.114,-46.6138,-149.09,-125.975,-27.5737,50.1474
61.7528,-91.1822,89.5413,7.0051,78.254,46.405,123.373,-119.644,-74.6775,-110.494,-38.6388,18.304
61.7631,-64.0418,76.4881,25.01,49.661,58.0011,-89.0753,53.1904,-121.431,-72.5432,-13.0867,23.66
61.8347,-70.1908,70.2068,16.76,94.2269,84.4139,56.2206,40.9767,-189.697,-120.8,3.5048,17.4575
61.8468,-89.3889,92.0881,25.012,67.5632,58.2612,62.039,-145.455,-40.5933,-92.4808,-18.5349,25.6685
61.911,-86.28,72.325,28.985,80.814,87.529,231.135,-108.615,-83.6574,-107.102,5.01565,13.8338
61.9511,-82.098,92.7177,23.115,71.6742,86.6811,-25.5188,-98.5123,-71.1735,-95.2956,12.2781,30.2938
62.0261,-82.9798,99.4597,18.423,48.566,57.8561,-70.1966,-119.633,-22.8587,-71.8406,-14.3611,21.0003
62.0582,-71.3361,87.7439,-1.6752,88.6079,95.7229,-98.7235,20.8782,-164.312,-116.216,12.5424,9.95286
62.088,-83.037,76.5901,48.586,74.2152,94.5478,144.664,-122.594,-61.924,-95.5971,23.2336,37.7849
62.1069,-62.4341,83.5493,26.808,51.194,82.1341,-175.588,25.4154,-102.664,-71.172,13.6331,40.8354
62.1579,-91.0378,84.5571,15.903,64.4068,83.6249,167.802,-125.026,-42.8819,-91.4976,-1.48473,7.98123
62.159,-91.3409,95.5178,32.237,65.0152,48.727,46.4593,-182.645,-12.7796,-87.2646,-24.6978,30.662
62.182,-83.9681,74.0422,15.322,64.8898,66.6739,202.483,-55.1538,-81.1427,-92.1398,-20.2384,5.13301
62.3848,-94.1393,88.9362,-2.9778,90.2953,63.945,179.766,-131.457,-82.5256,-120.267,-26.2875,5.44223
62.4278,-70.8921,72.9398,27.647,66.9662,62.0129,33.9963,22.6996,-121.725,-90.731,-14.2008,26.5373
62.4421,-89.453,86.9572,-5.515,52.314,64.7242,151.532,-77.0299,-46.5589,-78.0775,-27.8441,-12.95
62.4822,-84.0689,86.771,-1.8752,44.135,79.9757,84.1495,-43.9946,-52.0392,-71.424,-8.36106,-3.14944
62.5601,-97.6148,86.516,34.812,71.3092,82.2212,194.518,-223.547,2.04078,-96.0937,3.27009,21.8282
62.5653,-80.1522,87.5531,43.393,58.4749,67.8267,14.2503,-109.144,-36.6602,-77.0895,-0.186643,41.469
62.6031,-80.3178,73.2039,20.142,82.2469,75.9152,158.712,-35.8598,-115.068,-108.187,-6.97555,15.8267
62.6988,-82.593,78.0838,14.515,66.2459,42.386,141.656,-43.7339,-81.9252,-93.5068,-42.4423,11.0106
62.7429,-66.148,70.8182,-2.4991,69.6338,84.2431,12.2398,120.995,-172.619,-96.4317,-4.10947,2.08083
62.7589,-93.6918,92.8891,9.64351,90.097,82.554,108.816,-154.123,-65.1671,-116.128,-2.27374,11.0014
62.771,-80.3539,81.9398,12.122,50.289,81.4643,76.7732,-30.0986,-63.3393,-76.6239,-1.37322,9.75912
62.8088,-99.0392,76.7958,14.457,61.864,83.9332,336.059,-203.784,9.53724,-88.3977,-9.08588,-7.74121
62.83,-79.4022,83.3808,29.978,67.4738,81.1159,36.7207,-63.7757,-71.183,-90.0565,6.35898,30.3181
62.838,-82.432,99.0718,36.618,48.007,99.6408,-62.0438,-150.707,3.76223,-62.5158,30.6783,54.219
62.8472,-62.453,87.945,7.60218,61.931,47.022,-226.413,43.4766,-116.628,-84.1846,-27.6785,25.1987
62.8581,-74.5922,76.7248,4.7737,43.662,46.304,65.101,33.3095,-86.4409,-65.2933,-36.8211,-11.3096
62.9343,-62.2731,77.4679,-3.5776,83.5561,83.4547,-122.45,115.77,-190.21,-110.182,-0.250963,12.0073
62.9812,-99.6248,94.8039,29.357,57.3909,41.455,132.545,-234.706,34.6278,-80.0158,-36.6502,14.0325
63.0202,-90.9198,87.6138,11.511,60.2093,40.875,138.217,-117.718,-29.5147,-84.9108,-44.7759,2.98023
63.0339,-89.8083,86.4863,20.077,92.013,40.519,126.015,-135.583,-75.0813,-123.944,-35.516,39.9164
63.0391,-83.3539,82.9752,40.203,53.682,48.027,94.0064,-111.571,-22.6605,-73.7403,-23.1336,24.796
63.0729,-82.53,97.086,25.742,59.8311,87.0793,-57.857,-119.856,-26.2786,-80.8628,14.7003,35.9281
63.1268,-90.2861,90.5508,35.391,48.549,63.5828,94.3637,-169.513,15.2765,-70.8838,-9.17549,23.3194
63.1422,-80.021,92.822,12.62,43.464,54.799,-36.8129,-64.4703,-31.0476,-66.7085,-20.6408,8.94852
63.1503,-63.3032,92.213,14.985,70.283,64.3122,-255.13,-1.92784,-102.015,-89.8334,-6.86726,39.8756
63.2448,-79.1982,91.0968,-6.71249,85.6927,51.286,-22.2537,-16.0615,-121.632,-116.362,-32.7361,20.2638
63.3262,-81.2993,96.2059,3.0675,41.316,78.965,-52.0568,-66.4744,-25.0098,-66.9288,-1.4191,11.1351
63.333,-88.8491,95.8501,7.06749,54.928,48.943,30.5748,-112.17,-20.0934,-78.7521,-33.5399,4.66683
63.3531,-71.1298,77.0451,9.34758,87.1039,78.3588,2.59913,44.9486,-153.508,-112.31,-3.48036,17.8279
63.3772,-72.6648,81.6482,47.25,68.9601,47.622,-22.2028,-55.1755,-70.9238,-83.7446,-19.9785,48.0766
63.3857,-90.9341,81.8762,36.289,44.897,43.622,188.566,-166.145,20.8983,-65.387,-30.6211,6.26767
63.4161,-74.2078,92.1648,12.503,56.738,52.781,-107.321,-29.0113,-63.3589,-79.0522,-22.8754,20.1846
63.4213,-78.6367,92.7802,39.772,45.491,77.3682,-41.9079,-110.494,-6.90542,-63.2551,10.7918,43.9124
63.4763,-89.2112,81.6092,43.38,57.537,40.518,167.471,-162.857,2.67724,-77.2031,-33.0255,22.3593
63.498,-84.9903,79.77,-9.46618,85.581,77.0141,191.16,-28.5857,-112.221,-111.534,-18.0367,-8.86021
63.5691,-79.8709,83.5069,6.77798,98.0021,93.9731,53.51,-31.7464,-131.531,-124.109,8.43144,6.83994
63.635,-85.5122,94.8732,-6.59108,73.4721,78.0242,15.6955,-60.6967,-72.1082,-99.6757,-10.0258,4.0404
63.6751,-89.8501,87.9112,-5.99938,65.5292,52.511,147.439,-76.5951,-50.7152,-91.6064,-40.4248,-6.80651
63.6957,-88.5059,92.4301,44.632,61.2773,98.2829,54.603,-179.611,8.24519,-78.4277,27.9819,46.7296
63.7662,-72.7828,91.5409,26.307,53.329,99.5961,-114.055,-48.6044,-43.617,-70.7528,27.9687,44.6034
63.7799,-81.2362,70.067,1.9494,74.834,88.5168,233.815,-3.65187,-101.808,-100.296,-4.92572,-8.64327
63.8579,-79.1003,71.7819,38.669,51.263,89.8679,156.362,-57.3065,-36.5889,-73.5064,13.6741,28.1265
63.8687,-78.4563,88.1501,12.542,57.106,90.4649,-14.1877,-32.4153,-56.1075,-81.3101,10.7175,19.559
63.8848,-67.0252,86.8558,23.108,43.02,74.8122,-138.871,2.64971,-53.7461,-63.8181,4.79926,32.0189
63.902,-73.3392,75.313,37.024,67.2337,51.626,41.6848,-15.8613,-80.321,-87.2214,-21.8054,33.5878
63.9919,-86.7727,99.8849,22.002,81.9828,66.8338,-47.3313,-150.593,-37.2977,-102.938,-7.63865,36.9098
64.0842,-76.9322,92.378,27.781,50.236,78.9341,-69.8469,-74.6769,-22.4445,-70.2777,7.76172,35.5421
64.1088,-76.8571,72.3078,20.567,52.528,74.2588,128.85,-0.513348,-62.6634,-77.0422,-7.74618,10.4473
64.1472,-99.5463,92.076,-0.843027,96.8448,54.998,195.002,-185.649,-45.846,-128.307,-32.073,13.4846
64.193,-72.0941,81.3881,24.448,90.69,78.3119,-39.1275,-8.33666,-119.919,-112.257,3.87588,34.9556
64.2223,-66.5198,72.8441,31.092,65.4593,43.812,-26.1709,47.7059,-103.639,-85.1078,-30.2178,30.3269
64.2492,-65.6421,94.3931,19.508,44.558,58.2308,-223.965,-27.1156,-35.7213,-63.1678,-8.70637,30.0612
64.2658,-89.2382,93.6809,19.541,50.494,78.0002,52.2359,-134.483,8.28714,-74.2143,-0.757945,17.9588
64.2698,-70.4538,70.6159,17.024,74.563,53.776,56.8843,58.3118,-123.612,-99.7002,-27.8733,20.7291
64.4039,-93.8539,82.4268,18.784,85.4039,50.546,216.194,-157.649,-36.0555,-114.316,-33.1523,21.5703
64.4388,-86.7269,79.9202,6.48898,61.244,78.6253,182.328,-62.0617,-41.0212,-86.3985,-10.8332,-1.5942
64.4451,-93.3102,92.276,43.767,75.698,59.5481,94.5992,-215.429,9.62366,-94.3198,-13.0592,41.5406
64.4469,-64.4148,77.7991,21.829,59.799,47.214,-102.682,61.8962,-97.7246,-79.6162,-27.1638,24.4846
64.448,-74.4272,71.1172,30.027,41.991,44.033,110.903,-3.08598,-42.7739,-61.2945,-29.4856,3.32497
64.558,-97.7271,72.1067,22.271,54.632,53.639,361.113,-211.498,42.0348,-77.4055,-36.5317,-11.7493
64.5872,-90.7691,97.1421,31.406,65.4238,76.263,24.5099,-179.268,11.2181,-85.8105,2.03522,33.2864
64.6841,-81.2099,99.8602,41.499,52.414,59.4048,-79.9552,-156.613,21.003,-66.784,-5.74839,44.512
64.6972,-83.7217,98.708,16.792,49.117,97.4532,-55.531,-113.069,5.37152,-70.107,20.7698,31.2209
64.703,-89.2399,72.215,23.794,81.7181,78.0002,272.23,-122.105,-43.3098,-106.295,-8.20497,9.20592
64.7603,-72.1617,78.9198,45.34,71.2078,68.2662,-5.7163,-36.3991,-64.6458,-86.9001,-1.64304,47.2076
64.7671,-62.732,71.2398,21.681,60.2001,41.078,-62.6543,96.415,-109.964,-79.9686,-35.4058,19.3689
64.8359,-64.5368,75.6213,6.69272,83.4158,56.09,-77.8409,99.3743,-148.82,-108.544,-24.351,25.8736
64.9213,-94.9821,85.0562,23.282,60.9432,86.6811,196.376,-171.87,17.9057,-84.9422,2.7884,11.3709
64.9402,-66.584,77.3229,48.113,62.6008,49.006,-56.3269,-2.92293,-64.1425,-75.5647,-18.2109,45.7118
65.0129,-74.335,91.2831,11.443,85.0069,64.5231,-104.447,-25.4645,-89.4361,-106.82,-12.3974,32.7788
65.0261,-96.87,92.5871,37.543,51.184,42.994,133.717,-227.485,59.7065,-69.6311,-30.7381,15.0504
65.0531,-86.924,97.361,19.313,77.8609,77.0009,-19.1,-131.365,-26.7988,-99.2331,-0.300752,28.9712
65.178,-63.5811,72.4018,34.555,67.2372,88.4693,-63.7284,59.7956,-96.8632,-85.8976,16.0013,39.9187
65.1808,-95.0652,91.8709,15.455,79.2349,79.1747,128.17,-165.153,-12.373,-103.054,-4.99772,13.2502
65.1957,-68.779,71.5401,43.667,64.083,66.1932,21.7736,12.4866,-70.0275,-81.4701,-5.33941,39.3149
65.2353,-61.7849,76.6669,-9.52359,48.082,49.066,-110.738,143.078,-106.465,-68.6486,-35.6167,-9.66355
65.2393,-81.0311,91.0172,-0.666843,54.618,77.3121,-2.11279,-28.5899,-35.4937,-78.9067,-7.82877,5.4762
65.2731,-98.7418,94.3851,-5.91831,81.1709,68.1619,169.269,-160.264,-17.4037,-106.697,-24.8488,-3.62715
65.2788,-60.2522,79.4738,-8.84458,59.316,49.39,-166.449,138.712,-119.467,-81.9111,-35.2327,3.43148
65.2948,-80.076,83.1098,18.423,59.4919,78.9089,54.2671,-36.9797,-38.3052,-82.325,-1.56731,17.5847
65.3269,-91.7609,97.7369,-0.1661,68.5647,75.3021,47.4264,-118.925,-14.107,-92.9271,-11.6919,5.55453
65.339,-78.5428,99.1142,24.8,64.6388,83.1579,-122.872,-106.322,-12.5835,-82.4834,11.0987,40.9356
65.3739,-76.9402,87.7869,0.32485,59.1699,86.5097,-21.3291,6.51962,-56.619,-83.201,1.83662,9.12865
65.4192,-67.3609,80.6513,35.073,57.8808,88.3312,-82.918,10.0096,-55.3245,-74.4663,17.1137,44.4698
65.4398,-88.8692,90.8969,18.104,87.7221,42.07,69.7742,-125.129,-42.8043,-115.063,-36.0733,36.5221
65.4621,-77.0141,75.4219,-1.0674,83.5109,63.8699,119.03,37.0466,-110.441,-109.437,-25.3566,5.72923
65.4919,-79.8898,78.3228,39.878,98.4359,60.5009,88.3559,-88.3438,-78.4963,-117.139,-11.1183,48.6362
65.5452,-86.9939,94.7741,39.779,70.3082,65.7538,10.3176,-166.491,7.61451,-86.9736,-6.00972,42.8228
65.6747,-85.2429,82.436,26.987,73.723,99.6551,114.477,-93.0062,-30.4972,-95.8078,19.7691,20.9579
65.7458,-73.5059,90.6683,21.376,44.962,75.945,-93.4081,-36.1396,-11.7883,-65.0433,2.95241,29.0593
65.7979,-81.9943,73.1449,4.4543,80.8019,68.2461,203.674,-11.7877,-78.6207,-105.568,-22.2808,1.43556
65.822,-91.6429,78.8218,25.437,97.2808,62.1401,223.959,-154.994,-41.9494,-121.727,-18.4943,25.8459
65.8288,-98.0061,91.3787,22.819,85.8102,65.6237,153.86,-206.816,2.18789,-109.214,-16.1824,22.3671
65.8598,-72.8012,81.7021,41.655,51.163,70.4429,-13.2592,-36.7804,-18.5663,-67.8216,1.01224,39.5584
65.9131,-77.6129,73.6148,22.359,97.6549,95.8472,116.473,-20.1983,-102.535,-120.88,12.9119,13.5576
65.9681,-98.048,93.6242,7.62653,91.4819,95.4628,147.755,-181.51,-17.8831,-114.974,6.69892,0.298921
65.979,-72.8172,80.6341,-0.14252,91.4418,49.437,-1.78996,49.6226,-121.659,-119.849,-32.7419,25.4425
65.9841,-94.0842,82.6308,-1.4631,49.942,77.029,246.293,-120.513,21.7468,-72.6144,-16.9375,-16.288
65.995,-82.1931,82.6331,13.888,63.6052,82.0493,87.9408,-39.9469,-33.7489,-86.5805,-1.5262,12.1704
66.0168,-65.8781,87.419,38.647,63.7077,61.487,-161.482,-22.5875,-40.4518,-76.0023,-6.43,50.8704
66.0552,-94.0808,81.6121,23.176,66.6768,65.7068,223.433,-161.283,16.1229,-89.5977,-19.5119,9.17721
66.0953,-86.355,96.0082,22.959,40.204,82.9379,4.62874,-133.308,41.6853,-60.9769,7.21145,26.1096
66.113,-73.6182,80.3499,10.767,41.94,42.204,10.6457,24.4079,-30.8353,-58.7975,-34.8542,-7.23052
66.1182,-98.5992,77.2381,37.41,82.365,57.3857,295.521,-243.352,27.0355,-106.058,-24.7634,23.1099
66.2093,-78.2231,73.9608,9.57057,53.194,53.877,138.149,12.5979,-39.2486,-74.1495,-32.0833,-5.06028
66.2717,-96.9359,91.353,2.8267,82.6933,92.9441,170.637,-155.705,-10.7022,-106.053,2.1804,-3.80979
66.3382,-75.2769,72.5112,18.613,65.288,99.3858,103.961,22.6303,-59.8121,-87.5758,16.3119,14.5052
66.4173,-63.199,91.5541,-1.8505,92.3012,43.146,-252.163,39.5789,-111.032,-117.02,-31.9289,43.8813
66.4872,-63.36,90.5107,32.814,48.415,54.465,-212.407,-19.0145,-13.5699,-61.3993,-10.464,39.9344
66.4877,-71.0193,89.6639,28.57,41.856,64.6652,-108.096,-35.4342,1.09647,-59.1337,-4.07138,30.8702
66.5038,-81.1629,79.9631,40.593,77.0428,92.8197,88.8306,-87.6078,-28.02,-95.2369,17.8057,36.3235
66.5152,-93.9989,88.848,14.678,40.016,95.712,157.846,-156.724,56.559,-62.8359,9.62158,10.9148
66.5193,-61.8663,70.0109,40.143,81.682,70.7912,-68.267,63.4729,-101.82,-96.7675,-1.44277,47.6957
66.5949,-73.986,83.0388,32.588,81.5749,48.559,-29.9798,-32.4256,-58.5015,-99.2329,-25.2576,44.8684
66.6258,-81.5628,73.5248,-2.5136,55.437,69.3342,203.961,6.26339,-34.0332,-77.2528,-23.6277,-14.7396
66.6401,-69.859,72.545,-8.33487,68.4369,59.3727,59.6045,115.76,-101.43,-91.6031,-32.1091,-4.89443
66.6487,-68.4902,78.0592,11.627,87.58,44.761,-49.0703,62.5762,-109.865,-112.604,-33.8732,35.0102
66.6711,-75.9811,93.1652,34.761,59.5091,78.4797,-90.0302,-84.9042,1.78137,-74.7988,7.76064,45.4463
66.6762,-93.2202,86.7252,25.914,46.238,81.6723,163.968,-166.842,55.0891,-68.3228,0.451721,14.2479
66.7169,-98.0187,89.0697,33.251,91.0212,52.222,169.776,-230.433,12.1771,-113.869,-25.4101,36.6744
66.7479,-72.1721,73.5901,36.459,93.0271,62.9537,38.6714,-6.81176,-87.9505,-110.867,-10.993,44.5862
66.7599,-69.1211,85.9362,-0.865963,96.14,93.1251,-112.024,48.4384,-116.688,-118.935,9.59616,12.6624
66.7679,-68.4948,83.1327,10.6,57.26,90.623,-93.985,50.1538,-52.3535,-78.2485,11.0438,22.7998
66.847,-76.6812,84.054,21.671,82.334,72.1039,-4.90472,-25.5796,-59.2204,-102.095,-6.0155,30.285
66.945,-73.8262,76.4841,16.501,66.6883,72.7141,42.8865,30.7494,-56.3855,-88.0504,-9.26058,16.6203
67.0613,-83.6071,84.6511,-7.97849,86.4393,85.9419,112.45,-15.7496,-68.3241,-108.787,-6.00421,-5.48816
67.1971,-65.567,81.3652,20.085,91.4991,44.817,-128.464,42.1247,-98.891,-111.809,-28.9366,49.0075
67.2738,-74.5687,93.458,32.668,50.431,93.0449,-103.42,-74.8024,17.9691,-64.2654,21.0167,50.1017
67.3168,-77.9079,79.5231,24.484,71.4782,57.4281,58.4622,-22.818,-35.893,-91.5354,-22.2488,24.6383
67.3397,-80.606,79.4927,37.681,72.584,64.3821,87.9898,-73.3099,-16.2558,-90.5002,-11.9082,34.0766
67.3558,-89.7418,82.9792,11.969,91.3828,76.652,174.048,-104.602,-35.2934,-113.576,-9.77773,9.96421
67.3701,-74.8827,77.5349,46.334,56.468,56.254,49.3096,-45.8899,-2.69091,-71.0883,-14.7651,35.4498
67.3999,-86.551,72.8138,38.999,80.0703,98.9681,221.51,-122.791,-7.75123,-100.25,18.6218,21.7316
67.4749,-76.2257,83.2519,17.282,47.331,68.7079,10.3048,-9.82262,-3.24096,-67.6734,-9.88503,14.021
67.495,-72.1451,99.9582,-2.2765,54.73,73.6617,-201.892,-26.5088,-5.19589,-75.3683,-5.47183,18.6802
67.5282,-85.7151,74.249,-0.687589,89.8008,62.5068,248.247,-40.1619,-57.9455,-114.314,-29.4535,-0.471111
67.558,-78.7863,75.8871,10.542,81.9771,59.449,120.366,5.97976,-62.647,-105.29,-26.1033,14.4137
67.703,-76.5409,86.6553,0.0852,40.539,75.262,-10.2469,8.56052,0.460389,-62.264,-8.36644,2.19661
67.75,-83.5092,86.076,-8.45961,66.0993,52.936,94.5337,-11.2025,-26.478,-87.3397,-38.5886,-7.71959
67.774,-86.2307,75.2591,12.367,73.2693,79.2532,219.94,-61.3556,-17.299,-95.0494,-9.57451,1.78867
67.7912,-84.128,80.5229,11.748,67.0189,71.7143,136.615,-44.4822,-13.4642,-88.4953,-14.5635,6.64864
67.864,-82.3971,91.891,-4.0546,50.263,72.4058,9.34743,-31.7285,7.23724,-71.7746,-13.8899,-0.867819
67.8909,-73.6789,77.2273,20.527,50.282,64.6251,36.7811,19.2363,-13.4803,-69.8059,-14.334,13.3674
67.9121,-60.7077,77.728,14.439,73.393,53.979,-160.299,101.779,-81.361,-92.0636,-24.0099,29.992
67.9247,-79.4652,88.518,43.264,64.833,60.2689,-6.32667,-102.176,15.6835,-78.3392,-11.3537,43.5019
67.9488,-89.8398,95.178,18.899,95.5499,58.0068,33.7585,-146.75,-17.48,-116.616,-19.6841,36.1158
67.994,-86.5562,97.0361,10.183,70.6279,40.005,-13.3405,-102.041,7.3479,-91.1179,-41.8456,19.7014
67.9969,-65.7337,90.0048,21.901,71.8678,93.0243,-201.868,1.10928,-35.6827,-87.3651,19.5152,43.4827
68.1029,-83.5321,77.2072,28.16,43.377,55.651,159.085,-77.418,37.1114,-61.616,-21.9138,4.26625
68.1528,-70.8491,99.438,-4.2928,56.103,73.7202,-213.08,-13.8431,-3.44837,-76.1799,-6.20704,17.931
68.1579,-79.4102,90.5737,1.6269,71.2232,62.8649,-22.6999,-15.6065,-26.7101,-92.4136,-21.745,12.3945
68.2782,-90.3892,90.9639,42.137,63.2219,71.4748,84.4418,-181.904,54.3848,-79.3761,-3.18399,36.5173
68.2811,-82.6629,86.9773,-0.50741,55.392,84.6442,62.518,-23.0201,2.04066,-76.9378,-3.08335,1.76373
68.3647,-94.7111,86.767,15.251,42.242,70.114,185.985,-160.936,75.3568,-62.7588,-14.3615,-2.77934
68.3859,-98.2038,94.6228,10.209,45.594,53.746,138.208,-187.039,82.3386,-63.2602,-29.9494,-9.76934
68.496,-65.0869,77.5092,4.0551,63.1061,47.881,-83.7758,109.327,-58.8339,-81.9065,-35.0605,9.31503
68.5779,-65.4077,77.2748,20.347,65.469,45.831,-85.3721,72.41,-46.4502,-82.0647,-31.9774,24.1246
68.63,-72.792,94.53,22.449,42.417,85.4269,-134.025,-53.2997,36.225,-58.4187,11.7924,38.8117
68.6421,-76.1421,77.437,36.812,54.692,93.5772,62.7397,-32.2022,11.4498,-71.1114,17.0239,36.7061
68.6489,-77.4822,91.7758,18.074,71.6782,60.1588,-69.7335,-46.7038,-8.08113,-89.4417,-17.9949,29.5158
68.767,-68.5257,81.2248,13.208,51.174,73.7127,-72.6555,53.8779,-15.4271,-70.3038,-5.37797,18.0664
68.779,-90.6093,89.4588,29.8,83.4169,63.05,96.7465,-155.151,16.0956,-101.892,-16.0381,31.9414
68.787,-86.3568,82.1879,21.398,98.598,90.721,132.708,-97.0088,-33.0397,-118.787,7.21838,15.5412
68.791,-82.0281,94.9219,4.5998,40.511,41.851,-30.6733,-63.8093,44.3436,-54.0118,-34.2326,-10.2431
68.8581,-98.6903,87.6173,37.298,41.785,78.0838,203.383,-244.685,113.741,-61.0687,-0.61945,18.3708
68.8632,-96.2128,93.1228,44.554,81.3738,53.89,110.976,-241.374,54.0484,-97.0603,-21.835,43.3115
68.8701,-92.005,89.6112,-8.44861,56.393,73.1541,155.523,-88.3915,33.7891,-76.3996,-19.5888,-14.7417
68.952,-87.2162,92.8432,33.771,71.0198,90.6688,29.3501,-145.173,35.1079,-87.2021,14.2889,36.999
69.1067,-84.9037,85.919,30.111,83.166,76.1192,71.4616,-103.424,0.307545,-100.502,-2.60746,31.5722
69.1119,-90.1222,97.3238,14.439,54.003,46.624,24.544,-136.808,59.4438,-70.2336,-33.0959,6.28458
69.1371,-93.034,97.6813,33.371,51.872,48.918,48.5607,-200.679,87.0965,-66.4119,-24.884,20.0602
69.1589,-81.0609,92.0491,23.136,44.445,95.0399,-17.0756,-83.5903,51.9485,-61.1702,16.8266,34.1548
69.1852,-86.641,71.3968,1.9784,87.8671,58.6531,288.276,-52.3163,-27.7335,-111.122,-33.7421,-1.83588
69.1881,-83.1568,96.2048,19.844,52.911,71.8472,-39.7305,-101.917,48.5294,-70.5833,-5.28502,24.4578
69.2053,-74.6868,79.4498,41.935,86.5842,93.548,15.0304,-43.3951,-27.2146,-101.173,18.9488,43.6065
69.2122,-79.0561,82.7809,15.886,63.0001,51.341,45.8549,-17.4768,1.45093,-80.9045,-30.7803,12.2519
69.2351,-95.1167,94.31,6.51212,80.5762,76.5712,112.311,-147.747,23.0502,-101.029,-10.6619,7.53285
69.3909,-83.8168,72.7708,14.209,56.489,93.725,216.787,-41.3532,21.8502,-76.8482,5.48201,3.35239
69.4912,-94.0963,94.7071,29.231,43.684,86.8822,91.9855,-195.912,99.0004,-61.5859,7.98041,26.0881
69.494,-89.6221,92.4588,47.686,77.0141,91.0888,60.0577,-194,49.778,-90.1165,17.1243,48.2753
69.5038,-62.2679,97.4532,-5.96317,63.7931,72.5743,-310.971,24.4815,-10.4633,-81.8764,-6.48242,24.1101
69.5152,-93.1641,82.6119,2.3859,86.504,46.747,232.923,-114.588,2.86951,-112.752,-43.3627,7.44562
69.5668,-79.5369,75.6957,49.606,78.7897,54.493,112.645,-85.1766,5.65498,-92.5529,-20.7152,44.9779
69.5972,-66.3227,90.843,-1.6839,62.2519,81.1171,-196.538,51.2636,-17.3332,-81.1919,-0.204924,19.2956
69.5972,-74.8048,94.436,9.56249,98.3591,64.1529,-128.976,-37.9562,-43.929,-116.345,-13.1181,38.3038
69.5978,-75.462,89.665,38.406,64.1461,93.9989,-64.8113,-71.8967,25.9428,-76.7429,20.8712,51.399
69.6682,-78.2448,83.5521,11.661,50.758,85.3088,33.8121,-8.34297,21.6404,-70.1576,2.19792,13.7817
69.741,-89.3407,90.0369,19.386,44.978,84.097,93.3578,-126.581,73.9409,-64.1285,2.25137,15.7591
69.7461,-84.0288,94.3398,10.316,54.208,84.5932,-9.33147,-77.8427,44.1722,-73.2138,2.55436,17.343
69.7628,-66.6442,73.2521,22.4,71.901,83.064,-29.2275,78.0131,-40.6836,-89.3622,3.34949,26.7858
69.8218,-88.7712,89.9211,1.4262,41.833,56.219,101.703,-87.2405,63.9528,-57.764,-27.7546,-15.2992
69.843,-61.7161,85.2991,6.0875,62.9222,74.0118,-212.424,81.0276,-25.681,-80.4032,-5.13155,24.6381
69.859,-86.5138,92.3929,45.597,72.423,99.5039,30.4746,-166.72,50.9023,-85.2471,25.8459,50.3612
69.8808,-72.03,87.9462,12.651,71.0347,60.5679,-98.8367,12.3333,-12.7028,-88.4094,-19.2714,25.5346
69.9581,-96.136,79.7592,22.496,72.36,54.065,264.254,-179.719,55.9829,-91.9228,-33.331,6.35163
69.9942,-66.4688,71.4152,12.566,41.145,61.1357,2.44392,97.1353,-1.19518,-58.5641,-18.0817,1.38813
70.0028,-60.9661,76.1553,25.825,72.9077,59.877,-141.719,85.9977,-41.2682,-87.5929,-16.3974,37.1137
70.0063,-88.2418,87.9353,17.541,47.99,53.935,103.392,-107.77,66.258,-64.1912,-26.454,0.842391
70.0429,-78.914,91.2177,-7.35007,96.3131,58.6669,-26.4684,-3.16415,-47.9813,-118.937,-25.728,18.8894
70.0888,-91.4068,79.487,1.137,97.3438,41.765,251.78,-100.897,-14.1372,-128.639,-44.6905,17.7059
70.134,-94.6847,86.6908,1.5217,55.097,58.9362,202.688,-127.753,65.2457,-71.9893,-31.3049,-15.8441
70.1449,-66.3038,93.8711,-1.9451,73.3162,47.604,-228.454,33.4036,-20.1339,-91.0718,-33.267,24.3782
70.1707,-83.0623,70.3099,0.933652,75.1371,82.1238,256.98,-7.65647,-9.57042,-94.3172,-11.1739,-11.0224
70.2039,-73.8222,72.6969,6.14331,73.562,62.5968,94.563,66.5191,-33.0215,-93.1433,-24.9624,5.69404
70.208,-81.136,94.0562,-5.0895,69.0678,65.3178,-31.1313,-22.865,7.39451,-88.427,-21.3199,6.18478
70.2171,-84.682,89.6679,-9.62649,74.2358,70.2481,69.8323,-23.2051,-1.15644,-93.9692,-20.6087,-3.48291
70.3002,-75.5622,78.8189,46.069,46.045,75.7989,53.9161,-52.84,51.9114,-59.7475,3.25779,39.6865
70.3231,-65.5212,82.7299,25.852,97.73,45.757,-141.319,24.9704,-55.9621,-113.651,-27.261,58.2381
70.3947,-82.9712,76.8692,11.412,71.4272,41.418,163.355,-26.4366,6.88079,-90.4484,-46.1899,4.80606
70.4199,-96.6247,73.5661,19.803,42.385,52.475,339.252,-199.295,110.141,-55.4417,-32.7653,-23.4982
70.475,-90.886,86.3929,44.823,91.514,61.3242,127.291,-190.692,33.3298,-106.116,-14.9138,46.0027
70.4841,-87.9542,92.9991,14.09,72.2391,85.8738,42.0044,-104.358,35.285,-90.422,2.73331,17.6737
70.4881,-64.6291,70.7328,22.949,60.4992,72.5978,-29.4598,97.3677,-18.8657,-77.3174,-6.85518,23.1036
70.4967,-94.008,88.8251,4.1638,43.376,53.061,167.396,-134.434,87.0646,-57.3877,-31.8263,-20.5552
70.499,-96.4019,92.2193,40.945,76.8778,87.7972,122.401,-231.056,73.1128,-92.2621,9.66006,34.7982
70.5259,-87.5812,75.4998,-6.09541,98.017,45.941,267.999,-51.7692,-27.7988,-126.836,-43.5707,7.72667
70.5517,-62.1928,73.0177,27.474,41.566,72.8882,-75.9838,85.1377,11.268,-57.2729,-1.63985,26.6999
70.5701,-86.1482,84.8631,19.573,76.4692,49.162,104.017,-83.1778,21.4928,-95.2762,-34.1643,20.3575
70.6021,-72.3399,91.2802,9.54708,48.038,47.711,-117.09,-2.95528,36.4199,-61.7182,-28.1744,7.65281
70.6881,-69.1119,96.929,7.89209,98.9762,87.8648,-223.827,-27.9805,-33.4633,-114.66,9.77602,34.5419
70.6978,-78.7628,83.8042,12.416,47.663,91.9889,38.1308,-15.3804,42.0363,-65.8466,8.34384,16.758
70.7271,-95.8828,83.7727,35.707,94.2951,87.9903,204.524,-212.495,38.8383,-111.12,5.97704,23.0674
70.7649,-88.1788,94.1329,43.174,51.748,98.4221,41.2173,-178.368,95.0031,-63.125,22.694,50.756
70.833,-64.5511,79.5792,34.991,42.409,83.1877,-98.2117,32.1549,33.596,-55.417,10.0074,43.5638
70.8989,-84.4769,89.8512,32.224,79.8021,55.313,27.0318,-114.389,31.1686,-94.7334,-22.6236,38.2322
70.9643,-71.6661,81.843,4.7621,42.829,81.3778,-28.3311,49.6918,28.86,-61.294,-1.8013,9.34063
70.9729,-76.554,76.024,-2.2494,73.915,53.802,107.531,56.3765,-18.4315,-93.0811,-36.3635,-1.41385
70.9837,-63.7358,81.136,8.67808,44.109,93.5187,-135.517,85.1396,15.5072,-60.8466,12.3313,25.7211
71.017,-89.877,80.135,23.03,63.6762,53.758,195.857,-118.087,59.3189,-80.3669,-30.9218,6.35322
71.041,-83.0852,83.6822,36.972,41.177,51.893,92.1869,-104.134,84.7497,-54.3695,-19.5217,14.0677
71.1041,-99.4059,71.1402,34.706,90.5308,51.066,367.276,-260.964,65.235,-112.523,-34.3614,19.2006
71.1402,-92.8747,89.8839,22.048,65.6747,65.9423,123.473,-153.144,70.1259,-82.887,-17.2706,14.7312
71.151,-70.7597,88.3501,13.668,65.2862,63.478,-117.982,15.1436,13.3443,-80.8522,-15.86,25.0124
71.1619,-94.4103,88.0098,36.196,92.543,95.9939,146.516,-202.63,42.8943,-108.956,15.2045,26.2729
71.288,-73.8623,81.517,42.287,53.563,89.4782,-0.0463203,-39.5033,50.3838,-65.5541,14.4734,47.3328
71.3092,-91.8509,89.2021,26.49,99.2838,49.975,114.081,-163.947,19.83,-119.267,-28.0586,40.8233
71.3441,-95.1603,89.5659,-1.9963,55.975,94.1049,180.139,-127.519,77.639,-74.6075,2.24375,-6.73729
71.3539,-85.6681,94.5208,36.17,97.2808,58.0572,-6.09736,-156.002,21.3816,-110.628,-16.549,54.1815
71.3722,-80.9011,72.5937,37.287,41.116,48.479,175.537,-70.4141,76.8235,-53.7217,-25.0321,3.92439
71.3923,-83.504,90.2449,48.388,56.792,71.7297,30.8123,-144.247,82.8328,-67.9392,-1.16573,46.085
71.4072,-73.22,75.6172,35.177,61.7912,80.6478,39.8308,0.153495,26.6813,-76.4938,2.76429,33.2106
71.441,-85.8978,88.8102,38.974,93.1801,40.765,52.1816,-142.999,24.4798,-109.48,-34.6341,55.0246
71.4473,-98.9103,91.8812,19.253,87.5239,89.6971,160.725,-205.006,55.2237,-105.186,3.9901,11.4679
71.461,-81.9788,75.474,-1.9759,73.0521,57.149,187.658,9.51018,5.98632,-91.284,-34.8351,-7.77201
71.4879,-80.2891,81.8808,5.92352,78.0059,73.1988,79.143,-0.388593,2.14315,-96.0921,-13.6763,8.57014
71.5229,-72.5072,97.204,-8.60669,97.0212,40.556,-173.676,0.99697,-29.3643,-121.803,-38.8251,38.3779
71.6071,-62.08,83.975,11.233,50.722,68.5349,-189.449,74.3418,20.5997,-65.8535,-8.93365,22.4115
71.61,-86.0709,91.974,25.249,83.0737,95.1442,23.8653,-115.576,34.5619,-98.6063,14.9219,28.685
71.6787,-76.1948,74.8839,29.551,72.6321,61.5792,82.4143,-6.13849,15.486,-88.1454,-19.2758,25.6227
71.7131,-64.2309,78.0941,26.92,63.7479,90.5411,-108.997,63.5666,7.23325,-77.3657,13.1044,38.6039
71.8071,-78.2001,91.9219,6.89961,64.0177,98.4009,-55.2312,-22.7387,36.9562,-80.7184,15.3645,20.4393
71.8082,-66.8498,78.5909,21.213,81.6499,53.504,-82.0855,60.4439,-19.2605,-96.9417,-25.9503,35.1062
71.8208,-75.647,83.987,20.725,89.5722,87.8791,-17.5385,-11.9288,-8.23652,-105.357,7.22569,28.0472
71.8529,-96.2472,74.2611,13.941,40.072,76.3581,335.533,-186.459,122.272,-56.8271,-13.2362,-15.441
71.8569,-89.8512,97.514,-0.47179,97.055,50.203,27.7556,-108.108,10.9277,-119.849,-33.0023,25.0106
71.9761,-83.677,96.2861,13.301,72.1067,70.593,-40.482,-86.7265,47.5096,-88.0611,-10.9907,23.561
71.999,-73.4148,88.4721,8.3838,85.1931,55.966,-86.1429,12.7215,-6.52085,-102.472,-25.6975,28.7042
72.05,-82.8027,81.4402,28.809,80.2863,99.5021,94.4781,-70.5888,29.2506,-95.9539,18.0944,24.9949
72.1308,-82.813,74.1711,15.917,80.7727,75.5061,185.023,-31.6219,16.3797,-98.0918,-11.5326,8.64376
72.1503,-76.7809,87.1858,42.791,67.2761,60.4568,-25.9907,-78.4721,54.1203,-77.4319,-14.2649,44.8152
72.223,-84.3268,83.0181,1.709,62.4117,56.504,124.539,-27.2187,45.5128,-77.9973,-32.0487,-6.70323
72.2597,-66.8882,77.8352,18.854,46.715,77.3619,-60.2556,64.8431,38.1209,-62.2585,-1.55704,21.9741
72.2821,-64.4572,92.755,17.194,44.11,88.7769,-226.606,-1.96029,63.8735,-56.6616,12.5185,42.6125
72.2998,-67.986,70.024,-0.00715189,82.145,67.0469,46.3103,130.381,-36.1299,-100.153,-21.3146,5.44031
72.325,-80.0181,93.5571,18.34,75.6029,72.1829,-58.1478,-66.391,39.5506,-90.3427,-7.99771,30.1136
72.3657,-89.7561,86.928,48.569,94.2768,46.319,112.202,-192.403,48.4968,-107.809,-29.3111,56.4912
72.3972,-90.3738,94.687,-9.38001,88.0968,55.549,80.2862,-81.3659,23.7102,-108.604,-34.006,5.30203
72.4488,-81.5021,91.6818,10.597,45.209,91.4332,-7.99374,-57.4662,81.8528,-61.3988,8.24876,19.9679
72.4729,-69.0752,84.3142,3.1123,71.995,43.482,-97.4279,68.9493,3.78441,-87.7417,-40.3611,15.2969
72.5491,-73.2011,80.4037,-2.9367,55.427,58.8628,12.5139,69.5337,29.2168,-70.5679,-27.467,-6.30284
72.5531,-74.4822,86.4009,14.229,55.361,44.864,-46.2442,2.6938,51.0433,-66.8717,-33.9894,8.22055
72.5622,-81.7387,73.5489,12.839,83.751,60.5061,182.301,-15.3611,11.7481,-101.854,-26.9276,9.93037
72.6843,-86.245,78.9983,-5.0444,40.939,72.4327,201.952,-41.0981,83.7534,-56.0983,-17.5868,-21.7852
72.7507,-66.977,83.7372,21.272,62.4828,61.3901,-124.221,38.0405,32.6039,-75.22,-16.5108,28.9805
72.8109,-63.6241,73.6973,-0.4404,82.4039,67.0762,-63.305,148.551,-33.5254,-99.496,-19.1187,12.2964
72.8212,-90.5949,77.704,45.733,49.684,91.8251,223.392,-181.265,118.821,-63.6603,11.4273,31.9391
72.8378,-74.7349,75.4809,37.075,56.879,53.726,63.3704,-15.4095,57.9025,-68.5349,-22.9903,23.3149
72.8413,-99.6431,96.5571,4.3695,61.6669,52.999,135.481,-185.051,104.335,-75.9364,-35.0325,-8.26769
72.8481,-84.0621,91.055,22.476,79.664,78.0517,12.259,-91.0457,46.9786,-94.2632,-3.03978,28.7081
72.8768,-90.8029,90.7829,37.517,71.5091,87.5227,86.3689,-174.663,86.3585,-84.9673,8.32694,35.4144
73.0258,-65.7692,99.7777,4.9371,76.6411,91.7403,-289.03,-21.0272,33.4784,-89.8924,13.0077,37.0244
73.0401,-66.5599,78.9438,29.507,48.475,45.903,-73.9467,39.3161,55.2369,-57.4858,-26.3984,17.8904
73.0561,-92.272,92.0371,16.453,67.8348,57.435,98.2276,-139.864,83.2843,-83.0256,-27.07,11.5227
73.0578,-77.6862,95.3849,8.21862,50.441,86.8071,-91.9548,-44.4436,79.1721,-65.7349,5.26973,22.9139
73.1409,-66.918,73.5901,36.417,79.8669,56.798,-31.6731,44.5595,8.21573,-91.562,-21.2601,42.0173
73.1489,-84.2489,75.6671,-7.70399,94.3289,85.4521,226.783,-8.35239,-0.648423,-110.229,-8.31546,-14.4168
73.1759,-81.242,97.2338,12.525,82.5048,61.6348,-79.5429,-77.4833,42.1698,-97.2289,-19.6784,30.3786
73.2561,-91.4693,71.2072,39.235,69.148,44.717,291.273,-173.122,92.7005,-82.8499,-39.1863,12.7594
73.2658,-90.8877,70.3151,8.60411,64.385,60.1503,336.051,-107.828,80.2482,-78.7466,-32.0892,-17.3804
73.2802,-88.4211,70.6371,43.707,92.0508,79.0642,260.409,-154.859,49.686,-106.24,-3.00416,27.9145
73.2847,-96.0673,79.444,39.871,81.5032,46.255,248.649,-219.523,87.4576,-97.4972,-36.6307,27.2813
73.3369,-65.6209,70.0298,12.513,79.919,50.13,-5.71697,121.702,-12.6004,-96.3682,-34.1903,19.8197
73.342,-63.8092,92.0468,5.2237,78.5359,78.293,-249.746,37.6021,16.2925,-92.2767,-1.91422,31.8207
73.3478,-84.8528,78.9662,19.877,66.2408,86.107,154.263,-62.6796,65.2423,-82.0194,0.752744,12.4881
73.3541,-61.809,92.9882,8.88531,80.7469,93.3228,-285.532,25.4409,17.0573,-93.8256,14.9458,37.9648
73.3672,-70.8101,87.3222,29.857,43.636,76.6182,-90.752,-23.0194,84.3451,-55.3932,1.53782,36.8465
73.4142,-80.076,81.9662,23.497,94.6641,42.825,57.934,-43.0644,13.7949,-113.752,-36.8578,41.4202
73.4389,-84.7599,93.627,13.794,95.2347,53.551,-2.98255,-90.2468,27.4398,-112.548,-27.3963,34.586
73.4853,-84.529,98.2898,45.05,61.6268,75.6419,-36.8996,-174.955,108.052,-70.4448,1.05924,52.4224
73.4921,-84.835,70.0922,26.387,72.0471,98.8289,242.43,-72.4334,60.3634,-87.7305,12.7238,11.1827
73.5088,-62.4071,93.069,-7.46209,91.1839,77.4948,-273.993,60.1161,-9.06655,-106.033,-4.94,25.1026
73.5798,-84.0558,85.9018,16.171,55.83,99.2489,75.8968,-63.8078,83.894,-70.7955,14.5602,19.8765
73.6159,-91.5111,79.797,45.939,83.72,75.6499,199.438,-188.506,77.6829,-96.6096,-4.84014,34.3948
73.648,-62.1619,90.8367,9.42241,63.977,58.7981,-256.828,39.7977,43.0015,-75.7467,-19.5522,28.9618
73.7609,-91.7769,82.8589,31.206,58.656,56.142,182.82,-158.843,109.866,-71.6774,-25.615,10.9652
73.8119,-90.7559,87.6219,9.78681,93.4838,76.2693,136.436,-109.435,40.2592,-109.415,-10.5948,10.7359
73.8399,-67.1042,77.83,-9.06711,65.8959,40.475,-42.0996,132.992,14.4391,-77.8763,-47.5862,-8.03407
73.86,-97.2252,75.5101,-2.5724,52.869,66.3411,362.638,-163.795,119.944,-64.8832,-27.6501,-34.0427
74.029,-82.3082,72.2202,40.338,40.586,73.42,195.832,-92.2555,115.713,-54.2907,-4.75639,19.1985
74.0382,-69.1892,78.7467,6.8905,73.1392,81.4981,-40.0367,84.635,20.6583,-88.1797,-3.29434,15.002
74.0663,-79.2779,90.776,8.71641,96.5147,45.579,-35.0944,-33.5902,16.5098,-115.805,-35.2052,36.8546
74.1258,-82.0647,70.2349,-2.6788,54.49,74.9509,248.999,6.19972,71.2316,-68.8526,-17.1902,-19.6568
74.1929,-67.8697,78.7897,22.713,43.234,56.874,-53.5035,45.1268,75.9968,-54.513,-17.9156,13.4279
74.2061,-74.975,95.6352,44.691,43.014,65.9079,-96.6035,-114.405,121.819,-50.4437,-3.89882,48.4027
74.3418,-83.378,75.1411,16.122,81.1119,89.9922,180.803,-36.9723,46.1928,-96.1541,2.69886,7.19611
74.3579,-73.958,76.962,21.81,47.983,88.758,43.9844,17.0263,80.5138,-61.9951,6.25709,22.7351
74.3819,-89.673,81.7932,32.437,66.042,85.2687,169.39,-139.29,99.9824,-79.9396,2.34885,22.5252
74.5269,-79.844,96.2449,27.641,54.266,70.813,-75.4085,-103.39,108.715,-65.2937,-6.13866,34.2287
74.5578,-70.9431,77.4891,32.962,44.572,72.3411,2.43928,8.76349,89.4029,-56.4644,-4.24827,27.9438
74.6008,-88.0413,72.729,9.34889,89.9721,78.5199,275.484,-74.6704,44.9923,-105.109,-12.1075,-3.16789
74.6381,-79.102,99.4047,20.091,68.1058,44.343,-122.171,-95.7397,88.1315,-77.2205,-34.3695,29.6991
74.6719,-61.0252,80.3843,9.4518,56.816,45.24,-173.891,106.169,49.0218,-65.8957,-33.5996,10.5515
74.673,-65.4129,79.9591,14.678,82.1799,85.3999,-114.358,80.4068,16.9921,-95.1756,3.44841,28.1308
74.6971,-99.9788,90.3921,49.278,54.216,43.079,180.529,-286.452,161.011,-61.3561,-32.2729,17.523
74.7229,-87.1738,94.687,22.083,93.5061,80.6707,8.80981,-128.407,56.3609,-106.259,-1.06254,30.9749
74.7337,-81.984,99.2758,27.527,58.0721,92.0732,-82.0579,-128.113,112.901,-68.6734,13.4812,43.7249
74.7378,-68.744,78.0208,-1.4239,78.3268,87.9828,-30.4496,108.716,15.8317,-93.1647,0.761754,7.2108
74.7389,-84.262,76.5271,22.694,66.3422,63.1709,170.776,-61.4097,81.608,-79.9589,-21.8714,9.55394
74.7698,-80.8208,78.1881,1.3524,94.2607,88.3071,134.756,8.72199,17.1019,-109.073,-1.34823,-0.987139
74.7721,-66.729,95.1992,-5.94151,48.535,84.5439,-224.521,28.7813,83.1561,-62.8056,1.89854,18.5072
74.8163,-69.4442,96.815,6.25641,42.644,56.571,-201.151,-21.0478,104.295,-53.2521,-18.2743,13.0698
74.869,-96.6013,78.6419,29.411,67.8777,78.313,273.09,-202.875,119.663,-82.2918,-8.0366,9.14768
74.8959,-68.5779,81.4992,-5.73783,75.2208,68.9979,-65.3674,105.347,24.3466,-90.0413,-18.3635,6.40228
74.897,-85.3558,87.3262,1.7943,96.3801,50.079,86.9442,-48.1967,31.0835,-116.133,-35.3088,19.7308
75.0202,-62.7251,71.9658,-8.56898,57.5009,83.6272,-45.9865,175.73,33.6289,-72.4272,-4.96824,-1.77548
75.03,-80.0852,72.7668,-9.6034,43.685,47.275,202.553,30.1132,90.5093,-47.8803,-38.3992,-43.3876
75.0638,-73.6921,99.7817,0.56686,80.276,51.547,-189.444,-30.6434,56.0804,-93.7075,-31.1733,27.4878
75.0689,-86.2101,72.4419,45.181,78.1818,57.258,219.545,-130.936,85.4733,-90.2702,-24.6144,30.388
75.0999,-63.1978,83.9927,-1.0362,57.5232,75.0838,-173.284,103.051,55.3811,-71.3223,-8.22553,13.602
75.1211,-77.6197,72.2162,45.61,79.6652,73.2257,123.172,-51.419,62.3761,-90.4569,-6.79654,38.8669
75.136,-68.6701,83.3361,37.959,68.0599,96.0449,-93.6723,-6.057,69.8313,-76.678,18.3815,52.8266
75.144,-84.2122,75.113,22.62,65.8907,59.5183,185.798,-59.8741,86.8729,-78.8483,-25.8092,7.0595
75.152,-79.1169,77.987,41.664,44.657,81.745,101.24,-71.798,118.655,-55.9519,3.41699,34.3944
75.2179,-72.1938,73.1438,13.451,54.357,67.2979,61.8318,61.5838,71.8427,-67.5507,-16.5895,5.0817
75.2523,-98.6748,79.0292,3.7998,74.0319,74.6707,329.139,-177.782,106.719,-87.908,-18.6755,-16.2383
75.3147,-85.3541,80.6782,39.171,52.766,86.2783,138.938,-119.485,123.484,-64.6856,5.53351,31.4385
75.4093,-80.7641,82.7362,-6.70418,80.1619,77.3218,94.7644,20.8138,46.0523,-94.5903,-13.1474,-4.08008
75.458,-85.0768,98.2829,-3.1188,75.541,90.2529,-31.7978,-66.1444,77.693,-89.7477,3.42266,9.3251
75.4671,-91.243,72.0999,39.053,53.115,42.069,284.712,-176.95,139.386,-59.5208,-37.7723,-3.3193
75.5072,-77.9337,71.8861,24.096,70.7139,91.7959,140.457,-1.48643,68.4745,-84.0018,6.8677,17.304
75.5141,-93.9771,71.6111,12.181,75.2242,49.139,348.888,-148.608,99.5526,-88.4337,-42.8273,-11.5325
75.5508,-64.2039,87.8711,23.941,41.11,86.1442,-181.734,12.225,106.521,-50.9275,8.60702,43.5115
75.5829,-95.8851,90.5543,39.464,73.7219,75.4419,135.777,-223.476,122.991,-85.2311,-6.04983,31.5404
75.5897,-74.1081,82.8869,30.507,82.9901,69.855,-27.5312,-17.8839,54.7471,-93.7104,-10.5109,38.9806
75.5897,-71.893,80.6381,36.713,90.2901,70.2481,-33.1793,-13.7286,41.5639,-99.7782,-8.83499,47.1772
75.5932,-73.9608,77.3699,32.835,79.577,56.551,25.85,-3.15249,56.2188,-90.5647,-24.4709,35.1747
75.6379,-96.717,81.207,8.10363,73.1312,45.154,276.126,-159.565,107.367,-85.6804,-45.9865,-10.6603
75.6889,-90.9519,97.1547,7.7304,96.713,99.729,34.2064,-130.348,62.159,-110.645,13.0359,9.88027
75.745,-79.695,78.9037,49.277,84.2489,95.1941,83.2298,-90.1612,72.9355,-93.5045,16.2033,46.8994
75.8567,-82.4887,99.8001,30.663,88.3782,96.9628,-90.4873,-143.017,81.9036,-98.3579,18.1028,45.6875
75.9421,-79.204,72.5112,-8.88119,45.677,87.9811,193.136,38.5997,98.5912,-59.3145,-4.593,-16.4898
75.9599,-98.323,75.7009,19.275,86.6289,96.717,333.915,-207.4,101.03,-100.388,6.31049,-4.8289
75.9622,-96.5652,83.598,34.957,62.7652,43.472,217.784,-215.817,141.239,-71.1344,-39.0059,7.38536
75.9622,-95.6461,72.1451,20.967,46.84,95.916,343.929,-196.074,157.304,-60.6805,5.22801,0.0447485
75.9702,-75.1617,71.3521,-1.2091,67.0819,94.2802,140.537,75.5653,60.5245,-81.0508,3.84531,-4.79072
75.9908,-78.136,86.5527,-8.08461,62.5613,53.934,17.9621,30.4988,79.5256,-73.5741,-34.0217,-9.81057
75.992,-60.7112,96.7388,-9.47987,54.071,80.068,-320.729,39.8409,90.5212,-66.7873,-1.91875,20.9101
76.0722,-73.5202,98.9332,-1.7342,86.3419,56.996,-182.793,-20.2806,56.3994,-99.7426,-26.4631,27.6168
76.0842,-94.695,82.9179,22.491,64.2601,79.95,216.932,-168.404,128.303,-77.6755,-6.59704,7.84646
76.0939,-83.9068,92.81,1.2056,88.5632,85.978,8.14023,-48.6891,59.7684,-101.915,-0.942977,10.3585
76.1008,-62.4358,93.0867,-3.1564,79.1851,86.6771,-275.028,54.8239,50.1535,-91.3528,3.85962,26.1901
76.106,-85.3713,75.4511,16.362,55.167,62.359,204.046,-63.1212,114.727,-66.7465,-23.2843,-4.772
76.1558,-71.1579,88.2962,27.217,60.1921,84.5439,-108.209,-18.7117,98.1428,-70.1257,5.40977,40.657
76.1982,-94.7088,81.2408,32.763,47.139,67.6331,231.119,-200.639,160.581,-59.1247,-14.0601,6.92348
76.2292,-88.2091,79.8589,34.869,74.7922,72.3021,170.288,-129.851,103.736,-86.5663,-11.0535,24.3592
76.2332,-84.9381,76.4268,24.545,75.6511,71.3132,176.768,-71.3644,87.7706,-88.3858,-14.2742,14.7924
76.2412,-92.649,98.6169,27.833,54.103,42.388,33.8625,-194.594,151.044,-59.7294,-34.5205,10.5499
76.259,-97.9271,79.1461,1.2391,66.0391,91.4538,324.585,-167.328,126.749,-78.9981,-2.01818,-17.0766
76.2727,-84.7937,84.2758,32.354,94.565,57.5977,86.0282,-105.824,66.0032,-106.927,-23.5954,39.7526
76.3552,-74.8518,85.4927,4.4771,53.092,67.181,-26.2913,24.1395,99.6394,-65.1877,-16.4205,4.84157
76.6491,-78.207,81.3222,12.024,53.094,63.0231,56.1404,-1.85426,109.663,-64.2416,-20.1738,3.04661
76.691,-76.7099,73.2928,20.227,59.0811,51.606,115.051,12.04,98.4782,-68.212,-31.5845,2.66246
76.7099,-98.9911,72.6121,43.872,83.732,64.1128,339.548,-273.66,128.863,-96.1313,-21.4339,19.6797
76.7551,-81.4889,85.7431,20.98,47.494,43.055,48.5996,-62.4471,132.675,-52.5201,-33.1973,-2.29004
76.7551,-82.9219,94.8062,34.014,53.533,67.0298,-25.2612,-131.153,141.645,-62.3812,-10.2061,33.7987
76.7752,-81.4958,94.4063,-6.92969,48.044,83.4639,-25.5038,-31.9072,125.171,-61.2963,-3.48409,2.2831
76.8222,-63.0007,89.5218,-1.6607,47.912,43.441,-224.643,65.6171,103.279,-53.3109,-33.0479,-2.15335
76.8302,-88.7913,80.7011,38.35,53.331,55.383,174.571,-151.02,146.956,-62.0031,-23.8033,13.6988
76.8697,-81.5709,83.9452,46.38,81.6877,91.2911,55.2239,-111.062,95.473,-90.2352,11.6359,47.4775
76.9671,-68.4008,77.2141,12.339,47.867,72.784,-31.8068,72.9729,103.051,-59.4903,-9.2425,11.5198
76.9958,-94.2349,79.5128,37.048,41.136,43.631,245.598,-211.86,177.52,-45.6495,-30.3382,-9.23741
77.088,-84.627,70.538,21.267,40.088,63.2717,245.613,-78.9158,148.362,-50.1898,-18.5392,-10.1579
77.2078,-86.8971,78.9771,8.04908,74.8947,64.5712,192.631,-57.47,97.4398,-87.0474,-24.6948,-1.66489
77.2571,-74.0949,84.5342,6.8901,44.101,46.649,-24.735,19.6086,124.075,-49.8028,-30.5306,-9.89082
77.296,-77.4009,75.3061,-1.9397,74.2588,90.9828,127.484,53.4244,74.1049,-86.8762,0.861248,-4.41011
77.4129,-97.3358,88.5042,42.176,57.4659,44.758,174.92,-247.063,169.298,-62.9023,-34.0249,13.3138
77.4278,-91.3593,94.9729,-1.9898,79.0023,91.4297,76.4954,-101.816,104.052,-91.4111,2.41764,1.19954
77.4341,-89.5138,72.3199,33.21,78.7318,54.047,263.601,-139.199,112.555,-90.1546,-31.991,15.4727
77.4622,-63.2431,76.8881,-1.3523,97.7878,48.254,-103.434,138.599,19.2958,-114.405,-35.6715,27.4035
77.4868,-77.2359,79.1318,-6.86168,62.52,67.3758,88.7809,54.088,94.7838,-73.7717,-22.0282,-11.5749
77.4931,-71.1487,71.453,23.608,49.276,44.312,61.9124,46.0746,114.657,-54.0109,-33.1356,-1.96466
77.5498,-63.7479,96.8482,11.272,80.143,82.7448,-291.117,-12.153,84.805,-89.1215,2.28717,43.0062
77.6071,-94.306,70.0538,27.056,63.0368,53.147,344.792,-188.493,149.65,-71.6488,-34.1674,-8.56577
77.6358,-73.9322,72.2689,11.169,60.019,40.945,96.5897,56.7094,99.8312,-64.8208,-43.1943,-9.84174
77.6639,-73.2928,81.6763,8.57151,88.6549,72.4133,-15.8931,44.0366,58.8174,-100.355,-13.1011,19.2146
77.6862,-99.3022,88.2132,35.495,48.686,83.0462,199.424,-255.79,185.147,-59.7536,-0.333711,20.0206
77.7108,-78.7422,78.9943,-0.888881,83.7538,95.6501,101.34,33.7191,69.1788,-95.8948,6.19959,-1.62869
77.7601,-67.228,93.4311,3.0442,77.614,52.997,-214.427,25.6103,82.674,-87.4961,-30.3541,26.6527
77.7819,-60.7771,94.0189,-6.78548,78.7038,55.564,-305.013,59.3766,74.2215,-89.1352,-28.2739,24.48
77.8231,-82.9901,96.9158,3.0639,75.9748,62.1459,-48.6317,-63.0312,105.112,-87.1459,-23.5931,14.7679
77.869,-88.95,74.8248,49.626,61.4537,76.4887,229.461,-174.993,151.598,-70.8645,-5.23775,29.9914
77.8713,-98.2221,97.4143,33.305,47.393,84.4219,99.4843,-253.535,187.963,-57.5562,2.45205,28.4545
77.9337,-93.792,89.3871,-0.756499,56.562,60.8579,166.074,-122.478,147.957,-65.6027,-27.2292,-17.1093
77.9372,-77.2931,91.7987,12.834,48.293,46.476,-61.1043,-40.8688,141.59,-53.3669,-30.2758,2.03744
78.022,-92.9653,92.2009,40.113,54.614,67.6738,101.223,-211.152,170.799,-63.0189,-11.8879,28.1998
78.0248,-79.106,96.2718,9.11679,55.066,60.0431,-85.9347,-59.6802,138.052,-63.9046,-21.063,12.556
78.0351,-99.9462,87.635,37.513,98.8599,90.9937,199.859,-262.423,112.964,-109.15,6.26473,24.2619
78.0368,-94.4452,74.029,-4.3433,61.6222,49.29,357.915,-131.265,143.607,-66.4513,-42.8695,-39.5566
78.0621,-88.7002,94.722,32.117,68.1138,53.177,27.155,-162.138,141.554,-75.2626,-27.9381,28.3206
78.0752,-86.4771,75.0758,-3.3478,55.66,70.5408,250.528,-40.3067,132.718,-65.6239,-20.0766,-22.5475
78.152,-91.6618,87.1308,39.912,80.288,74.3779,129.019,-185.281,128.004,-89.4011,-8.37197,34.12
78.3858,-78.3462,88.8973,15.795,69.5708,92.7321,-28.3652,-31.9404,115.604,-79.6967,8.54757,25.7733
78.3949,-67.3833,76.3988,20.606,85.0149,69.3479,-52.4965,71.5755,69.3528,-94.6958,-14.2685,30.1434
78.415,-63.211,77.127,14.862,94.145,60.4723,-119.186,101.135,48.5664,-104.802,-22.5324,34.8578
78.4299,-94.856,98.6221,41.392,43.492,73.0023,65.4258,-251.626,196.862,-51.6854,-4.38928,33.1419
78.4608,-82.8371,70.1822,32.77,98.7172,90.7302,210.586,-73.4572,77.1417,-108.753,5.0372,19.5187
78.47,-94.3472,73.3982,41.513,88.4968,60.5628,292.625,-214.864,123.46,-99.3284,-24.6851,24.6309
78.513,-81.1577,92.8707,17.862,42.132,71.665,-23.0726,-85.4927,164.797,-51.4485,-8.05315,17.5619
78.592,-94.2802,92.2141,24.655,45.516,43.549,118.587,-193.686,184.017,-48.3681,-32.3239,-7.16959
78.6522,-95.4502,86.4118,1.1531,58.574,95.9171,214.887,-140.298,156.706,-69.8336,4.77251,-6.2215
78.69,-73.1552,94.5008,5.5394,64.805,45.266,-144.069,-10.668,122.548,-70.6961,-36.9994,12.4373
78.6957,-68.987,74.2261,41.659,91.8262,68.4289,-8.95644,14.9796,73.8201,-99.0294,-12.6463,49.1348
78.7639,-87.1641,71.0909,15.432,44.865,82.212,273.999,-93.0436,165.547,-55.8221,-5.71303,-5.42073
78.7863,-92.374,79.6698,32.318,53.061,43.35,223.071,-176.043,172.745,-56.079,-36.3751,-5.35298
78.8373,-64.4893,74.834,8.46471,90.23,85.3128,-71.9241,122.3,56.9363,-100.448,-0.36139,18.8866
78.8441,-91.7798,96.0019,16.269,45.32,68.5469,57.988,-164.028,180.946,-54.7616,-12.9416,7.54514
79.0962,-86.1683,75.5582,37.019,81.3938,99.0787,190.285,-114.678,121.5,-90.6448,14.4207,25.5803
79.1541,-88.4148,84.2701,-8.22911,50.159,84.7427,174.574,-59.6364,157.284,-60.7462,-6.0699,-15.1271
79.1851,-63.6378,80.1912,17.413,44.481,90.3423,-127.706,68.5614,140.02,-52.9823,7.18801,33.0379
79.2143,-77.4221,78.9931,9.94271,42.496,54.917,75.3349,2.80978,155.136,-48.5805,-24.3974,-11.4128
79.3489,-62.2559,74.61,27.248,71.229,59.5532,-106.954,89.2048,101.85,-77.7524,-22.4658,32.6298
79.3621,-89.7619,73.5139,-0.25141,90.8659,73.9041,305.809,-79.4638,101.819,-101.383,-18.1654,-13.4241
79.4251,-86.4702,85.3329,11.879,84.3228,61.613,110.115,-71.4449,112.418,-94.6885,-25.6863,12.5199
79.4721,-76.5558,76.3609,1.7286,84.8602,86.1757,97.502,50.8117,88.7313,-95.09,-2.85233,1.42062
79.5437,-92.4118,76.365,30.108,66.8808,64.8663,256.023,-166.406,159.123,-75.7451,-21.2557,7.33783
79.5558,-76.6881,91.0808,19.073,90.7817,53.504,-75.456,-42.858,98.5835,-100.169,-29.776,38.6065
79.5701,-95.2307,84.6282,47.812,59.9537,89.1402,193.978,-241.036,183.471,-67.9477,6.02827,35.8626
79.5878,-92.8959,87.2649,-6.122,58.5483,87.9089,189.876,-104.197,159.941,-68.7741,-3.30681,-12.8073
79.5959,-85.5042,85.169,43.064,57.4871,99.4712,95.1763,-142.559,168.9,-63.9786,16.3212,45.9116
79.597,-71.1121,81.9169,4.1832,95.4863,51.23,-45.2193,63.9277,70.9988,-108.252,-33.9642,25.6506
79.6062,-90.5543,78.9902,0.38366,79.8239,58.1867,249.482,-83.3213,123.637,-89.7124,-33.133,-11.5387
79.6268,-77.81,88.1851,18.469,52.297,45.89,-21.7365,-41.0835,157.474,-55.3523,-32.1791,4.65033
79.6348,-87.2769,93.9353,16.967,75.4958,49.343,22.0527,-113.378,137.274,-83.3259,-35.6589,18.5764
79.7672,-90.1308,89.6112,43.979,64.2309,80.991,96.3041,-188.324,169.498,-71.2138,-1.01379,39.6665
79.7741,-93.6912,71.948,7.7327,42.083,54.642,345.108,-160.796,192.705,-45.3455,-28.6255,-37.8717
79.817,-86.8759,77.8163,4.1537,81.0712,43.821,212.182,-51.1418,118.259,-90.8465,-46.4178,-4.76116
79.8187,-88.1198,99.2099,18.699,60.2499,84.3268,-18.9656,-147.963,168.775,-68.9768,0.497582,26.7644
79.927,-68.0851,72.6831,11.703,59.0261,91.5879,7.62408,95.8457,127.027,-68.4541,5.19484,16.095
79.9288,-63.5238,92.1482,-3.6926,84.6728,43.027,-251.529,59.3353,95.1623,-94.6146,-41.8784,27.3722
79.9351,-72.0042,71.8609,36.257,91.832,64.2377,54.2318,13.6536,90.7721,-99.7855,-19.063,39.4232
79.9362,-73.6222,89.7028,1.4662,80.8191,44.047,-89.9725,24.4836,107.339,-90.0944,-42.2035,16.8806
79.9379,-89.9658,76.2469,-5.85941,42.522,83.1029,279.287,-87.8269,180.782,-51.6932,-7.97209,-23.749
79.9471,-99.6941,85.2063,47.575,97.5988,54.789,218.082,-286.326,135.741,-107.336,-28.2194,42.2624
79.986,-98.8948,85.4733,9.62151,95.4731,53.144,246.892,-190.8,122.378,-108.529,-35.5524,7.05165
80.0009,-62.8672,71.9263,7.00309,91.526,89.5871,-64.1661,145.669,68.7215,-100.817,3.03734,15.5188
80.0158,-77.83,79.7139,33.269,69.8963,77.6512,53.8342,-41.7489,137.15,-77.5758,-5.69597,31.5522
80.017,-95.3299,76.1272,-9.1369,62.5349,80.3642,353.74,-135.273,164.331,-71.0187,-13.1833,-31.1809
80.0193,-95.0772,71.8008,16.311,55.322,54.937,349.503,-182.447,183.052,-60.1227,-31.8265,-23.802
80.0307,-74.9612,91.7552,-3.0268,83.9452,49.495,-89.703,17.5734,104.688,-94.1083,-37.3728,15.8011
80.1889,-94.9821,70.1827,37.414,75.1262,72.9198,336.249,-219.548,162.168,-84.1076,-14.3364,10.2971
80.2118,-68.771,84.961,0.82809,54.621,69.2603,-102.377,65.085,143.011,-62.9728,-14.7859,7.01335
80.2382,-83.6948,72.4259,30.382,40.275,92.6312,210.549,-94.2833,187.783,-49.0332,6.00823,20.3321
80.272,-79.6881,74.7962,39.027,57.9501,50.169,130.263,-64.9281,161.568,-61.558,-29.8057,15.5627
80.3401,-90.289,86.7338,24.946,60.8361,89.445,129.955,-143.176,172.396,-69.6102,3.68376,20.4873
80.394,-78.2798,98.123,-1.9941,62.8397,90.3881,-111.102,-39.1267,152.459,-71.9198,4.13316,17.0461
80.4312,-82.3042,79.4028,-5.75891,45.529,89.6788,150.282,-7.44262,169.38,-55.1564,-0.793354,-9.09068
80.441,-62.1848,84.285,17.904,50.992,97.4269,-189.345,53.3936,153.434,-57.3788,13.4748,42.9958
80.4438,-84.8253,70.9792,34.144,53.599,41.697,231.287,-103.553,175.969,-53.8282,-37.6955,-6.52947
80.5298,-85.9912,88.106,33.863,53.087,98.739,72.0105,-135.901,183.629,-59.7013,13.937,39.5155
80.5412,-75.3657,80.4691,29.15,79.6492,62.418,13.2158,-15.8202,124.077,-86.5464,-21.6658,31.7844
80.5699,-72.1348,70.8732,7.3448,91.2842,91.4658,88.6936,83.8348,88.1961,-100.306,3.12988,5.45687
80.6152,-97.3902,83.2823,18.938,97.428,78.8969,242.251,-195.458,126.331,-106.545,-9.37459,7.73628
80.6312,-74.1459,72.3468,40.511,78.4339,72.1119,78.7553,-13.3618,126.545,-85.0067,-11.4447,36.2955
80.6799,-71.3642,75.1079,39.486,67.8462,62.7377,18.9778,1.25002,141.109,-72.7944,-19.4179,34.5716
80.7441,-80.386,91.7729,29.452,80.6117,85.4733,-37.6745,-92.5817,138.322,-87.2445,2.08984,39.6205
80.7888,-93.5073,71.1058,10.272,52.228,60.3118,350.791,-157.784,190.626,-57.2194,-26.8629,-27.5668
80.7968,-97.6761,98.1013,8.30319,76.4349,67.8227,93.275,-186.162,160.819,-85.0988,-20.0631,6.33492
80.8082,-70.9998,97.1599,36.033,52.595,69.427,-172.219,-95.9325,181.333,-55.5071,-8.28696,50.3084
80.8208,-72.788,72.5078,28.042,47.195,88.9139,73.2101,14.4276,168.741,-54.6922,4.10233,26.4437
80.8632,-74.5928,77.9778,0.22355,51.06,77.3132,55.7877,52.55,158.614,-59.77,-9.47375,-3.08547
80.8661,-88.7248,89.5739,10.563,75.0781,89.2869,91.2888,-98.4316,149.13,-83.8577,1.78426,10.7857
80.9331,-72.8052,75.3812,24.508,89.4221,77.6169,32.4468,28.0683,106.156,-97.0319,-7.58217,27.8296
80.9899,-90.4047,89.331,46.107,72.8373,57.6132,97.7347,-198.825,170.144,-77.3646,-24.9323,37.4853
81.1148,-92.8879,94.035,47.114,93.038,92.6839,72.9209,-234.255,144.62,-98.5061,9.41065,47.108
81.1331,-89.0502,96.8012,32.072,78.187,49.883,7.15044,-175.827,159.727,-83.1967,-33.7627,34.7174
81.1411,-83.0262,73.3111,46.162,65.7641,97.8171,179.736,-110.059,167.954,-72.0484,13.3046,38.0968
81.1572,-65.5361,99.6081,-6.10412,82.1278,69.5387,-289.877,4.45146,125.691,-89.6493,-15.689,26.7951
81.1692,-86.9561,90.9507,-6.97891,95.8071,79.2091,79.0757,-53.4263,111.732,-104.706,-10.2869,-0.507292
81.1732,-81.1853,90.5262,3.7414,95.975,76.2458,-3.23788,-32.5307,108.487,-104.549,-10.7248,15.9822
81.266,-66.6608,73.0361,21.589,82.6228,65.4112,-28.2836,84.6985,112.947,-89.7508,-19.8374,27.0544
81.2958,-82.3787,78.8969,27.662,44.567,74.7051,128.72,-79.8367,193.163,-51.8999,-7.67042,14.2933
81.3268,-98.8129,98.1459,12.461,73.7729,86.1029,98.8418,-206.273,173.329,-82.1096,-1.46825,10.6383
81.3468,-62.2587,78.0202,-7.055,40.462,66.0391,-117.838,132.676,165.608,-47.2161,-15.5205,-7.84404
81.3611,-89.7991,71.7441,16.66,57.7438,42.003,294.694,-120.071,183.305,-56.7331,-42.3356,-25.5695
81.3657,-98.5212,77.1877,1.2963,61.8559,93.674,351.585,-188.852,188.463,-70.0502,1.17021,-18.9502
81.3657,-83.7807,91.9557,6.97748,42.341,77.9131,18.5288,-80.3375,196.884,-50.3716,-6.14296,6.98561
81.423,-79.0533,74.6988,-1.783,62.9371,97.326,156.861,31.7251,153.378,-71.4249,6.94727,-4.10344
81.501,-70.122,90.4993,2.5274,50.228,92.881,-138.064,20.0073,174.177,-57.7345,6.64534,23.5516
81.5342,-92.3299,80.9927,27.168,40.078,65.9979,216.497,-181.827,216.401,-46.2758,-14.5681,-1.04134
81.5502,-82.1197,95.0279,1.9138,74.9308,50.447,-37.3653,-51.1203,150.249,-81.1944,-36.2825,8.66868
81.6081,-92.0073,96.2907,11.407,82.487,49.814,51.6145,-144.854,152.892,-90.229,-37.2798,15.4439
81.7313,-62.4799,94.3398,2.2102,55.09,85.5867,-278.468,21.7447,171.177,-61.8303,1.67255,31.0573
81.7467,-83.0789,88.5437,3.2438,41.52,96.3159,49.4698,-57.3079,198.922,-49.3366,7.00292,12.4196
81.7811,-86.5642,79.3529,22.4,66.3949,68.8478,167.857,-93.3779,171.979,-73.276,-17.4213,8.76084
81.8092,-79.106,95.8942,6.73409,61.3111,53.882,-83.6183,-55.1464,174.573,-65.334,-29.2618,8.64568
81.8098,-67.9471,84.717,11.282,59.6008,73.8749,-118.121,45.9709,162.081,-66.0957,-10.0633,20.7877
81.8751,-94.8789,79.9247,43.122,97.9632,84.9502,231.096,-227.778,142.48,-104.52,-0.748688,29.0121
81.8802,-72.1491,72.9581,45.802,51.327,48.634,62.7405,-21.438,183.152,-51.3853,-27.4133,21.7273
81.8888,-78.7467,73.275,0.627429,99.218,93.9072,164.902,32.2668,102.261,-107.108,3.70982,-6.23129
81.9152,-81.317,70.9001,1.4471,88.1358,78.6218,226.725,9.17647,123.907,-95.9703,-11.8768,-8.11881
81.949,-68.8283,76.5202,13.26,88.0298,51.745,-28.5282,78.0365,115.23,-96.0471,-34.5374,24.0956
81.9748,-86.881,98.1471,30.403,73.7792,61.3059,-26.7258,-164.571,173.625,-78.2326,-22.3444,35.4108
81.9891,-61.6921,71.8478,2.6087,90.3818,94.9019,-77.319,162.097,99.7918,-98.0316,7.41433,11.5092
81.9943,-75.7078,82.1593,17.08,40.441,47.442,18.5185,-17.035,197.075,-41.3879,-26.3976,-7.56455
82.0057,-83.0279,99.4849,23.643,96.7737,54.019,-83.8696,-134.862,132.844,-104.035,-29.5363,47.7303
82.0097,-92.3648,99.1091,-1.71,96.662,62.0158,39.9096,-130.343,131.923,-105.936,-25.781,12.1074
82.012,-98.7378,80.8151,-3.941,74.8827,41.735,325.625,-173.832,172.935,-78.0858,-50.0968,-30.7141
82.0321,-65.7458,94.8102,-3.8555,57.49,87.5978,-238.804,26.7014,171.191,-64.6721,2.15406,23.2695
82.043,-72.2929,98.205,6.50078,54.148,70.5632,-185.135,-43.2871,185.93,-60.1658,-11.6783,21.6475
82.1828,-93.7038,75.564,8.13388,97.6733,83.1642,309.395,-142.117,133.416,-105.213,-7.41645,-8.38431
82.1988,-88.153,94.1782,8.3327,61.5849,70.2062,38.7004,-109.188,186.336,-68.2228,-15.7091,6.68161
82.2922,-78.7582,93.9439,45.176,57.8859,78.9868,-55.2807,-136.681,196.195,-60.9252,-2.42309,54.6482
82.3249,-89.2519,84.8338,5.2231,85.1071,97.5787,158.013,-84.9235,147.92,-92.6925,8.35291,0.00962536
82.3317,-78.623,84.1159,38.16,92.9578,62.2702,16.2894,-77.2635,134.244,-98.3208,-21.7878,46.7673
82.3432,-79.8079,93.4328,-0.24142,70.0687,99.2781,-46.4074,-27.8534,164.324,-77.2673,11.6664,14.7578
82.3787,-83.2193,84.9353,-6.74222,46.829,43.471,100.786,-25.4696,195.926,-44.0236,-36.0794,-36.4062
82.4131,-76.4549,81.5703,3.1341,76.9511,75.0323,35.5642,32.8712,145.919,-84.0866,-12.9986,6.19692
82.5008,-69.6952,79.4337,-0.37125,73.7677,88.1318,-32.0871,92.3761,144.131,-81.0448,0.212262,8.47002
82.5071,-90.9301,93.8058,47.487,69.6528,44.186,62.3708,-221.161,192.771,-69.3212,-37.5763,35.4403
82.5741,-82.652,86.5791,7.11722,78.4878,92.61,55.7447,-36.9229,155.133,-85.543,4.73767,10.7465
82.6302,-99.8459,96.953,17.179,70.5202,79.181,117.233,-227.046,193.613,-77.4224,-8.06414,11.5769
82.6858,-82.6629,72.6877,20.056,50.155,81.3039,199.033,-57.5082,199.775,-57.081,-5.156,5.00981
82.7529,-72.9868,72.1869,-1.7472,90.0019,42.953,100.376,91.4915,121.505,-99.8665,-46.237,4.24086
82.7901,-80.1768,70.6549,17.743,52.3,71.4662,191.818,-25.1171,194.005,-58.2258,-13.9287,-1.82225
82.8268,-64.805,75.3651,40.543,52.429,92.9143,-61.086,30.3485,187.659,-56.2011,8.70304,52.2334
82.8732,-96.1847,85.526,29.776,85.4251,95.4129,194.036,-208.329,169.869,-91.7941,8.22987,18.4372
82.9127,-98.3259,77.9887,-8.28818,59.4289,81.364,360.393,-177.46,205.435,-65.2828,-10.5947,-31.8297
82.9809,-71.3332,84.2672,9.08992,93.2179,75.886,-71.1795,39.4027,127.059,-99.5619,-10.6382,23.6672
83.0073,-75.882,79.1289,32.515,75.6138,70.8113,33.8699,-27.4284,163.869,-80.4254,-14.2479,31.8766
83.0078,-95.6118,73.7597,29.081,42.924,95.9309,318.902,-229.303,233.802,-49.3945,6.1551,10.832
83.0582,-98.1838,83.0697,28.808,73.4228,90.7347,240.685,-228.226,193.041,-79.8585,2.93546,13.4548
83.0691,-91.624,94.4842,26.578,56.193,89.7951,64.2593,-184.345,212.883,-61.8336,3.89586,28.6465
83.1408,-80.1998,72.9559,2.4066,74.1608,83.8839,185.899,15.9216,161.998,-80.8472,-5.82972,-6.22793
83.1442,-77.1808,74.7297,-9.42888,50.686,85.475,141.808,50.4364,191.094,-57.5066,-4.30345,-14.5207
83.1877,-95.2239,72.745,10.927,85.7448,97.3719,351.728,-169.553,167.11,-92.3015,6.52172,-12.8776
83.1952,-88.047,76.3959,39.853,83.7212,79.6428,200.581,-147.173,167.861,-89.1331,-6.6844,27.5287
83.1992,-69.91,78.2993,33.839,77.8128,65.6002,-35.7887,11.4776,158.209,-81.6325,-19.1205,38.0642
83.2439,-80.5029,87.1417,24.455,97.2137,52.877,9.41328,-68.46,137.233,-104.576,-32.2497,39.3212
83.2599,-86.2851,88.4469,39.951,87.4918,62.5847,60.4183,-152.017,163.341,-91.8492,-22.513,42.3326
83.2702,-68.3527,95.0228,17.142,83.296,82.8239,-216.043,-29.8133,156.132,-87.7602,-1.80925,42.8549
83.3252,-64.0028,76.1352,22.295,68.9601,59.2192,-95.5224,80.9222,165.374,-72.1873,-24.9128,24.8368
83.402,-78.1652,81.344,14.178,42.932,97.322,57.6861,-26.8437,213.504,-48.4051,8.3846,21.8301
83.4112,-74.492,81.8957,10.337,67.1168,40.56,-0.751609,24.2241,176.001,-66.2627,-43.9353,-0.5164
83.4112,-97.2481,85.1627,32.26,46.481,64.4469,215.157,-243.946,235.449,-50.4588,-17.0135,3.72314
83.4519,-79.6142,86.1287,38.35,69.8309,79.9551,12.887,-93.2926,186.126,-73.7683,-4.52097,41.4191
83.4822,-92.1179,88.62,34.941,63.5611,63.0741,124.391,-192.524,207.59,-67.1196,-20.9615,20.7404
83.5092,-88.9958,70.9992,8.21341,48.494,67.809,306.094,-108.448,217.597,-52.5995,-18.2452,-23.0501
83.7458,-80.4037,70.0939,43.331,95.61,56.298,176.848,-78.8614,146.398,-101.532,-29.3442,38.9481
83.7532,-66.6659,83.5292,2.4955,76.813,62.4111,-124.059,82.2102,159.49,-81.6713,-24.4169,14.8298
83.8128,-98.4049,89.6272,29.931,72.9352,71.3401,172.153,-236.758,201.77,-78.0806,-15.4007,16.9772
83.8701,-69.1881,83.3642,-4.0225,93.6648,93.2397,-79.3681,85.0748,133.543,-99.6209,4.99408,9.16945
83.9452,-88.8463,88.6721,24.101,77.0359,51.197,90.5111,-134.584,185.386,-80.4283,-35.2466,17.5634
83.995,-84.7359,94.9832,17.18,43.351,98.5419,-4.74685,-127.301,231.689,-47.7372,10.0065,32.3884
84.05,-80.355,71.8638,22.826,43.683,81.0861,179.461,-49.9364,223.048,-49.107,-4.37749,8.2475
84.0632,-90.2048,78.5651,30.363,78.1268,55.77,207.763,-149.024,186.301,-82.1841,-31.4302,13.9987
84.0901,-97.7781,83.1832,46.775,83.9807,62.7733,222.703,-268.682,190.014,-88.2504,-23.7251,30.6595
84.1039,-69.254,73.6812,25.354,58.0378,51.195,8.36679,44.7295,196.095,-58.0157,-30.2608,9.95671
84.1079,-63.9169,82.9362,27.551,82.5942,93.7749,-164.277,33.4629,161.085,-86.4463,8.86005,46.4205
84.1142,-76.479,78.7061,33.703,95.9739,60.2878,43.5035,-36.8642,146.217,-101.082,-25.3271,40.8324
84.1211,-72.0701,90.2282,22.98,74.2811,84.9049,-122.006,-30.5555,181.077,-78.4006,-0.323199,39.1649
84.1228,-62.5911,74.9102,16.243,91.7019,43.354,-106.396,108.739,138.056,-98.4411,-42.8474,34.2807
84.1262,-71.8409,75.7972,39.479,93.2368,96.4741,13.4596,-8.64693,147.874,-97.3301,10.9155,42.0009
84.132,-92.6587,86.394,43.155,91.5208,97.298,144.664,-212.046,172.201,-95.9382,11.1521,35.5438
84.2139,-90.1291,83.2932,-5.95521,92.1379,55.25,206.637,-75.9747,157.376,-99.132,-35.0414,-7.86413
84.2489,-89.3877,78.7261,47.484,93.0168,88.8657,188.731,-184.429,167.854,-97.101,2.61192,36.4297
84.3188,-84.0231,85.0269,22.761,69.5462,84.7892,76.8445,-85.8894,195.992,-74.4056,-2.02265,21.8064
84.3669,-83.0571,92.0439,-9.62517,65.7658,43.316,22.5307,-29.2608,196.363,-64.1482,-42.8798,-19.4424
84.395,-95.166,91.4561,13.402,67.1317,59.7417,137.447,-174.046,209.488,-70.2356,-27.0408,-0.586432
84.6419,-81.7032,93.4408,23.438,75.4287,44.274,-37.7331,-99.9727,192.416,-75.7425,-41.0286,24.5491
84.6499,-68.8409,93.2002,0.50755,71.308,99.6242,-187.943,18.6133,187.655,-75.8553,12.526,26.4657
84.7072,-98.276,99.8917,-1.0914,66.3749,42.474,92.4142,-186.874,214.893,-63.9141,-43.6964,-18.7183
84.7141,-96.3171,99.7153,11.794,60.7788,48.463,61.2114,-202.241,224.744,-59.7509,-35.1491,-4.72541
84.8992,-89.1889,82.0659,6.14549,94.3868,67.3861,187.3,-89.3157,163.396,-99.7704,-21.7951,2.49392
84.9828,-98.9257,94.3667,-7.11831,57.7009,84.3898,172.005,-179.527,229.301,-62.7053,-5.23719,-14.5827
84.9868,-82.0011,80.9652,28.409,60.5381,72.305,95.8767,-79.631,216.332,-63.9135,-12.8703,19.2949
85.0011,-73.2143,88.695,4.7973,96.0999,56.496,-88.2939,15.1612,152.836,-102.039,-30.5384,26.3763
85.0779,-97.8721,90.6929,37.736,80.139,83.6381,151.115,-253.75,203.502,-83.9051,-3.36795,29.3543
85.1112,-79.4881,84.1893,24.356,76.9368,64.1082,28.7774,-52.6098,191.038,-79.943,-22.4817,24.187
85.1192,-70.8542,81.5158,24.25,71.9411,48.908,-53.2294,12.3135,193.24,-71.8127,-36.0099,22.6032
85.1782,-80.7108,83.1367,-0.0821432,54.74,63.8412,80.4425,-14.1768,220.723,-57.0726,-21.2444,-11.8697
85.2068,-70.2251,77.4312,41.719,83.975,92.4072,-21.9439,-10.3821,177.304,-86.5313,6.55962,48.4032
85.208,-73.1679,83.6748,13.185,82.228,93.784,-42.0438,19.102,177.9,-86.3793,6.46267,23.3309
85.2401,-85.6411,77.7888,42.274,76.8331,71.1957,160.785,-135.551,199.605,-79.762,-15.3319,30.6973
85.2939,-72.0758,71.6272,31.03,52.125,94.6108,69.8473,8.36237,223.508,-55.491,7.03476,32.4871
85.318,-88.8721,73.962,20.837,53.544,74.6667,255.719,-129.527,233.738,-57.2734,-11.644,-2.65528
85.3197,-74.6478,74.7721,16.183,78.9152,96.6528,71.2477,29.9382,183.306,-83.0492,8.70393,16.613
85.3782,-84.67,92.4691,37.77,77.4719,45.927,5.41571,-152.523,201.888,-76.9537,-39.4919,36.3587
85.4842,-86.7727,77.08,4.9864,92.2542,91.569,218.158,-61.0004,171.304,-96.5342,1.80964,-5.27112
85.5162,-71.6438,97.4641,19.576,94.5512,97.6079,-195.748,-67.7391,169.602,-97.6597,11.3012,43.9195
85.5437,-76.2131,72.8791,7.03489,78.9622,75.0248,125.012,40.371,185.267,-82.909,-13.7571,1.51708
85.5609,-62.8328,77.2129,-3.186,74.9669,89.429,-109.785,140.705,184.184,-79.2285,1.16731,10.4417
85.5999,-80.2479,73.7632,17.848,55.907,57.051,158.329,-32.6659,226.064,-56.0112,-26.4027,-6.62262
85.7981,-97.4641,97.0459,-4.2018,79.5609,58.8153,122.128,-166.54,203.969,-82.452,-30.6192,-9.01623
85.8228,-93.1223,94.326,40.17,63.5691,46.079,77.4353,-232.888,233.801,-59.8783,-36.2256,20.5914
85.8531,-87.4912,75.8997,-2.4607,43.359,79.7059,248.995,-80.5153,248.047,-46.9656,-7.69033,-21.1564
85.9099,-92.319,73.7952,43.049,50.549,84.7691,278.101,-223.345,250.956,-53.8958,-1.86095,21.0694
85.9649,-62.6862,73.2653,10.88,89.123,64.4641,-84.4917,126.163,169.11,-92.6224,-23.2872,22.0811
86.021,-82.6681,82.3959,42.7,62.9938,65.5899,88.2764,-124.852,228.538,-63.6429,-18.8762,31.6235
86.0302,-82.0619,83.5097,8.14041,95.818,74.2158,80.7029,-33.6543,170.628,-99.6771,-14.2368,11.9534
86.0319,-70.4389,83.288,4.1677,59.6059,77.0978,-64.5729,47.4482,221.303,-62.89,-9.37266,10.7326
86.0508,-96.5778,95.4897,-9.11421,86.0949,79.2807,140.265,-147.487,194.782,-89.9992,-10.7961,-10.6549
86.08,-70.856,86.928,30.085,70.4102,79.487,-103.464,-30.9081,211.894,-72.4324,-6.57525,42.3036
86.1012,-93.7319,98.6272,33.762,70.9992,42.739,36.8529,-232.259,225.476,-67.6067,-41.8967,22.0461
86.127,-85.0567,84.8688,36.634,55.486,49.08,92.9675,-140.213,241.123,-51.9308,-30.9988,12.262
86.1499,-76.5609,97.7099,2.3403,88.6377,96.1669,-135.215,-44.9954,185.125,-92.1594,8.43176,22.6859
86.1992,-98.0697,94.467,28.421,68.9612,94.6079,119.8,-244.206,230.249,-72.0254,6.61546,25.7016
86.2038,-76.059,99.862,-9.41192,89.9332,59.61,-153.08,-28.0062,182.379,-93.867,-28.6729,15.889
86.2193,-84.615,90.262,30.811,87.0541,97.746,23.9945,-127.888,194.145,-89.7837,10.5755,35.9798
86.2301,-74.2089,75.3439,46.735,61.6021,96.0988,59.4246,-51.426,227.636,-63.2805,9.00536,50.0385
86.2588,-84.6379,98.8392,14.634,42.382,45.594,-42.6905,-145.755,259.041,-37.6407,-27.6644,-5.2171
86.2599,-72.859,91.047,26.533,76.1438,99.5732,-119.152,-52.5531,207.123,-78.2097,12.7439,46.08
86.2651,-82.868,84.6327,-1.6205,61.5059,50.349,93.1289,-30.2007,226.903,-59.2727,-34.5498,-19.1693
86.2869,-68.2891,77.8392,24.854,95.8381,90.5222,-55.3146,39.4749,169.256,-98.4979,3.16505,33.7858
86.3539,-92.7258,87.5227,4.832,76.5288,85.0779,167.799,-129.613,212.269,-80.1953,-4.15668,-1.63923
86.3803,-96.509,99.2369,22.76,42.593,51.464,69.5665,-248.994,266.804,-39.9356,-24.4176,-3.28379
86.3843,-95.0428,75.5233,20.922,89.594,84.5479,301.349,-187.87,195.271,-92.8377,-4.86112,1.10557
86.429,-76.6268,93.9897,-4.3064,89.072,47.691,-90.1508,-9.2608,185.364,-93.0042,-40.7356,14.6583
86.4542,-86.1052,95.1001,10.394,41.839,93.226,11.3054,-131.079,260.705,-44.6445,4.25377,21.3109
86.4708,-75.3428,89.119,-4.9445,74.233,73.6801,-52.6718,20.8333,207.54,-77.29,-14.4996,4.9389
86.5968,-87.9971,93.6098,16.081,54.042,60.6951,40.1987,-141.259,248.43,-54.002,-22.1837,4.67127
86.8931,-80.3831,81.7932,5.1428,58.9281,71.3659,84.7138,-21.0467,238.108,-60.9301,-15.1144,-2.63776
86.9062,-86.7647,87.9101,44.597,94.0579,71.4129,71.7941,-174.537,192.815,-95.7242,-15.9711,47.0727
86.9721,-86.2038,98.0142,8.41159,53.206,67.1959,-20.8867,-129.45,252.999,-54.1793,-16.863,6.79065
86.9819,-99.811,71.9629,33.929,58.7889,60.1291,366.067,-294.351,254.365,-58.142,-25.0239,-9.29838
87.0151,-69.9232,72.5502,39.775,78.1108,98.2961,21.5578,8.16264,209.506,-79.7135,10.8695,43.1943
87.018,-94.8411,87.1469,35.741,81.1881,41.078,160.732,-221.207,217.315,-80.2511,-46.5648,20.3681
87.0449,-94.7661,76.5409,5.6009,97.1249,93.5892,314.746,-157.806,188.053,-99.8977,3.50397,-13.3847
87.0449,-97.5959,99.2999,-8.2554,91.0252,46.461,104.089,-167.144,198.52,-94.8752,-43.217,-3.59603
87.0999,-90.666,79.4051,2.4284,54.008,85.4773,240.556,-116.461,252.244,-56.873,-3.40026,-11.5843
87.1389,-91.4332,97.84,46.875,49.472,98.6931,42.5339,-257.837,265.835,-50.0169,9.53626,58.4639
87.14,-99.4219,89.1442,1.3648,51.58,42.321,222.497,-209.424,260.932,-43.3338,-36.6684,-41.5483
87.1881,-96.2311,73.0498,31.627,66.1107,51.704,326.069,-237.304,242.756,-63.5438,-34.1679,-7.90684
87.2328,-95.4387,80.4587,20.683,75.9461,47.017,252.357,-191.445,225.947,-74.3707,-40.9732,-5.25803
87.2351,-95.8988,95.3837,3.6874,58.8663,43.601,113.637,-179.902,250.79,-52.2908,-38.6757,-23.379
87.2741,-90.9628,97.2728,0.21254,71.8099,70.1272,43.494,-129.621,229.833,-73.79,-18.0188,0.734805
87.2792,-92.437,80.6518,38.881,75.0833,75.9662,203.825,-202.621,228.307,-76.7988,-11.8347,23.5499
87.301,-87.819,91.0418,14.342,86.936,59.7389,60.0467,-115.729,205.573,-88.9243,-28.7834,16.7226
87.3869,-95.0268,85.2131,-5.2819,50.981,74.9681,234.205,-153.339,261.118,-52.5941,-11.9117,-24.2592
87.4689,-85.8537,99.2901,-5.0038,65.9429,60.4081,-29.9493,-94.5195,239.232,-65.8994,-26.11,-3.48775
87.5468,-82.927,84.5772,2.4707,99.8133,62.5727,87.4199,-35.0828,183.707,-103.217,-25.9943,9.85298
87.5508,-93.7153,85.1037,10.341,56.789,99.623,198.485,-163.737,256.111,-58.8522,9.16137,6.51645
87.5691,-81.1457,92.4742,13.897,69.7037,85.7271,-30.3412,-77.996,234.109,-71.6539,-2.24451,23.3462
87.6482,-75.085,84.3549,9.15231,79.0281,99.6339,-19.969,8.09522,216.888,-80.9616,11.0872,19.4119
87.7061,-96.6018,70.0389,33.342,75.6871,40.091,357.286,-248.966,233.327,-71.0806,-47.4622,-7.93648
87.7559,-72.2288,92.6822,-6.65479,73.4142,50.873,-131.237,18.4355,226.699,-72.0094,-36.2407,2.17159
87.7743,-71.5309,72.5198,11.515,84.6201,90.0409,56.7311,65.425,206.988,-86.4709,1.28989,12.1238
87.7932,-70.7901,87.9158,20.709,90.0512,94.0722,-119.224,-13.6538,202.357,-91.5125,6.07431,36.9807
87.7949,-86.4398,84.3829,4.0582,78.525,76.6801,131.527,-68.5148,222.54,-80.4416,-12.2865,-0.573621
87.9278,-73.3472,99.5818,5.73307,90.7743,69.9169,-194.532,-57.7692,204.705,-92.2787,-18.3252,32.1558
87.9301,-79.0361,90.3428,17.798,47.696,91.4532,-25.9576,-81.9594,268.431,-48.7298,2.73591,29.5608
87.9502,-64.3701,83.2009,-2.6311,83.5413,88.0648,-150.965,98.2226,210.437,-85.4078,-0.529623,15.4778
87.9628,-67.2011,93.3171,18.65,86.001,87.0907,-215.645,-28.2427,212.006,-87.0666,-0.730836,44.2837
88.0338,-89.5711,90.4993,13.426,63.0752,72.5559,89.9239,-136.669,251.611,-63.9635,-14.4152,6.53533
88.0923,-72.6081,70.1083,-1.7703,44.879,89.5441,118.439,63.0925,267.911,-46.9258,0.533408,-4.85612
88.1009,-94.412,72.533,38.827,42.206,95.5441,314.603,-256.262,282.504,-43.4352,5.11214,20.7226
88.2309,-66.2551,74.6438,16.837,92.0021,84.0598,-48.9805,80.9379,201.411,-93.2863,-4.4775,25.0525
88.2418,-89.928,97.3639,14.696,46.56,97.832,25.2672,-177.599,276.678,-47.4223,7.21549,26.8103
88.3197,-64.8892,70.2251,27.375,92.3929,40.61,-27.9981,78.3226,202.036,-94.5854,-47.7554,35.9715
88.3747,-93.5411,72.8012,8.53489,43.381,50.177,333.679,-183.41,281.557,-37.5355,-26.4132,-42.7162
88.381,-94.6813,98.5831,39.414,74.0611,56.082,45.7195,-259.182,242.732,-71.94,-30.9314,33.0909
88.4492,-93.8098,79.526,24.605,63.4402,89.94,242.868,-192.846,257.185,-64.8137,0.963047,9.98297
88.4733,-73.9499,80.394,7.78397,88.2739,73.0498,8.10139,32.1943,212.428,-89.3701,-15.8034,13.7257
88.5082,-92.3001,83.3189,30.487,78.3571,80.5521,179.343,-184.878,234.918,-79.286,-8.11903,19.4334
88.581,-92.2743,83.005,2.4055,84.7101,42.598,219.007,-122.393,223.599,-83.8942,-46.765,-11.5649
88.601,-96.6608,74.9051,42.949,45.4,66.278,308.124,-287.689,284.321,-44.0628,-15.783,4.12659
88.7282,-75.3038,79.381,34.86,81.2403,94.0201,23.2125,-42.6023,229.135,-81.6989,5.4172,38.9771
88.7701,-80.1213,79.051,41.186,55.3,84.9238,95.6991,-106.212,269.377,-55.7027,-2.69664,36.5753
88.7712,-69.3737,94.9168,-7.29089,48.271,70.9408,-185.373,-3.67887,276.36,-48.0698,-12.9616,5.34117
88.8978,-78.568,70.754,13.749,66.5519,74.3338,172.695,-7.77673,252.861,-66.8389,-13.4449,-0.369738
88.9299,-90.1652,76.8749,13.461,86.4771,84.5348,246.229,-122.104,224.704,-87.2166,-4.8231,-0.460888
89.1299,-96.2678,94.4372,13.121,49.998,93.34,119.333,-216.318,282.536,-50.7095,3.59478,13.1723
89.1379,-83.323,87.8258,34.498,91.4979,46.068,33.691,-127.343,219.373,-91.9591,-42.897,40.1043
89.1511,-63.9553,94.648,4.1721,98.0222,41.834,-270.673,3.18281,207.501,-101.981,-46.297,43.8421
89.213,-80.1929,83.8982,46.01,54.122,41.509,53.9338,-132.541,276.36,-42.976,-36.237,16.343
89.2691,-61.0899,88.9528,-2.7005,83.696,42.183,-256.394,68.9921,231.02,-81.3306,-46.3279,18.3952
89.3499,-82.2767,91.5449,24.776,62.2112,74.0708,-7.7441,-118.402,267.154,-61.3502,-13.0094,25.9997
89.351,-95.1929,87.7972,29.609,70.3048,95.1362,162.912,-220.78,256.569,-70.5136,5.76983,23.5618
89.3551,-78.6069,96.5657,1.7417,56.469,55.747,-91.8217,-68.8375,274.608,-52.2731,-27.0499,-0.718027
89.3671,-62.449,79.149,5.82119,88.2842,53.592,-145.427,104.008,224.248,-88.05,-35.3361,21.0084
89.5138,-87.9479,76.8308,39.118,86.869,62.528,195.334,-159.597,231.191,-86.2931,-26.6352,26.0779
89.5441,-78.1893,79.7299,36.212,79.9058,70.672,55.572,-71.0798,241.888,-79.0273,-18.1384,33.7344
89.5659,-81.0042,79.5873,33.353,82.542,71.5189,90.5748,-85.4886,237.994,-81.9043,-17.4819,29.057
89.5791,-83.2021,92.4622,39.739,85.2492,87.7662,-10.7334,-158.21,234.821,-84.9279,-1.44591,48.2571
89.6358,-94.475,84.6551,10.526,80.2691,95.6811,210.178,-165.324,243.222,-80.5027,6.34893,1.35319
89.7252,-76.42,76.2681,4.6499,81.6247,85.3982,92.7219,27.2643,240.475,-81.7118,-3.71897,3.6585
89.763,-76.742,76.86,33,89.7991,85.7958,65.8829,-43.6694,228.582,-89.48,-3.53184,32.643
89.7779,-68.6558,73.9201,30.707,76.4841,98.1981,-9.77448,26.9945,249.586,-76.1011,8.8909,37.4648
89.8438,-97.1822,81.6877,0.43299,51.875,83.759,286.956,-197.217,286.79,-51.9611,-4.14988,-19.0874
89.8891,-72.3348,78.7783,13.929,80.4547,98.8238,-1.89015,28.7383,244.975,-80.2152,9.56539,21.3555
89.9257,-98.5688,87.4958,34.989,82.3839,60.8538,191.148,-264.166,243.478,-81.1183,-28.1776,19.2888
90.0512,-78.7651,88.9322,3.4566,48.589,76.9202,-9.59985,-48.4051,292.944,-47.8468,-8.7833,4.65227
90.0678,-74.8839,98.5642,-2.7842,64.2629,56.287,-156.965,-49.6553,272.569,-59.9293,-29.0511,4.4482
90.128,-71.4301,77.2582,7.03632,49.924,82.106,13.6301,35.2029,292.128,-49.4845,-5.02325,7.51998
90.1492,-73.1277,92.2382,-3.908,62.0313,52.508,-114.832,-4.02525,276.72,-56.3412,-31.5617,-4.86363
90.1492,-80.9859,78.6568,-0.49564,82.5781,75.4471,135.231,-7.2138,244.893,-82.0557,-13.6101,-5.20252
90.1813,-97.6142,86.826,10.831,54.61,80.2611,217.999,-216.854,286.884,-54.124,-7.08609,-5.88825
90.187,-92.849,79.2212,33.566,49.15,56.727,233.345,-221.893,293.499,-43.7151,-23.625,-3.65281
90.2048,-92.2468,77.606,45.697,82.4188,44.888,228.856,-224.455,245.586,-78.4354,-44.0953,22.6565
90.2861,-96.2987,89.0588,-3.3046,96.8889,45.666,202.586,-160.613,223.186,-98.5292,-43.3675,-4.87153
90.2878,-88.4372,88.2361,27.735,80.8042,41.823,88.4551,-155.764,249.517,-75.4455,-46.7147,16.5206
90.3102,-95.1757,75.27,29.743,65.8168,73.5139,295.212,-227.999,272.345,-64.3312,-14.2682,2.36829
90.4167,-66.8762,92.614,-4.2433,83.2158,93.866,-207.958,28.1801,248.318,-82.7665,4.52662,21.3741
90.4528,-62.791,84.894,8.37819,94.0361,84.3239,-198.958,59.9793,231.567,-93.401,-5.18126,30.2238
90.5061,-76.9729,86.708,0.799167,62.571,76.88,-9.34487,-11.247,280.554,-61.5449,-10.7077,4.12029
90.5571,-90.2953,72.831,1.3475,77.5882,99.4649,316.747,-113.213,257.263,-76.7724,10.1704,-14.1378
90.666,-74.1568,85.5987,36.433,58.8622,45.105,-40.6273,-78.4024,287.155,-48.3719,-36.499,20.2901
90.6711,-62.9411,95.8868,-5.3854,96.2202,77.7481,-292.61,15.9344,231.004,-95.5554,-11.7836,28.1617
90.6918,-76.3409,70.7442,31.193,67.4102,44.93,128.592,-33.5589,275.289,-58.3274,-39.9574,3.58301
90.7049,-99.6368,93.505,4.3408,56.924,84.3881,170.678,-226.983,288.686,-56.1538,-3.86741,-5.13602
90.9232,-82.876,72.1148,5.6026,68.3567,80.9927,225.53,-41.667,276.631,-67.1678,-7.36538,-8.8928
90.933,-92.8048,83.8592,23.851,75.3462,51.23,184.865,-183.324,264.499,-69.9522,-36.591,2.16831
90.996,-88.5002,72.6001,9.66528,94.063,88.1782,281.89,-104.732,236.01,-92.758,-1.07795,-6.49867
91.0012,-90.2328,97.9483,7.18678,98.0079,66.5743,18.6526,-150.066,229.523,-97.2656,-22.9219,17.5556
91.0292,-94,75.533,-7.22849,74.563,59.3911,345.686,-146.361,266.874,-71.5844,-28.117,-34.6258
91.031,-98.547,82.6537,39.702,96.9542,57.9409,237.558,-277.862,229.269,-96.2922,-31.9165,26.9484
91.102,-72.0408,81.643,22.726,63.9822,58.8279,-35.395,-13.866,286.363,-58.749,-27.0668,16.5041
91.2097,-78.211,90.199,25.186,71.9457,97.047,-45.579,-89.5253,274.569,-70.5212,6.73236,39.0104
91.2659,-77.4072,76.55,46.149,92.182,88.495,77.3963,-86.4806,242.67,-90.6765,-1.99565,44.8538
91.2699,-78.1451,71.2209,0.864318,53.54,79.695,180.141,2.30661,302.663,-52.0098,-7.01567,-12.5371
91.302,-99.5932,90.5709,-1.531,49.921,45.269,212.211,-223.633,303.471,-39.4803,-31.0888,-43.3372
91.3088,-73.1822,71.1848,-4.4095,74.041,67.2102,120.007,73.4279,275.067,-71.4935,-20.6793,-13.7447
91.3312,-70.5168,84.2168,2.8302,95.229,40.955,-76.5922,41.1105,241.604,-95.5051,-48.5195,20.4029
91.361,-96.9439,78.0999,24.605,70.6801,46.271,287.692,-234.933,274.823,-62.0799,-39.6648,-13.3342
91.3942,-98.5762,77.4627,33.926,55.08,73.424,301.206,-287.636,296.275,-52.3073,-12.8318,2.58876
91.5558,-86.4101,71.9389,20.205,69.5599,69.3308,249.145,-111.227,281.275,-66.5348,-18.4337,-2.7067
91.6022,-88.0602,73.8268,9.40413,99.6992,47.049,263.09,-100.715,234.11,-100.046,-41.7634,1.7661
91.6389,-68.8781,88.9219,21.183,83.0972,46.106,-153.072,-23.9595,264.044,-77.9189,-43.4922,33.161
91.6538,-84.2471,81.953,4.2405,88.1799,47.876,131.558,-55.0475,254.663,-84.8485,-41.3467,-1.88265
91.6881,-93.7439,94.5461,14.638,90.1761,80.7361,85.7812,-185.853,248.631,-88.2413,-9.08981,14.8406
91.6881,-97.0642,82.6772,-6.45769,52.057,82.2538,287.147,-191.597,305.066,-50.4218,-4.65853,-25.72
91.703,-84.0621,78.0168,26.902,86.7888,93.58,146.621,-99.5346,256.487,-84.809,3.6003,20.9169
91.7552,-69.7639,79.7047,-8.45078,48.521,92.5911,-21.8964,62.8669,317.439,-46.8988,2.90082,3.02883
91.7712,-99.9542,73.962,27.1,55.608,90.4821,355.682,-297.728,298.52,-53.7218,1.04127,1.08469
91.793,-85.6308,88.675,38.022,51.89,58.562,64.934,-181.306,306.704,-45.1454,-23.9791,19.4512
91.8079,-89.5711,71.6128,43.193,74.2972,48.551,265.046,-198.825,274.368,-66.6413,-39.2213,9.74793
91.8383,-77.3029,86.4398,9.06832,76.1312,62.9812,-12.453,-28.6454,277.264,-72.3849,-25.6189,9.97349
91.8468,-99.4362,80.5109,44.733,57.8498,68.7469,270.719,-318.714,295.424,-53.7824,-17.6264,13.2589
91.8497,-83.1602,85.5202,28.075,76.0607,90.2941,58.415,-113.97,275.074,-74.0628,0.0443961,30.0819
91.8497,-76.593,89.9188,18.146,49.535,50.069,-51.6821,-79.9999,313.629,-39.9209,-28.3067,1.75675
91.8829,-86.1041,78.7691,29.436,81.454,76.365,160.932,-127.721,266.225,-78.9842,-13.437,19.3209
91.9351,-79.0418,71.6151,-4.9707,59.1269,77.6959,198.164,5.96953,304.203,-56.9246,-9.01011,-19.2187
92.0107,-92.3831,78.635,-3.5835,49.39,71.0708,277.845,-150.236,313.107,-46.3044,-12.5092,-30.2945
92.013,-89.1878,92.0268,14.005,48.029,97.381,72.9119,-167.659,314.379,-45.5176,5.5177,21.7437
92.0187,-81.2242,92.7951,17.265,71.7171,61.5569,-34.3488,-102.622,284.114,-66.9939,-26.6679,17.7959
92.0382,-79.1071,74.0382,18.646,85.4389,51.444,135.903,-30.3096,264.714,-81.1368,-37.9571,7.74882
92.0411,-95.5321,92.3109,12.352,40.659,84.7519,137.624,-227.56,320.943,-38.3079,-2.74918,4.77447
92.135,-94.318,89.2032,22.394,43.232,71.2949,152.427,-232.062,318.912,-39.3796,-12.0521,2.90211
92.135,-92.2038,99.505,46.225,71.3332,41.68,19.7168,-275.249,279.737,-59.9349,-45.4295,31.9283
92.1809,-76.0939,75.0769,13.944,73.2091,46.912,90.644,-0.0831949,286.997,-64.5988,-39.7904,-4.37416
92.2158,-96.501,71.567,40.952,45.774,40.264,339.593,-301.852,314.004,-31.1758,-31.4538,-24.8397
92.2812,-74.7229,78.2179,38.22,91.039,68.1791,26.7291,-53.617,258.124,-88.4573,-22.8484,40.7422
92.421,-96.1899,89.8312,34.438,82.2613,73.118,146.168,-250.444,266.329,-79.164,-17.1469,24.6751
92.4439,-95.6902,96.4001,0.4373,87.69,43.729,103.58,-177.519,260.558,-82.7064,-45.4579,-4.46653
92.4439,-90.8339,74.767,11.778,78.9301,86.2049,280.719,-141.19,275.953,-76.3413,-2.8055,-5.55277
92.61,-76.0338,76.267,44.332,48.548,52.406,80.4973,-94.8645,322.776,-38.6234,-27.0183,15.969
92.6742,-90.6729,80.7441,12.876,76.1518,95.3539,209.824,-141.687,282.994,-73.3213,5.77594,4.31081
92.6759,-80.8237,98.5659,-6.8673,77.834,62.5051,-81.5988,-69.8972,283.733,-73.55,-26.1259,3.07638
92.692,-96.3549,93.1578,40.268,96.3629,99.9691,111.338,-271.537,245.042,-94.031,8.75292,35.9647
92.6988,-89.8988,76.2143,-4.2842,84.3829,54.238,284.772,-101.425,271.629,-80.1396,-33.7914,-23.6323
92.7023,-80.0348,74.2662,23.715,51.459,65.8042,147.326,-75.2428,321.475,-45.995,-17.8227,1.15452
92.7028,-88.4091,97.0293,0.894908,87.4792,86.8518,15.7033,-124.7,266.147,-84.7334,-2.86808,8.96586
92.7258,-72.1933,81.6173,22.793,89.6639,61.2698,-38.8197,-11.3809,268.16,-86.2988,-29.4206,30.0956
92.8398,-67.2847,87.3572,9.21459,76.0269,79.9139,-157.219,15.217,292.827,-72.8246,-10.2394,25.8901
92.8478,-85.3673,82.6933,6.1063,54.589,74.9652,136.267,-94.494,318.473,-50.9179,-10.9889,-6.15918
92.8868,-94.3799,97.7741,3.1446,99.1658,48.32,70.0077,-177.423,246.718,-97.8338,-41.1542,11.4809
92.8891,-80.1287,74.2811,12.694,82.6549,92.7727,154.061,-30.3587,280.322,-79.5784,3.16206,7.23864
92.8931,-87.1411,77.5859,33.45,82.0802,74.8541,182.477,-150.052,275.645,-78.5513,-15.3772,20.6969
92.959,-66.808,77.4501,29.657,74.0571,44.011,-69.3711,14.7741,297.21,-63.2173,-43.9954,21.2491
93.0128,-74.3883,98.7218,-6.37198,50.186,56.581,-158.032,-65.0593,327.918,-42.1082,-23.8915,-6.19292
93.0329,-75.7038,72.5869,9.82542,53.241,74.6638,120.238,-2.64942,326.967,-49.2818,-11.0726,-3.39942
93.081,-70.1581,89.8679,-5.5216,87.6138,77.119,-132.778,27.3619,278.187,-84.3724,-12.74,12.4615
93.1291,-97.2659,77.5097,49.423,65.818,63.097,277.994,-307.367,295.02,-59.589,-24.6559,16.2289
93.136,-92.4341,96.0822,25.346,84.941,43.641,48.5009,-211.821,270.688,-77.9232,-46.6156,19.9685
93.1618,-96.6603,95.8822,24.477,57.259,82.5781,98.2676,-258.113,310.178,-53.8156,-6.51482,19.0971
93.1818,-67.4028,93.8379,21.251,78.0071,88.6612,-215.037,-58.2564,290.807,-75.0685,-3.04977,47.0829
93.2328,-62.2547,86.7,0.738949,79.3552,67.809,-219.196,57.8054,295.46,-75.0004,-21.9947,19.1334
93.3491,-66.5989,77.2559,-4.6258,92.1242,63.6459,-50.1808,103.372,278.616,-88.5706,-25.8108,5.17992
93.3497,-71.685,88.275,5.5926,75.2981,55.343,-103.363,-2.80712,299.888,-68.3532,-33.0664,9.78132
93.5142,-84.8172,83.6908,0.013382,79.526,51.593,125.956,-63.5003,291.545,-72.3207,-36.1896,-12.2144
93.5737,-72.918,71.5412,-3.1127,86.3419,73.8932,109.637,68.487,289.041,-82.4465,-14.8369,-6.90277
93.5898,-97.2647,95.3218,31.058,73.5609,48.016,101.699,-268.705,289.661,-63.4784,-39.9943,11.4906
93.607,-72.7977,76.8061,10.699,92.0302,80.4037,28.1916,28.5844,278.278,-88.2293,-9.71866,14.1257
93.6247,-98.5098,86.4313,8.20842,74.9761,71.0628,234.96,-219.647,290.773,-70.3276,-16.9296,-10.4208
93.6287,-68.8478,92.3889,-3.5267,70.4709,94.1192,-176.784,4.08778,311.665,-66.9725,3.49182,21.0219
93.8339,-95.9653,95.708,8.7305,73.6549,49.634,103.26,-206.395,295.677,-64.1805,-37.2068,-8.18701
93.8642,-83.2112,74.3252,6.39381,55.462,77.3172,203.062,-70.1227,330.916,-51.0879,-8.82293,-10.5362
93.9101,-69.486,72.2872,32.053,75.5101,78.8991,18.501,7.25542,307.459,-71.2508,-12.0338,30.9117
93.9158,-96.1818,87.0781,45.731,72.7868,41.94,172.987,-285.307,292.486,-59.16,-45.7166,13.8987
93.9439,-79.9242,98.5252,-9.17231,87.8092,98.2668,-90.2616,-61.6981,284.035,-83.944,8.40132,9.91452
93.9651,-92.3631,71.7011,49.298,63.1829,53.907,292.122,-261.704,308.631,-52.9388,-31.5804,7.56286
94.027,-71.3963,93.8688,13.089,86.1001,85.844,-167.037,-52.1238,288.844,-82.3534,-5.78417,34.4898
94.0883,-86.4771,88.1908,13.679,59.9818,95.6238,81.0728,-131.942,323.685,-55.8131,4.48759,18.2651
94.1169,-65.5991,74.9669,48.175,98.2857,85.4291,-56.4617,-14.5201,272.198,-95.1258,-7.6092,57.8428
94.1209,-81.6511,73.369,32.903,82.3569,91.4143,163.476,-96.2499,292.357,-78.1945,0.325351,24.5794
94.2137,-79.703,73.958,-6.39008,80.7269,69.8338,184.143,4.78051,302.908,-75.8466,-17.8867,-16.9983
94.2441,-96.4529,83.7418,2.0045,58.0389,56.401,255.013,-202.216,322.906,-49.3826,-25.1634,-31.5253
94.3341,-91.8532,79.5718,19.216,88.9918,75.6511,226.411,-169.627,278.92,-84.1237,-14.1527,5.0913
94.3782,-80.6278,82.5712,31.688,46.592,58.7431,70.8202,-127.721,344.226,-37.209,-21.9422,9.0598
94.4802,-88.318,89.6559,26.374,63.7931,60.0099,77.3909,-179.724,319.131,-55.2906,-26.7084,10.9681
94.5592,-99.9599,82.2968,8.94851,61.7757,77.8541,293.491,-253.938,316.977,-56.7887,-8.74932,-15.4711
94.5821,-68.0829,86.0772,-7.46999,97.911,75.1617,-120.511,56.5924,284.836,-93.4028,-14.8665,11.032
94.585,-97.3048,78.5032,32.166,76.9322,41.569,277.237,-264.55,293.525,-63.5403,-45.7997,-6.43197
94.585,-87.556,72.592,10.847,68.092,58.5231,269.316,-118.297,318.284,-59.8112,-26.6923,-19.3159
94.5982,-72.2408,98.3791,25.875,88.2871,92.6742,-193.181,-118.797,287.228,-84.5665,-0.431173,51.9608
94.628,-92.7779,74.0221,30.44,58.134,75.1537,285.834,-227.049,324.687,-52.3751,-12.0105,2.48067
94.7409,-68.2398,72.109,21.534,66.6109,69.5851,8.45918,33.8844,334.695,-60.1246,-19.0127,15.0999
94.7718,-90.5508,85.9259,-7.14667,97.6939,66.4568,182.556,-109.068,274.174,-93.0804,-21.9057,-10.7409
94.8893,-99.0879,88.2573,34.303,70.016,91.6813,190.437,-291.562,304.834,-65.2348,0.229617,23.8019
94.8973,-73.9287,74.7452,5.5656,49.337,91.7363,77.1549,4.02249,357.824,-44.409,1.68894,7.46864
94.9282,-89.1929,76.0481,24.261,79.8789,56.416,229.952,-157.72,300.908,-71.6893,-32.4661,0.725749
95.0302,-94.1582,79.4142,14.009,87.7611,81.034,260.557,-187.107,286.88,-82.3945,-8.18234,-2.30859
95.0382,-86.7659,82.0722,18.237,56.764,80.834,147.043,-140.778,338.028,-51.3305,-7.49339,7.6623
95.103,-82.5031,81.3921,7.89702,57.221,91.2023,113.426,-78.4743,343.508,-52.1484,1.27684,7.40346
95.1288,-87.3468,92.563,42.785,88.479,61.0418,32.7536,-213.632,284.302,-83.1461,-32.1995,44.5451
95.1952,-82.279,76.0779,19.399,79.4641,62.889,153.821,-78.2498,311.558,-72.2019,-26.3798,4.96371
95.2032,-69.6722,70.4102,25.761,76.3919,49.981,42.4352,21.5302,325.276,-65.6373,-38.9203,10.8516
95.2319,-74.999,99.1778,-8.12798,60.7541,69.427,-156.559,-66.0154,341.604,-53.842,-17.3415,3.82687
95.4049,-76.369,85.8571,21.412,59.5939,94.8262,-19.8786,-76.5756,344.491,-54.7428,2.11912,32.9411
95.4559,-62.7899,75.466,-3.5876,45.786,86.7687,-86.2384,88.504,377.806,-40.3277,-1.87767,6.50422
95.4599,-98.72,93.6717,17.385,82.6251,91.7231,141.582,-248.753,294.139,-77.1545,1.19907,12.5187
95.4679,-93.3812,74.8879,47.753,94.9729,64.6422,265.449,-259.564,272.833,-89.6146,-27.5945,28.8159
95.4708,-62.8231,81.517,-8.6877,99.89,44.491,-150.162,102.731,299.021,-96.2884,-45.4383,14.2486
95.5212,-71.4513,84.3279,-4.5725,49.327,85.7901,-51.4103,8.71125,367.282,-43.8632,-2.64905,4.99752
95.6049,-98.017,92.4009,24.607,63.9518,95.6118,145.122,-269.359,322.292,-58.4022,3.73804,21.5919
95.6278,-91.7282,78.647,13.402,90.3933,65.575,243.911,-161.033,291.27,-83.8899,-23.6887,-2.60357
95.7802,-73.2698,71.1711,-3.7772,96.254,85.962,120.445,59.3371,304.836,-90.4779,-2.66797,-6.07854
95.8289,-68.8042,83.5922,0.623722,88.522,75.9341,-92.4079,41.1134,316.893,-82.4993,-14.6197,13.2012
95.8518,-71.7847,79.6251,-6.35742,64.2658,71.1711,5.35186,41.5347,354.942,-57.272,-15.1443,-8.82174
95.873,-66.3262,72.0557,-6.73712,82.09,78.3371,8.254,114.331,334.864,-76.1261,-10.2625,-3.92073
95.932,-78.753,73.986,-2.5074,75.5708,42.644,163.423,-2.77304,334.171,-62.0343,-42.1414,-27.2537
96.0541,-65.7498,82.0888,-6.7487,68.795,48.332,-111.96,69.8992,354.31,-55.5242,-36.2449,-12.761
96.1498,-83.559,75.2127,37.252,98.429,92.5688,164.099,-132.587,286.983,-92.5812,0.102638,28.3872
96.171,-96.3852,85.9637,25.692,97.1908,63.1268,194.817,-238.974,278.178,-90.9594,-27.9576,15.327
96.1887,-96.921,96.5268,-0.84772,66.9639,85.2298,117.252,-210.866,329.4,-60.8642,-3.25227,-3.79762
96.1967,-62.9738,78.2511,5.5921,57.5089,63.3869,-121.722,62.968,372.063,-47.9077,-21.6106,3.12285
96.2059,-97.188,80.8008,15.631,58.5511,86.5258,273.579,-246.808,337.753,-52.2977,-1.88732,-3.08247
96.2191,-65.5779,72.211,11.557,93.607,94.5758,-29.0665,79.5248,318.316,-87.5414,3.47151,17.9504
96.3411,-73.982,71.6083,25.72,94.5059,78.6522,88.2337,-14.6637,308.346,-88.1664,-13.1561,22.6141
96.3881,-99.2071,83.7899,22.907,89.7292,54.657,248.487,-263.557,289.807,-81.3089,-35.2732,2.0504
96.4259,-72.839,74.555,3.823,66.1801,64.448,64.0386,25.6837,358.745,-57.1745,-21.5206,-8.20103
96.4792,-86.6037,93.5491,5.307,71.5137,90.87,29.5009,-131.892,334.35,-65.1865,0.259948,12.3128
96.5262,-74.363,93.3978,12.34,90.6362,89.4381,-124.78,-68.8917,311.634,-84.7718,-3.23287,30.6935
96.5308,-78.8928,73.6062,4.8012,50.356,50.054,157.786,-43.3785,374.291,-36.8985,-25.619,-31.2421
96.5348,-78.4351,83.3808,-8.90932,71.9131,75.4591,60.2627,-10.246,347.677,-65.0223,-11.8521,-10.2216
96.5589,-80.8088,77.229,26.111,88.3707,63.604,116.243,-85.5981,313.446,-80.8799,-27.8722,18.2139
96.568,-82.8422,93.493,31.228,77.1488,43.18,-25.3883,-167.063,322.475,-62.0759,-47.3514,21.6168
96.6288,-60.7341,92.9189,11.267,65.587,97.7437,-292.546,-31.9191,356.668,-59.8924,3.10601,47.2696
96.631,-82.1278,85.9511,-5.6302,62.9801,85.8308,74.769,-59.7055,356.835,-56.5002,-2.35566,-4.24654
96.6368,-79.7288,87.4981,17.595,79.4458,42.188,0.674946,-87.9784,328.774,-64.6967,-47.0977,6.54192
96.6878,-90.3721,93.4047,20.609,71.9572,78.5651,60.2331,-196.397,328.664,-64.9488,-12.2896,18.4254
96.7153,-83.449,78.7278,30.134,94.848,45.331,129.732,-120.888,300.859,-87.5079,-46.8609,23.4004
96.7708,-92.0732,71.6621,26.622,47.461,52.028,308.717,-236.296,358.768,-33.7894,-23.4736,-24.6791
96.8132,-98.7642,77.4587,13.672,99.713,54.213,328.737,-248.602,279.117,-92.9652,-34.2809,-6.04159
96.8322,-80.9372,71.4352,44.186,80.52,81.3657,170.89,-128.198,324.299,-73.9582,-11.6029,31.8284
96.9278,-82.2979,77.5023,2.9051,54.014,60.4482,160.926,-73.2252,371.27,-43.5221,-20.1523,-22.7218
96.9347,-62.0278,80.0588,23.59,62.4312,95.7687,-157.886,14.6693,370.711,-56.5977,1.06259,43.9232
96.9582,-89.6759,81.0128,24.064,67.6531,80.1092,183.574,-180.503,339.891,-60.2814,-9.67028,10.2855
97.0338,-75.9438,71.496,36.978,74.9377,82.326,111.978,-68.4157,342.775,-68.137,-10.1979,29.1998
97.0522,-81.3399,88.9591,6.61972,60.875,61.6279,16.8308,-93.2857,361.457,-50.1382,-23.3258,-3.76721
97.0522,-93.5462,70.4698,8.00691,90.4248,45.599,366.948,-190.295,303.321,-81.0503,-41.558,-20.6305
97.1072,-77.7819,83.174,7.86768,49.917,67.1948,35.4829,-63.7062,380.211,-40.3973,-15.9376,-4.12843
97.1708,-93.8539,88.1037,1.5947,79.6961,97.2458,178.86,-172.618,324.448,-72.4885,8.21748,-2.27131
97.1748,-86.0909,86.6719,8.21971,85.7443,45.678,95.6277,-111.02,322.34,-73.8353,-43.5252,-2.6736
97.1988,-99.4362,89.9578,-9.23912,68.4788,94.196,235.373,-219.528,336.264,-61.7389,6.74779,-16.7392
97.259,-96.1131,90.4872,-4.805,82.6612,67.562,187.02,-184.08,319.106,-74.5312,-19.6915,-16.3782
97.3043,-65.877,73.181,21.077,63.2511,66.572,-35.7394,31.0534,376.657,-53.383,-21.7632,14.2848
97.322,-89.7321,92.747,21.026,93.6671,82.114,57.9178,-185.012,302.038,-86.6078,-10.2505,23.052
97.3598,-82.8697,85.6572,36.01,86.5332,63.7771,50.75,-151.192,318.163,-78.6429,-29.8054,33.3464
97.3598,-86.2221,92.0302,19.139,58.0108,66.199,34.7496,-171.935,359.226,-47.828,-20.4497,8.93545
97.4229,-92.9217,81.1027,47.196,66.042,51.967,205.35,-272.41,335.436,-51.3499,-35.4261,12.2806
97.475,-76.8262,89.6587,-0.874001,75.1709,91.3553,-43.2372,-40.8128,352.018,-67.888,0.617636,12.038
97.5329,-91.4693,81.0489,32.054,97.7002,43.095,192.699,-207.712,294.627,-90.402,-49.1262,21.6029
97.5598,-99.2168,90.5227,15.996,71.9371,55.778,184.273,-262.136,329.393,-59.6094,-30.6398,-9.52267
97.6733,-81.0552,70.927,10.799,97.035,84.4901,206.889,-50.6092,317.653,-89.1559,-4.90542,0.331228
97.6819,-91.2533,93.1818,-4.9676,64.2309,67.4388,101.356,-157.31,355.832,-54.8024,-17.4658,-15.984
97.7088,-74.072,86.0697,5.5149,65.4541,91.6062,-45.8252,-32.377,371.218,-57.9326,-0.0126395,17.9664
97.7907,-89.4089,77.9853,11.189,94.5461,65.1178,228.731,-140.071,311.324,-86.0212,-24.182,-2.30664
97.8732,-78.9032,74.3739,2.2541,91.6658,96.6952,152.427,-16.4271,333.656,-83.8062,7.80309,-1.65319
98.009,-76.6371,74.0239,33.174,91.8228,65.9188,93.6681,-67.6286,328.252,-83.7467,-27.3382,27.5719
98.0571,-90.8528,85.1117,8.34943,59.877,70.2773,169.926,-173.581,364.119,-50.2237,-14.849,-10.0807
98.0652,-94.6429,78.2523,39.598,85.526,49.543,247.994,-263.662,312.135,-73.2985,-41.8633,11.9467
98.072,-67.656,79.581,22.739,87.089,76.2131,-80.6359,0.275068,346.744,-79.3944,-17.4014,31.5994
98.1528,-75.7032,89.2061,-5.8016,63.9461,66.2769,-46.2464,-33.5764,379.127,-53.5586,-19.5841,-6.43367
98.154,-90.9702,75.1262,46.878,65.8592,71.8529,245.315,-254.42,344.928,-56.377,-18.8789,20.7029
98.2113,-95.6438,82.715,42.25,93.0008,82.0911,210.061,-278.837,299.114,-85.2831,-11.4502,28.0646
98.2571,-84.2443,85.9379,13.606,68.3269,89.9618,77.3448,-121.495,361.506,-60.2474,-1.3449,14.9518
98.2869,-64.7247,91.208,0.928461,71.0193,51.031,-225.085,-7.98833,374.184,-55.9962,-36.8603,6.40922
98.3081,-76.0218,83.8438,30.494,97.4389,52.02,-12.3813,-85.4912,320.647,-90.4188,-42.4856,38.0987
98.339,-82.1048,78.4591,-0.054175,66.5639,41.381,152.356,-61.8904,373.48,-47.8456,-38.5406,-33.5845
98.3488,-82.0842,87.1062,30.031,77.347,72.7891,29.1971,-143.269,345.422,-68.608,-20.2308,28.3584
98.3723,-61.2538,86.013,4.1867,95.009,88.8388,-229.973,37.3144,343.575,-87.4856,-4.39451,28.1737
98.39,-74.4587,78.9473,-7.44037,45.862,50.754,53.258,-7.16993,409.873,-31.8429,-21.896,-35.0689
98.48,-65.6638,97.1547,-0.788871,88.1341,74.398,-268.713,-41.4028,344.849,-79.8491,-18.9562,27.5167
98.4972,-95.9378,99.8218,41.119,81.9009,56.294,43.8396,-308.466,313.863,-71.2081,-37.8763,34.2827
98.5241,-65.9709,74.9068,14.404,78.5388,84.6918,-52.9204,44.2117,373.156,-70.2342,-7.48436,20.9929
98.5722,-71.4209,84.9037,3.9854,78.195,45.616,-70.9545,-4.18249,367.353,-62.0853,-42.5975,-2.04751
98.5957,-93.1549,73.5449,27.556,81.7233,96.7789,295.168,-226.514,328.931,-72.9564,5.98763,9.69956
98.5997,-82.7002,75.8333,17.7,45.588,65.0061,169.291,-125.761,395.455,-33.9037,-15.3728,-9.62168
98.81,-77.9813,79.7248,0.44225,97.1072,67.7838,80.907,-17.7146,337.606,-88.0424,-21.7969,1.09108
98.8152,-72.831,70.672,25.242,74.2542,79.7042,84.6971,-21.5314,374.07,-65.2449,-11.949,18.3568
98.8238,-77.5521,86.1992,3.0681,60.8137,73.5288,1.80851,-59.2128,388.769,-50.8083,-13.7112,1.12973
98.8278,-97.9047,94.9019,40.875,64.8611,59.944,113.387,-326.369,342.148,-51.8269,-29.4765,19.3467
98.9212,-77.2863,83.834,39.728,70.7597,95.1729,8.44531,-129.677,364.366,-63.8883,-1.24741,47.7165
98.9681,-97.6119,85.4011,16.747,89.2611,47.089,224.189,-243.929,317.804,-76.2943,-42.1549,-5.0471
99.038,-80.414,77.8059,20.456,61.66,86.0399,113.994,-98.2293,384.321,-52.6994,-4.98351,15.119
99.0461,-75.0621,73.7001,40.022,88.2928,73.2738,76.0281,-77.3594,345.921,-79.8037,-21.5181,35.1276
99.1429,-68.9199,79.2693,17.067,57.136,41.542,-49.9816,-16.4535,404.892,-34.6539,-36.6422,-11.2356
99.1469,-80.4169,98.527,-8.88319,94.699,89.6329,-84.4499,-86.0101,335.562,-85.7574,-1.08906,8.84025
99.1899,-66.6602,80.7882,7.19721,98.7859,52.464,-99.8056,35.0291,348.925,-89.9912,-40.0028,20.9056
99.2999,-79.3999,86.2771,7.97798,73.3231,90.4013,17.94,-75.1414,373.825,-64.281,-1.13296,14.6108
99.3211,-98.6948,83.1178,16.928,63.0809,58.0211,260.526,-275.303,357.353,-49.1114,-24.6704,-18.9944
99.3371,-92.1981,83.1259,27.768,57.8389,85.2469,187.316,-236.691,371.092,-48.5077,-5.7615,15.1901
99.3572,-89.8552,73.3489,33.18,67.9551,78.8802,258.767,-214.52,360.195,-58.0275,-11.4001,10.4717
99.3612,-90.5399,72.0202,-3.2878,60.8,73.9751,336.112,-162.215,379.059,-51.8634,-8.46165,-31.1158
99.4087,-63.9289,84.6402,11.066,87.8052,94.5678,-180.674,13.1311,366.735,-79.5164,0.408177,31.8499
99.4981,-93.9049,78.8888,40.513,57.7238,92.1729,240.919,-284.268,365.006,-48.7793,-1.761,26.4862
99.5067,-98.0342,73.5741,15.589,84.3302,66.855,361.916,-265.467,327.592,-73.5983,-20.2121,-14.9558
99.9439,-61.6199,89.7281,-9.74217,89.9292,87.2878,-250.911,36.2669,375.031,-80.457,-4.92538,17.2159
